/* XPM */
static char * review[] = {
"40 86 40 1",
"0 c #8e8b77",
"1 c #5c524d",
"2 c #5f4026",
"3 c #4d3d30",
"4 c #4b331f",
"5 c #433225",
"6 c #412d1c",
"7 c #3a2b1e",
"8 c #302a28",
"9 c #3a2616",
"A c #382517",
"B c #362619",
"C c #362416",
"D c #342215",
"E c #332215",
"F c #31241a",
"G c #312014",
"H c #2f2219",
"I c #2c221c",
"J c #2f1f12",
"K c #2d1e14",
"L c #2c1e15",
"M c #2b1d13",
"N c #2a1c12",
"O c #291b12",
"P c #291a10",
"Q c #271b14",
"R c #271a11",
"S c #251a12",
"T c #261910",
"U c #231911",
"V c #25180f",
"W c #24170f",
"X c #23160d",
"Y c #211710",
"Z c #21150d",
"a c #1e130c",
"b c #180f0a",
"c c #150c07",
"d c #100b06",
"TRRRRRROOOOOONNNNMMMMMMNNNNNOOOORRRRRRRT",
"RNKKMOROOOOOONNMMJGGJJJMMNMNNOOORROKKKOR",
"PJCBEMPROOONMMMNKECCEEEKMMNNONOOOOJB7BKO",
"OE76BKOROOOMHBBFFB77BBBFEHHLMNOOOOL756GO",
"RG77CKRROOOK7333533335555337LNOOOOLB57GO",
"TMGGKNRRONNK7333553333533335KNQOORNKEGMT",
"VTRORRROONNMGF77BBB777BB777FMOOOOOLFFLPV",
"TOOMLMMLLLKKKLGGEEEEBBBEEHGLMNOOOH7557LT",
"QHBBBBB7777B777777777667777GMNNOM733337O",
"QF77777777556555556977777BBGNNOOL533335M",
"OH7777BB7777777666ADDDDEEGGKNNOOM733337O",
"TOLLLLKKLLKEEECBAACDDEEEGGJMMNOOOH5335HT",
"VVTRRRROOONMKJGEEDDDDDDEEGJMMNOOOOLFFLRV",
"VVTTRRROOONNJGGEDDDCCDDDEGJJMMOOORTTTTVV",
"VVTTRRROOONMJGGEDDCCCCCDEEGJKNOOORTTTTVV",
"WVTTTRRROONKJGEDDCCCCCCDDEGJKNPORRRTTTVV",
"WVTTTTRROOMJJGEDDCAAAACCDDGJMNPORRTTTTVW",
"WWVTTTTROOMJGEEDCAAAAAACDDGJJNPORRTTTVWW",
"YWVVTTTRPPNJGEDDAAA999AACDEGJKNORRTTVWYY",
"YWVVVVTRPNJJGEDCAA9999AACDEGJKOORRVVVWWW",
"XXWVVTRRPNJJJDCCA999999AACDGGKNORRTVVWWX",
"XXWVVTRRONJJEDDA9999999AACDGGJNPPRTVVWXX",
"ZXWVVTRRONJGGDCA99999999ACDEGJJPPRVVVWXZ",
"ZXWVVTRPPNJGECCA99999999ACDEGJJPPRTVVWXZ",
"ZXWVVVPPPNJJECAA999999999ACEGJJPPPVVVWWZ",
"ZXWWVVTPPJJGDCAA999999999ACDJJJPPTVVWWXZ",
"ZZXWVVVPPJJGDCA9999999999ACDGJJPPVVVWXXZ",
"ZZXWVVVPPJJGDCA9999999999ACCGJJPPTVWWXXZ",
"ZZXWVVTPPJJGDCA9A999999A9ACDGJJPPTVWXXXZ",
"ZXXVTPONNJJJGEDDDDDDDDEEEDGGJJNPPTTVWXXZ",
"ZZXTMECBAEJE999DGGC99AGJE999EMMJGJJPVXXZ",
"ZZWPD64226D62224CA42249G62224E94446GTXZZ",
"ZZWP942224A422229922224C42222962224ATXZZ",
"ZZXP922224C522229B32224E522229422227TXZZ",
"ZZXT922225D62222AA22226G622249622226TXZZ",
"ZZWPD44449G94246GE64449J94446GA4324CTXZZ",
"ZZWPG9999EJGECDGJJEBACJJJEEEJMJC79AJVXZZ",
"ZZXOA4444AJHFFHHKD9644AG9669DKC4446GVXZZ",
"ZZXN622226GFB8FHK942224942246E622229TXZZ",
"ZZXO622224EF88IHK922224622224C422229VXZZ",
"ZZWP622224GHF8IIK922225942224C422229TXZZ",
"XXWP944449KLHIILL942237A42224D94444DTXZZ",
"XXWRJCCDEJMNMMOMLB6446BHA6449JNGEEJOWXXX",
"XXXTG999AGMKLLLKH744447B66669JJA9ADPWZXX",
"ZZXR922229JHFFFHB422224642324C62224DXXXZ",
"ZZXP622224GHF8II74211244211349422229VXXZ",
"ZZZP622224KIIIIFH2000026311139422229VZZZ",
"ZZZP922249MLIIIQ3000000431115C62224DWZZa",
"aZZVJ99BCJVUSSQb20000002G757CPJCBBDPZZZa",
"aaZOBBBBBBB7777F20000002B677BBFFHHGKVaaa",
"aaV7777775555535200020025355577BBFHFFWaa",
"aaH7BBB777755555200220025555677BFHHHHLaa",
"aaFBBBBB7775555540000024555577BFFHHHHLaa",
"aaFBBBBB7777555544222244555777BFHHHHHLaa",
"bbFBBBBBB77775555455444556777BFFHHHHHLba",
"bbHBBBBBB7777732222222222577BBFHLLLLKLbb",
"bbHBBBBFBGMB77B5556555556FBFFFHLLLLLKMbb",
"bbHBFFFBK31575157337577F5153FLFLLLLLLObb",
"bcLBFFFBX0000000000100001000001XLLLMMQbb",
"bcLBEHHFP1331111113311111111115RLLMMMQbb",
"bcLFHHHHHOLNOLKWMHHLRMOVSNXXXaOMMMOOMQcb",
"bcLFHGHHHHHHHFY27LQ44QLB4YHLLLMMOOOONScb",
"bcLHHHHHHHHHHN200620046002QLMMOOOOOQOScb",
"bcLHHHHHHHHLGU200G4004E002ULOOOOOQQQOScb",
"bcMHHHHLLLLLLS924RE22JR429UQQRTTRQRRRScb",
"bcQHLLL77FFFFHFIIHHIIFHILLHHHHFFLTSSRScb",
"bcQHLLL33333355333533333353333337WSSTUcb",
"ccQHLLPVVTVVVVVVVLRRRRRRTRRVVTVYUSUUVUcc",
"ccQLMP88888888888TRQQQQQRRSSSSSUUUYYWWcc",
"ccSLP1000011111111QSRRRTTTSUUUUUYYYYWYcc",
"ccSN800000000011118XSSSSSUUUUUYYYYYYYYcc",
"ccSP800000000100118XSSUUUUUYYYYYYYYYYZcc",
"cdQR800000000000018YSWUUUYYYYYYYYYYYZZcc",
"cdSQ800001000111118UUWUYYYYYYYYYYYYYZZdc",
"ddSIQ1111111111118QUYXYYYYYYYYYYYZYYZZdc",
"ddWQQQ88888888888IQQSSSSSUUUUUYYYYaaaadc",
"cdWSQ88888888888888FFFFFFFFFFFFFFFIaaadc",
"ccYUQ8888888888888F8FFFFFFFFFHIIIIFYaadc",
"ccYUQ7FFFFFFFFFFI111113IFIHHHIIIIIIYbacc",
"ccYWQ7FFFFFFFFFFF77777FHHIIIIIIIIIIYbacc",
"ccXWUF7F77FFFFFFFFHFHHFFFIIIIIIIIIIababc",
"cbYYYUQQQQQQQQSSSSSSSSUUUUUUUUUYYYabbabb",
"ccaUYYYYYYYaaaaaaaaaaabbbbbbbbbbbbbbabbc",
"cbbaYUUYUUUYYYUUUUUUUYYYYYYYYYaaaaaabbbc",
"ccbccccccdccddddccccccccddddccdccccccbbc",
"cccdddddddddddddddddddddddddddddddddddcc"
};
