/* XPM */
static char * review[] = {
"40 86 40 1",
"0 c #a38a5a",
"1 c #306ab8",
"2 c #5b432c",
"3 c #433a37",
"4 c #423022",
"5 c #3d2b1b",
"6 c #3a291b",
"7 c #352a21",
"8 c #34271e",
"9 c #2a2b33",
"A c #382517",
"B c #362517",
"C c #33251c",
"D c #342214",
"E c #312216",
"F c #30241c",
"G c #2f2116",
"H c #2d231d",
"I c #2d2017",
"J c #2f1f13",
"K c #2d1e14",
"L c #2c1e14",
"M c #2a1e16",
"N c #2b1d12",
"O c #2a1c13",
"P c #291b11",
"Q c #281b13",
"R c #271a11",
"S c #271911",
"T c #241a15",
"U c #261910",
"V c #25180f",
"W c #24170f",
"X c #23160d",
"Y c #211710",
"Z c #21150d",
"a c #1e130c",
"b c #180f09",
"c c #150c07",
"d c #100b06",
"URRRRRRQPPPOOOOOONNNNNPPOOOOPPPQRRRRRRRU",
"RPKKLPRQPPPOOOONLJJJJJKNNOOOOPPQRRPKKKOS",
"PJBBENPRPPOOOLLNKDBBDDELNLLOOOPQQQJB5BKQ",
"PE54AKQRPPOOLF875565666BCCGNOOPPPPI544EQ",
"RE65BLRQPPOOG43222322443334GOOPPPPL645EP",
"UOGGJORQPOOOI43222322343224GOOQPPROJEENU",
"VRQQQRRQPOOOLEC6666656B666ELNOOPPQLEFIRV",
"UVURRRRQOOONNLLKJJJGEJJGKLLLNOOPOI4337IU",
"RLGGIIGGEEEEEEEBBBB66BBBEGLNNOOPL733337Q",
"QF77888867787655554445556BKNNOQPL422334O",
"RLGGGGGEECCECBB6666666666DJNNOQPL732337Q",
"VUURRRPPOOPNLJJEDDDDDDDEEEJNNOQPPG4334IU",
"VVURRRRQPPPNKJEEDDDDDDDEEJJNNOPPPQIFFLRV",
"VVUURRRQPPPNKJEEDDDBBDDDDEJJNNPPPRUUUUVV",
"VVUURRRQPPPNJJDDDDBBBBBDDEJJLOPPPRUUUUVV",
"WVUUURRRPPPKJGDDDBBBBBBDDEGJLOPPRRRUUUVV",
"WVUUUURRPPNJJDDDDBAAAABBDDDJNNPPRRUUUUVW",
"WWVUUUURQPNJJDDDBAAAAAABDDDJKNPQRRUUUVWW",
"YWVVUUURPPNJJDDDAAAAAAAABDEJJKPPRRUUVWYY",
"YWVVVVURPPNJJDDBAAAAAAAABDDJJKPPRRVVVWWW",
"XXWVVURRPPJJJDBBAAAAAAAAABDJJKPPRRUVVWWX",
"XXWVVURRPNJJDDDAAAAAAAAAADDDJJNPRRUVVWXX",
"ZXWVVURRPNJJDDAAAAAAAAAAAADDJJNPRRVVVWXZ",
"ZXWVVURRPNJJDDAAAAAAAAAAAADDDJNPRRUVVWXZ",
"ZXWVVVRRPNJJDDAAAAAAAAAAAABDDJNPRRVVVWWZ",
"ZXWWVVURPNJDDDAAAAAAAAAAAADDJJNPRUVVWWXZ",
"ZZXWVVVRPNJDDAAAAAAAAAAAAAADJJNPRVVVWXXZ",
"ZZXWVVVRPNJJDAAAAAAAAAAAAAADDJJPRVVWWXXZ",
"ZZXWVVURPJJJDAAAAAAAAAAAAABDDJJPRUVWXXXZ",
"ZXXVUPPPNNJJDDDDDDDDDDDDDDDJJNNPRRUUWXXZ",
"ZZXUNGIGGKJGEEGGKJGEGGKKGGIILNNLLLOQVXXZ",
"ZZWPGC8CFEJC8CFGJGC8FFIKFCCFILIFCFIOUXZZ",
"ZZWPG877FEGC777FJE877FIGC778ILG88HHOUXZZ",
"ZZXPG877HGGF778HIGF78HIKF878HLIF88HMVXZZ",
"ZZXPGFFHHILGFHHILIFHHHMLIHHHIOLHHHHOVXZZ",
"ZZXRLIIMMLLLIMMMLLIIMMMOMMMMMQOMMMMQVXZZ",
"ZZXRLKKLLLKJJGKKKNLLLLOPOLOOPPPOOOQRVXZZ",
"ZZXPGECFFKD54445DJFFFILLIFFILOLIFFIOVXZZ",
"ZZXPG877FGB42444AG888FKLF88FILIC8HHOVXZZ",
"ZZXPG878HIA448446GC77HIKF88HILI88HHOVXZZ",
"ZZWPGF88HIA44544AGF8HHILFHHHIOIHFHHOVXZZ",
"XXWRLIHHHME54445CF7HH7HHHHHHMQMIHHIQVXZZ",
"XXWRLKMQOMMIIIGHH77HH77HHHMMMQQQQQQRWXXX",
"XXXUJA66AEIGBBEIIF64458FA556EMMMOMOUWZXX",
"ZZXUD42224C52245KB22225B42225IHFFHIQWZXZ",
"ZZXUD33323622224GJ42225622224F777HHQWZXZ",
"ZZZVE33333622222R200002D22224F99HHHQXZZZ",
"ZZZVD433348422242000000422225HHHHHMSXZZa",
"aZZVND656FIB444J20000002J45AGTTTTTTWZZZa",
"aaZPCBB6887744480000000284778CCFIIIIVaaa",
"aaV66666544444442000000044444458CEEEFWaa",
"aaE6888665444444200220024444468CCGGIELaa",
"aaE6888665444444400000044444568CFGGIIIaa",
"abE68CC865544444442222444444568CEIIIIIaa",
"bbF8CCCC6655444444444444444578CEGIIIILba",
"bbG8CCCBC65547222222222224768CEGIIIIIMbb",
"bbGCCCCBCEK86664444444444C8CCFGIIILLKMbb",
"bbGCBBBCJ22464046334477C4243EIELIMMMMObb",
"bbICBCECX0000000000200000000002XIMMOLObb",
"bcICEEEEP2322222222202002202224RMLOOLObb",
"bcLEEEEGFQLOPLIWLGEKSLPVSOXXXaQOOMOOOQbb",
"bcMEEGGGGEGGGEY26MT44TM62YIIIIOOOOOOOQbb",
"bcMGGGGGIIIIGO200520025002QLMMOOOOOQPRcb",
"bcMEGGIIIIIIGY200D4005E002TLOOOOOQQQPRcb",
"bcOIIIIMMLMMLT524RD22JR22AYQQRSSRQRRRUcb",
"bcOGIIL88ECCFGCIIGGMICGIIKIFGGFEISRURScb",
"bcQIIIM32333234223423322243333327WUUUWcb",
"ccQILLPVVUVVVVVVVPXXXXXXXXXXXWVYVUVVVWcc",
"ccQLOP9999999999999999999999TXTVVVYYWWcc",
"ccTMP311111111111111111111111HYYYYYYWYcc",
"ccTP91111111111111111111111119ZTYYYYYYcc",
"ccTP91111111111111111111111119YTYYYYYZcc",
"cdTR91111111111111111111111119YYYYYYZZcc",
"cdTQ91111111111111111111111119YYYYYYZZdc",
"ddTMT3111111111111111111111119YYaZYYZZdc",
"ddWTTT9999999999999999999999HTTYYYaaaadc",
"cdWTT7779999999999999999999977HFFFMaaadc",
"ccYUM77777777777777777777HHHHHHHHHFYaadc",
"ccYWQ78788888888H202222IFHHHHHHHHHHYbacc",
"ccYWQ788C88CFFFFH77877FHHIHHHHHHHHHYbacc",
"ccYWYF78888888888FFFFFFFFHHHHHHHHHMababc",
"cbYYYYTQTTTTTTTTTTTTTTTYYYYYYYYYYYabbabb",
"cbaTYYYYYYYaaaaaaaaaaabaabbbbbbbbbbbabbb",
"cbbaYYYYYYYYYYYYYYYYYYYYYYYYYYaaaaaabbbc",
"ccbccccccdccddddccccccccddddccdcccbccbbc",
"cccdddddddddddddddddddddddddddddddddddcc"
};
