/* XPM */
static char * review[] = {
"40 86 40 1",
"0 c #bc803e",
"1 c #916743",
"2 c #7f5532",
"3 c #5f4d40",
"4 c #563b27",
"5 c #46382c",
"6 c #442c1b",
"7 c #3a2d24",
"8 c #39281b",
"9 c #382517",
"A c #32241a",
"B c #2f2015",
"C c #2d1d13",
"D c #281d16",
"E c #271b12",
"F c #261a12",
"G c #251911",
"H c #221811",
"I c #23160f",
"J c #211610",
"K c #1f1610",
"L c #1f150f",
"M c #1e140e",
"N c #1e120d",
"O c #1b120c",
"P c #1b1109",
"Q c #18110c",
"R c #1a1009",
"S c #170f0b",
"T c #170d08",
"U c #140c08",
"V c #140a08",
"W c #110c08",
"X c #100b07",
"Y c #110905",
"Z c #0f0a06",
"a c #0e0906",
"b c #0c0805",
"c c #0b0704",
"d c #080502",
"JLMLKHHFFFFFEEEEDDDDDDDDDEEEFFGFFHHJKLKK",
"KGBACHHFFGFFEEEDDEDDEEEDDEEEFFGGFHHDBBGK",
"KABC9DJFGFFEDFDDC654866FBDDDFFFGGJD88BAK",
"GC339BKGGFFDIDPPMBICIGBENNPIDEFGHJC615BG",
"HB559BKGGFDM5113431335353335IDFGHKB935BH",
"LCBCAGJGGFDI5311351313331103NDFGHJEACBDL",
"KKHHKHHFFEEDGFLIGEIFCBCBINAGEEFGGHUQMSLL",
"KMSMONLNKKLIFIFDCCCBCEEEDFLDEEFGEO4003SH",
"N75755757557755555573433544BFEFEM700005S",
"N75755755755755555587555877BFEFEU200002Z",
"N755555737535733448BABBCBCEEDEFEO500004U",
"KNOMMMLJLGIGECCBBB99999AABBCEEFGGO3002QK",
"KKHHHHGFFEEDCBA999999999ABBCEFFGHISDDSLL",
"KKKKHHHGGGFCCBBA99988999ABBCDEFGHIGMMKLK",
"LKKKJHHHGGECBBA9998888999ABBCEGGHHHJKLKL",
"LLKKKHHHGGECBBA9988888899ABBCEGGHHHJKKLL",
"LLKKJJHHGGECBBA99888889999BBCEGHHHJJKKLL",
"MLKKJJHHGFEBBA999888888899ABCEFIHHJJKLLM",
"MMLKKLIIGFCCB9989888888899ABBCEGIJKKKLLM",
"MMLMLLIIGFCBB99888888888999BBCEGIIKLMLMM",
"MMMMLLIGGECBB99888666688899BBCCGIHLLMMMM",
"MOMMLJIIGECBB99886666668999BBCEGIIIMLMOM",
"OMMMLJIIFCCB9998866666688999BCCGIIILLMOO",
"OMNLLIIGFCCB9998666666668999BCCGGIILLMMM",
"OOMMMIIIGCBB9996666666666899BCCFIIJMLMMO",
"OMNMNMIIGECB9996666666666899BCCGIIMNMNMO",
"OONNNMIIGCCB9966666666666699BBCFIIMNNOOO",
"OONNNLIIGCB99866666666666689BBCEIILNNOOO",
"OONNONMIGCB998666666666666899BCEIMMONNOO",
"OOOOIGGECCCBB99999999999999BBCEEGGILPOOO",
"OOOICDDFHECFHHKHEEKKKKHGHLLLJGIOQSOILPOO",
"OOPEC43215I61113EC21128M41214K94224ELPOO",
"ORPGC23104N40001DC10004O40001O40222BMPOO",
"QRRGC23314N73333CF33335P73333M41331ANPQQ",
"QRRGC11335O40002JE20006S40002W41100BOPQQ",
"QRRGC42226I82224FE4222AI62224M93312EMPQQ",
"QRRGCKOOQFCGONOLCEOSSUGEMSWWOEKQOSSILRQQ",
"QRRGB4444AC8777AEC6544AIB996BJB4444IMPPR",
"ORPJ801106I77777FC23004O20014S60110EMPPR",
"PPPJ901206I7777AGB23104O20025R60110ENPPR",
"PPPJ901306I7777AGC12335N22002V60110EOPPR",
"PPPHB23329GAAAAAGC20226N23102U92332HNPPP",
"PPRGCLOMLGCFHHJHEGCA99EGC889CIMQSONLMPPP",
"PPRGBBABBEECBBBCEC999BEGFEEIIIIEDCEIMPPP",
"PPPJA11216I7777AG82222AN20114U80121GNPPP",
"PPPJ901106J7777AF822108R13K33Y60110EOPPP",
"PPPJ901206LA777AG821108R13Q33Y60110EOPPP",
"PPPJ901306JA777AGA4332AP21324U60121GOPPP",
"PPRIC8AA9EEDDDDDGEBA9BELBCKBENI8AA9MNPPP",
"PPRGCOSPOJEIOOOMGGLMOMGINPPQNIOaVUVNNPPP",
"PPPHB22348M82435L92224GIA7A7DPB2344INPPP",
"RRRJ900114W40001O72310CM7777AT60110FORRR",
"RRRIA11324U73313L51331CMA777AS60110GPRRR",
"SRRIA22204U51102Q40032BOA777AS60110GRRRS",
"STTIC42229Q61112Q61132FODDDDDPE4544OOQSS",
"TTTIGSWSSLGLQQQOGJQOMQMIMOQSOMQaaXXQOSTT",
"TTTGGBAAADGCAAABHGBABBGIEABBFNG989COOTTT",
"TTTJG21104S40002OG10006W40002W61202ISTTT",
"VVTML30324Z51111MJ21116Y51112Z53321MSTVV",
"VVVLK43535V73213MK33217Y73213a40132ISUVV",
"WWWOI22416a40002SI10006b40002d40132ISWXW",
"WXZQLB999JQH888CQOB699MSG999EUK88ABSSZXW",
"WXZXOQSSSMJMQQQOMKLQSSMLOSQSQMOWWWWSXZXW",
"XXZaaXUWTA335337A3753533337333ATUWXaaZXX",
"XXZZZaaaXOMLMMKMMHOMJLJJKJPKHMOWZZaZZZXX",
"XXXZZZYVXXYYUVUTTTRRTRTTTUUVYXXXXXZZZXXX",
"ZXZZZZXVWUUUTTSRRPPPPPPRRSTTTUWWXXZZZXXZ",
"ZZZZZXXXVVUUTTSRRPPPPPPRRTTTTUVWXXXZZZZZ",
"aaZZZZXWWVVTTTTTRRPPPPRRSSTTUVVWWXZZZZaa",
"baaZZZXXWWVUUTTTTSRRRRTSSTTUVVWWXXZZZaab",
"bbaaaZZXWWWUUUTTTTTTTTTTTUUUUWWWXXZaaaab",
"bbbaaaZXXWWUUUUTTTTTTTTTTUUUWWWXXZaaabbb",
"ccbbbbbaXXWWWUUUTTTTTTTTUUWWWWXXZbbbbbcc",
"bcccccbbaZXXXWUVVUVUUUUVVVWXXXZabbbccbcb",
"bbcbbbcbbaaZXXXVVVVVVVVVVVXXZZabbcbbccbb",
"bbbccbbbbaaZZZXXXWVVVWWXXXZZZaabbbcccbbb",
"bbbbcccbbbaaZZZXXXXXVXXXXZZZabbbbcccbbbb",
"cbbbbcccccbaaaaaZZZZZZZZZaaabbcccccbbbbc",
"ccdccccccccccbbcbbbcbbbbbbbccccccccccccc",
"ccWbcbbcacccZbaXcbaZbabcZabacacbaccacaac",
"dXK57775A557757A357A5A55A7575855A7775ASa",
"cWQ877A7A777A55D57533377A77A7A57A57A7AUX",
"cUTYYYVYVYYYVYYUYbD577SaVYYVYVYYVYYVYYRZ",
"dWSQQQQQSQQQQSQHHHKQSA3DNKQSQQQQSQQSQSSa",
"dcXWWWWWWWWWWWWWWWUUUWXXXXWWWWWWWWWWWWad",
"dddddddddddddddddddddddddddddddddddddddd"
};
