/* XPM */
static char * review[] = {
"40 86 40 1",
"0 c #8b6740",
"1 c #5b4430",
"2 c #533721",
"3 c #4b3422",
"4 c #433529",
"5 c #462d1b",
"6 c #422c1c",
"7 c #412b1a",
"8 c #3e2a1b",
"9 c #392a1d",
"A c #3a2618",
"B c #382518",
"C c #362518",
"D c #342316",
"E c #332014",
"F c #2f2117",
"G c #2f1f14",
"H c #2d1d13",
"I c #2b1c11",
"J c #271b13",
"K c #28190f",
"L c #251911",
"M c #231911",
"N c #23160e",
"O c #21160f",
"P c #22150c",
"Q c #1f1610",
"R c #1e150e",
"S c #1e140d",
"T c #1e130b",
"U c #1b130c",
"V c #1a100a",
"W c #170f0a",
"X c #160e09",
"Y c #130d08",
"Z c #130b08",
"a c #100906",
"b c #0e0805",
"c c #0c0804",
"d c #090502",
"QQQQQMMMMMMJJJJJJJJJJJJJJJJJJLMMMMMQQQQQ",
"QMFFHMMMMMLJJJJJJJJJJJJJJJJJJLMMMMMHGFMQ",
"QCEHAGOMMJJJJJJHH632958JHHHJJJMMMQHAAEDQ",
"MH11CGQMMLJJJFFPTGFIPNHJPTTJJJMMMQH602GM",
"QE34CGQMMLJJN10011001110111LJJMMMQFC14EM",
"RHGGDLOMMJJJS11001100010000IJJJMMQJCHDHR",
"QQMMQQMJJJJJHJJNLHIKKKHNLPOHJJJMMMVWQWRQ",
"QSUVVRRROROJNNLJIHIGHHIJLJLOJJJMLV1001VO",
"R4444944414914414414111114119MJJU300002X",
"Q944494441494141444644444994FLJJX000000a",
"U414441441419141116GFGGHIHJMJJJJU400001Y",
"QRSRSROMOOLLJIGGEECCCCCDDFFHJJJMMV1000UQ",
"QQMQMMMMJJJHHFFDCBBBBBCCDFFHJJJMMMWJFXRR",
"QQQQOMMMMMJHGGFDCBAAABCCDDFGHJMMMOMSTORQ",
"RQQQOMMMMMJHGFDDCAAAAAACCDFGHJMMMMOOQQQQ",
"QQQQQOMMMLJHGDDCAAA8AAAACDFGHJMMMMOQQQQQ",
"RQQQQOMMMMJHGEDCAAAAAAAACDEGHJLMMMQQQQQR",
"RQQQQOOMMLJGEDCAAA8888AABCDGGILMOMQQQQQR",
"RRQQQOOOMJIGDDCAAA8888AAACDEGILMOOOQQRQR",
"RRQRROOMLJHGEDBAAA8888AAABDEGHJMMOQRSRRR",
"RRRRQOOMLJHGECAA88766888AADDGHJLMMOOQRRR",
"UUSRQONNLIGGDCAA87777778AABDEHILNOORRSUU",
"UUSRQOONLIGEDBA887777778AABDEHIJNOOQRSUU",
"UURRQQONKIGEDBA7777777778ABDEGIKMOOORSRU",
"UUSSSQOMKIGEDAA7777777777AADEGHKNOOSSSUU",
"UUSSSOOLKIGECA877677776778ACEGHKMOOSSSUU",
"UUSSSONLKHEDAA775555555557ABDEHKNNOSSSUU",
"USSSSPNLIHECA87775555555577ACEHIKNOSSSUU",
"UUSSSPONIGEBA77555555555577ACEHINNPTSSUU",
"UUSTTSPKIGDA7755555555555578AEGIKPSSTSUU",
"UUTTTLHEDCAA877777767777777ACCDGHIMSTUUU",
"VUVTL99889A888888AAAAAABBCCCCCDDDDFMTUUV",
"VVTTD56635333233333333333335556A89BHTTVV",
"VUTSA399355555666767878888887776CJGHOTUV",
"VUTPA3669CCCCCCCCCCCCCCDDDDDFFDC911FPSUV",
"VUPPA33ACA76777553322333578AAACF1F91TPTV",
"VTPPA33AA86665532221112223569ABL0441TPTV",
"USPP833A865665552211111125658AA2C11FPPTU",
"TPPP733B866656101110001122278D20IDEGNNPT",
"TPNN835B666653000020001100123H01H68ENNPT",
"TPNN735C66663111009000320001270BD88ENNPT",
"TPNN635C76665821011000111005I10JB8ADKNPT",
"TPNK635D66665355520040112255B03FD8ADKNPT",
"TPNK536D6666653221001012235A20HBF8ADNNPT",
"TPPI337D7666665331000025356G01IBD9ADKNPT",
"TPPG238D666666666115A56H22B80ADCGAACKNPT",
"TPPD255DA8588886D1023FH200L10KCEHABAKPPT",
"TPTA13136313633D503838C200702FDDGAB8IPPT",
"TPT712461343133801F8A888E10044ADGBC7IPPT",
"TPV31244314314402F689AAA8I51419EGCD5EPPT",
"TPV2186BD66A8611J8AAABBCCCIA25DFIDE5ETPT",
"UPX11AEG8ACB910E888AAABBC44CFFEC94F3DTPT",
"VPZ118CD88E311AC8AAAABBD8446FCG94493AVTV",
"VPZ11C8DDB1029DCAAABBCCCCCCCFDFFFCJ8BVTV",
"VSZ11F69501BFCEDBCCDDDDDEECFGDGFFJM9BVTV",
"VTa01FC911A8ACCAAAABBCCDCCCCDCFFFFQ65XVV",
"WUb01JD83323566577888888AB9ACCFFFJW32ZTV",
"WVa11D693225578ACCCCCCDDCDDEDEFHJHHAEWVW",
"XVXE7HGHIDDGGHIGDDDDEEEGKJJLLLMONMOKPVVX",
"YXYIALIIIIIHHIIHGGGHHHHIKLLLLNOOOSSNTVWX",
"MVXVKJLLLLJLLLLMLLLLLLMOOOOOORRRRSSTVWXY",
"VXXWVNJJJJJJIJIJJJJJJJKKKKLLMOOOQRRVWXXY",
"YYXXVVTPPNNKKIHGEEEEEEEEGIIKKKNPPTVVXXYY",
"YYXXXVVTTTPPNKKIIIHHHHIIIKKNPPTTTVVXXXYZ",
"ZZYYXWVVUTPPPKKIIIHHHIIIKKKNNPTTVVWXYYZZ",
"ZZZYYXWVVVTTPPNKKIIIIIIKKNNPPTTVVWXYZZZZ",
"ZZZYYYXXVVVTTPPPKKKKKKKKNPPTTTVVXXYYZZZZ",
"ZZZZZYYYXXVVVTTPPPPPPPPPPTTVVVWXXYZZZZZZ",
"aaZZZZYXXXXWVVVTTPPPPPTTTTVVVXXXYYZZYZaa",
"baaaZZZYXXXWWWVVVUTTTTVVVVVWXWXXYZZZaaab",
"bbaaaZZZYXXXXXWWVVVVVVVVWWXXXXXYZZZaaabb",
"bbbaaaZZZYYXXXXXXXWWWXXXXXXXXXYZZZaabbbb",
"cbbbbbaaZZYXYXXXXXXXXXXXXXYYYYZZabbbbbbc",
"cccbbbbaaZZZZYYYXXXXXXXXYYYZZZZaabbbcccb",
"cccccccbaaaZZZZZYYYYYYYYZZZZZZaabbcccccc",
"ccccccccbbaaZZZZZZZZZZZZZZZZaabbccbccccc",
"ccccccccccbbaaaaZZZZZZZZaaaabacccccccccc",
"cccccccccccbbbbbaaaaaaabbbbbbccccccccccc",
"ccddcccdddcccccccbbbbbbccccdcccdccdcdddc",
"dcYYcdcaYacacccZaaaaabaabbbYbccbccadZXad",
"dYVY9499U99C944FF9999499949M494F44F4FYWb",
"dYXY949F91141111411111111114111199F4MYWa",
"dYXWZbaX444994F44C44C944FF944444QcYbXXWa",
"dYWWWVWWaaaZZaW44XWXVVXWVVZaaaaaWVWVWWWb",
"dcaYYYYYYYYYYYYYYYYYYYYYYYYYYYYYYYYYYYbd",
"dddddddddddddddddddddddddddddddddddddddd"
};
