/* XPM */
static char * review[] = {
"40 86 40 1",
"0 c #906e66",
"1 c #3364a7",
"2 c #583e2a",
"3 c #46372a",
"4 c #412f20",
"5 c #3b2819",
"6 c #37291e",
"7 c #2d2a2d",
"8 c #382617",
"9 c #35251a",
"A c #352417",
"B c #342214",
"C c #32231a",
"D c #322114",
"E c #2f251e",
"F c #2f221a",
"G c #2f2118",
"H c #2f2016",
"I c #2c221c",
"J c #2e1f15",
"K c #2e1e13",
"L c #2c1d14",
"M c #2a1d15",
"N c #2a1c13",
"O c #2a1b13",
"P c #291b12",
"Q c #291a12",
"R c #281c13",
"S c #281a11",
"T c #241b13",
"U c #251910",
"V c #26180f",
"W c #24170e",
"X c #221710",
"Y c #20170f",
"Z c #20140c",
"a c #19110a",
"b c #150d07",
"c c #130c06",
"d c #110a04",
"VSSSSSSSPPPPNNNNNNOONNNNNNNNPPPPSSSSSSSS",
"SPKKLPSSPPPNNNNLLKHJJJKLNLNNPPPPSSPLKKOS",
"SJAADLPPPPNNLNLNKDAABBDLLNNNNNPPPPK859HQ",
"SD548KOSPPNJ999CA645859CCCGHLNPPPPH534DP",
"RD55AKQSPPN93333332233333334CNPPPSJ645DP",
"SLDHJNSPPPNC3222332233322223CNPPPSNHBDNV",
"VVSQQSSPPNNLC66666658966666CJNNPPPJFCJRV",
"VUUUSSSPPNNNNLLKKDDHDDDKKLMLNNNPNG4336MU",
"SLHHHHHGGCFGDDDA88888889A9AAGCGLL632236R",
"NC66666666666666444444446646669JL422224M",
"SLGFFFFCFCCCAAA955555558899ACCGLL622236R",
"VSUSSSSPNPNLLHDDBBBBBBBDDDDKLNPPPG4334GU",
"VUUSSSSPPPNLJHDDBBBBBBBADDDKLNPPPPJCCMTU",
"VVVUTSSPPPNLKDDDBBBBBBBBBDDKLLPPPSUUUUUU",
"UUVUTSSPPPNKKDDBBBAAAABBBDDKLLPPPSUUUUWU",
"UUSUUSSPPPNKDDDBBAAAAAABBBDDKPPPSSSUVVVU",
"UUVUUVSSPPNKKDDBAA8888AABBDDKNPPSSUUVUUX",
"XXVUUVSSPPPKDDDBA888888ABBDDKLPPSSUUVVXX",
"XXUUVVVSPOKKDDBB8888888AABDDKKPPSSVVVVXX",
"XXUVVVVSPNKKDDBB88888888ABDDKKNPSSVVVWXX",
"XXXUVVSSPNKKDBB8888888888ABDDKKPSSVVUXXX",
"YYXVVVSSQOKDDBB8888888588BBDDKPPSSVVUUXY",
"YYXVVVSSQOKDDBA8858888888ABDDKPPSSVVUUYY",
"YXXUVVSSPKKDDBA8888888888ABDDKPPSSVVUUYY",
"YYXVVVVSSKKKDBA88888888888BBDKKPSSVVUXXX",
"YYXWVVVSSKKDBBA88888888888BBDKKPSVVVXWWX",
"YXWWVVVSSKKDBA885555555888ABDKKSSVVVWWYY",
"YXWWVVVSPKKDBA885555555888ABDKKPSVVVWWYY",
"YXWWVVVSPKKDBA888888888888ABDKKOSSVVWWYY",
"YXWVSSOONKKDDDDBBBBBBBBBBDDDKKNNSSVVVWYY",
"YXWSLJHHJKDB888BKJGGHHJJJHHJKLLLLMNPVWYY",
"YXWQG9EEEHA43334BGC9EFJJFEEEGMHEEEGOVWYY",
"YXWQG66EEG8234325C66EEGHCEEEFLGEEEIMVWYY",
"ZZYPGEEEEG833E435HEEEEHJFEEEGLGEEEIMVWYY",
"ZZYSHCEEIJA33434AJIEEILLFEEIJOLIEIIRVWZZ",
"ZZYPJGIIMJD54445DJMIIMNOMMMIOQOMMMMRVWZZ",
"ZZYRJHGHHG9544459GJMMNNOLLJLNPNJJJLPVWZZ",
"ZZWSD4334442222459CCFGML84445D84344DVWZZ",
"ZZWS8222233222224666ECJD422228422228VWZZ",
"ZZWS932222322222466EEEMB422225422225VWZZ",
"ZZWSA3222342222246EEEIMB422228422225VWZZ",
"YZWSB4332444422459IIIILK42224B53334BVWWW",
"WWWQKB88889555559GMMMOQOB555BNLDDDHQVWWW",
"ZWWSJHHJJJC54445CHJJJMQOLHJJNSSMMMNVWWWZ",
"ZWWVHCEEFJB42224AGCEECLOGEEFMSMIIIGTWWZZ",
"ZWWSHCEEFJB222228SMITTXOFEEEMSLEEEIRWWZZ",
"ZZWVJEEEIMB22222K300003XGEEIMUOIEIITWZZZ",
"ZZWVLIIIIMD4222440000004TIIITTRIIIMTWZZZ",
"ZZWVSRTTTUVD8AAV20000002aTTXXYYXTTTXZZZZ",
"ZZZSA9C9996664462000000266669CFFGGGJUZZZ",
"ZZW666664443333300000002333344669CCCFWZZ",
"ZaG66666644443332000000233444669CGGGFLaZ",
"ZaC66666644443333200002333444669CGGGGHaZ",
"aaC6999666444333332222333444669CFGHHHJaZ",
"aaG699996564444433333334444466CCGHHHHMaa",
"aaG999999666443222222222246669CGHHJJJMaa",
"aaH999CCC969A6544444444446669CFHJJJJJMaa",
"abH9CCCCC9H223244444344664669GHJJJJJLMaa",
"abH9CCCCCCL300000000000000002UGLLLMMLNaa",
"abJCCCCFFFFH22222000020002224QJMMMNNLQba",
"abJCCCFFGGGGQOJLNNN44JOQVPVWOMMMMOOOOQba",
"abLCFFGGGGGGFFH66FC98GF96LLJMMOOOOOOOQba",
"abMCGGGGGGHHHJ59699655A695LOOOOOOOQQOSbb",
"abMGGGGHHHHHHL696DA569H598OOOOOOQQQSQTbb",
"bbMGHHHHHJJNLNG8ANN88KS88JUSSOQQQQSTTTbb",
"bbMGHHHJJJJ469CC9G6CGG9HHFFFGSRTTSUUUTbb",
"bbMGHJJGJGJ322322322332433324UTTUTUUUTbb",
"bbRHLMQVSSSWWWWVWWWWWWWVTUUUUTUUUTXXXXbb",
"bcRJMS777777777777777777VUTTUUTTXXXXXXcb",
"bbTMS11111111111111111117WTXUUXXXXXXXXbb",
"bcTS7111111111111111111117XXXXXXXXXXXYcb",
"bcTQ7111111111111111111117WXXXXXXXXXXYcb",
"bcTS7111111111111111111117XXXXXXXXYYYYcb",
"bcTR7111111111111111111117XXYXYYYYYYZYcc",
"bcTMT11111111111111111117TTYZYYZZZZZZYcb",
"bcXRTT777777777777777777TTTXXXXXXYZZZZcb",
"bcXTT77777777777777777777EEEEEEEEEMaZYcc",
"bcXUM677777777777777E77EEEIEEIIIIIEYaYcb",
"bcXXREEEEEEEEEEEI200202MEIIIIIIIIIIYaYcc",
"ccXXR6EEEEEEEEEEI66E66EIIIIIIIIIIIIYaYbc",
"cbXXXE6666EEEEEEEEIEIIEEEIIIIIIIIIIaaZab",
"bbXXXXRRRRTTTTTTTTTTTXXTTXXXXXYYYYaaaaab",
"cbaXXXYYYZZZZZaaaaaaaaaaaaaaaaaaaaaaaaaa",
"cbbaXXXXXYYXXXXXXXXXXXYYYYYYYYYZYYZZaaab",
"cbbbbbbccccccccbccbbbcccccccbbbbbbbbbbbc",
"ccccccddddddddddddddddddddddddddddddcccc"
};
