/* XPM */
static char * review[] = {
"40 86 40 1",
"0 c #9e885e",
"1 c #3369b2",
"2 c #5b4a39",
"3 c #513d2b",
"4 c #3e3a3c",
"5 c #3e2c1e",
"6 c #39291c",
"7 c #322a25",
"8 c #33271f",
"9 c #2a2a31",
"A c #372517",
"B c #33251b",
"C c #332316",
"D c #322113",
"E c #2f241d",
"F c #2f2118",
"G c #2f2015",
"H c #2b221d",
"I c #2e1f13",
"J c #2c1e14",
"K c #2a1e17",
"L c #2b1d13",
"M c #2a1c12",
"N c #291b13",
"O c #291b10",
"P c #291a0f",
"Q c #281b13",
"R c #271a11",
"S c #271911",
"T c #241b15",
"U c #261910",
"V c #25180f",
"W c #24170f",
"X c #23160d",
"Y c #22160e",
"Z c #201610",
"a c #1e130c",
"b c #180f0a",
"c c #150c07",
"d c #100b06",
"URRRRRRQNNNNNMMMMLLLLLLMMMMMNNNQRRRRRRRU",
"RMIJLORQNNNNNMMLLIGGIIILLLMMMNNQRROIJJMS",
"PIAACLORNNNNLLLLJDCACCCILLLMNMNQQNIA6AIQ",
"RC55AIQRNNNJFCCCCA666656BBFFJMNNNNG535DQ",
"RD65AJRQNNNB5333333333333335BMNNNNJ655DR",
"ULGGIMRQNMLB5333333322333323BLQNNRMGCGLU",
"VUQRRRRQNMMJCBB6666656666656GMMNNQJFBJRV",
"VQNNLJJGGGGGGGFGCCCCCCCCFFCFGGGGLF5335KU",
"QF6B8666BB66B655565555655655666BF532236Q",
"QB555566BBBBBB656665566666666BBBF522225L",
"QF6666BGLLJJIIGCCCCCCCCCCDGGJJLMJ532236Q",
"UNJJJGJMNNMLJIIDDCDDCDDCDDILLMNNNF5335FU",
"VVURRRRNNNMLIIDDCCCCCCCCCGILLMNNNQJBBJRV",
"VVUURRRQNNMMIGDCCCCAACCCDDIILLNNNRUUUUVV",
"VVUURRRQNNMLIGDCCCAAAACCDCGIJMONNRUUUUVV",
"WVUUURRRNNMIIGCCCAAAAAACCCGIJMORRRRUUUVV",
"WVUUUURRNNLIIDDCCAAAAAAACCDILMORRRUUUUVW",
"WWVUUUURQNLIGDDCAAAAAAAACDDIIMOQRRUUUVWW",
"YWVVUUUROOMIGDCCAAAAAAAACCCGIIMORRUUVWYY",
"YWVVVVUROMIIDDCCAAAAAAAAACDDIIOORRVVVWWW",
"XXWVVURROMIIDCCAAAAAAAAAACDDGIMORRUVVWWX",
"XXWVVURRNMIIDCCAAAAAAAAAAACDGIOORRUVVWXY",
"YXWVVURROMIDDCAAAAAAAAAAAACDGILORRVVVWXY",
"XXWVVURPPMIDDCAAAAAAAAAAAACDDILOPRUVVWXY",
"XXWVVVRPPMIDDCAAAAAAAAAAAACDDILOPRVVVWWY",
"XXWWVVUPOIIDCAAAAAAAAAAAAAADDILOPUVVWWXY",
"YYXWVVVPOIIDCAAAAAAAAAAAAAADDILOPVVVWXXY",
"YYXWVVVPOIIDCAAAAAAAAAAAAAACDIIOPVVWWXXY",
"XXXWVVUPOIDDCAAAAAAAAAAAAAACDIIOPUVWXXXY",
"YXXVUPOMMLIIDDDDDDCCCDDDDDDDILMMRRUUWXXY",
"YYXULGGGGIIGFGGGIDAAAADIIGGJJMMJJJLQVXXY",
"YYWOGB8BEGGB88EFG633336GEBEEGMGBEEFNUXXY",
"YYWOG877EFGB878ED522225GE87EFJF888EKUXXY",
"XXXOG877EFIB87EHG522225GF88EHJFE88ENVXXY",
"aXXRIEEEHGJFEEHHI534436IFEHHKNJEEHHNVXXa",
"aaXRJFHHKLJJFKKKLC6686DLKKKKQNMKKKKQVXXa",
"aXXRJGILLLJJFKKKLIFCGGILJJJKMQNNNNNRVXXa",
"aXXRGCBFFJGFEEEFF65355AGEEEEFJJFFFKNVXXa",
"XXXOGB88EFF877788322235FE777HKF888ENVXXX",
"XXXOG887EFF877777322225FE777HKFE88ENVXXX",
"XXWRGE8EEFFE77774222225FE777HKFEEEHNVXXX",
"XXWRGFHHHGFHEE794222235FHEHHHKKHHHKQVXXX",
"XXWNFHHHHKHHHHH92222247HHHHHKKQQTQQSWXXX",
"XXXQE77777HEEE84222224778EHHHKQNKLNUWXXX",
"XXXL832247777774222224777777HKKEEEKRWXXX",
"XXXK732224777774422249777777HKKEEEHQWXXX",
"XXXK7422447777744200002H8777HKKHHHHQXXaa",
"aaXK744447HH777920000005HHHHHKQHHHKRXXaa",
"aaXTH7777HHHHHHT00000003ZTTTTTUTTQQVXXaa",
"aaaL8888888655570000000285788BBBCFFGUXaa",
"aaV66666555533332000000053355566BFFFBUaa",
"aaC6B66665555535200220025355566BBFFFFGaa",
"aaC6666665555533300000033555566BBFFFFFaa",
"aaC66BB66555555333223333555556BBFFFFFGaa",
"bbF6BBBB6655555553553335555566BFFFFFFJab",
"bbF6BBBAB65555322222322225666BFFGGGGGJbb",
"bbFBBBBBBGL66665555555555B6BBBFGGGJJJLbb",
"bbFBBBBBI22565256335556B5253FGFJGJJJJNbb",
"bcGBBBCBX0000000000200002000002XFJJLLQbb",
"bcGBCFFCO2322222222302002222223RJJLLLQbb",
"bcJCCFFFFNJNNJJWLFCGSLNVSMXXXaQLLKNNLQcb",
"bcKCFGFFFFFFFCZ36KT55TK63ZFJJJLLNNNNMRcb",
"bcKFFFFFFFFFFN200530035002QJKKNNNNNQNRcb",
"bcKFFFFFFFFGGT200D5005D003ZJNNNNNQQQNRcb",
"bcLFFFFJJJJJJTA33RD33IR33AWQQRSSRQRRRUcb",
"bcNFGGJ86BBBBFBFHFFKKBFKKJFFFFBFGSRURScb",
"bcQFGGK32333235323523323353333326YUUUWcb",
"ccQFJJOPVPPPVVVVVPXXXXXXXXXXXWVYVUVVVWcc",
"ccQJLP7999999999999999999999TXTVVVYYWWcc",
"ccTKP411111111111111111111111HYWYYYYWYcc",
"ccTM91111111111111111111111114aTZZZZZZcc",
"ccTP91111111111111111111111114ZTZZZZZZcc",
"cdTR91111111111111111111111114ZZZZZZZZcc",
"cdTQ91111111111111111111111114ZZZZZZaZdc",
"ddTKT4111111111111111111111119ZZZZZZaZdc",
"ddWTTT9999999999999999999999HTTZZYaZaZdc",
"cdWTT7777777777799799999999777EEEEKaaZdc",
"ccWUK77777777777777777777777EEHHHHEZaZdc",
"ccZWQ88888888888H222222KEEEEHHHHHHEZbacc",
"ccZWQ8888888EEEEE87876EHEFHHHHHHHHEZbacc",
"ccYWWE88888888888EEEEEEEEEEEEEEEHEKababc",
"cbYYZWTQTTTTTTTTTTTTTTUTTTZZZZZZZZabbabb",
"ccaTZZZZZZZaaaaaaaaaaabbbbbbbbbbbbbbabbb",
"cbbaZWWZWWWZZZWWWWWWWZZZZZZZZZZZaZaabbbc",
"ccbccccccdccddddccccccccddddccdccccccbbc",
"cccdddddddddddddddddddddddddddddddddddcc"
};
