/* XPM */
static char * review[] = {
"48 48 48 1",
"0 c #ffffff",
"1 c #fffefe",
"2 c #fefefe",
"3 c #d9ad6b",
"4 c #b68a59",
"5 c #bc773c",
"6 c #927457",
"7 c #9b6233",
"8 c #935732",
"9 c #8a5a35",
"A c #6f5f53",
"B c #8b522f",
"C c #85502c",
"D c #844d2b",
"E c #7f4d2b",
"F c #7f4a2a",
"G c #684c3a",
"H c #794727",
"I c #764426",
"J c #724326",
"K c #5a4539",
"L c #6f4024",
"M c #673f25",
"N c #5b361f",
"O c #473528",
"P c #2e2f38",
"Q c #352214",
"R c #2c2018",
"S c #2d1c11",
"T c #291b12",
"U c #251b15",
"V c #27170d",
"W c #22160e",
"X c #211710",
"Y c #211610",
"Z c #21140d",
"a c #20160f",
"b c #20150e",
"c c #1f140e",
"d c #201209",
"e c #1e150e",
"f c #1e140d",
"g c #1d140d",
"h c #1e140c",
"i c #1e130d",
"j c #1c130d",
"k c #1b120b",
"l c #140b06",
"YcabcYYYYYYYYYYccbbcYYYYYYYYYYcaXlK0200000000000",
"bTRRTbYYYYYYXXXSRSTTXXYYYYYYYfTTRdK0200000000000",
"XQOQRebYYYYXkkbQOQQQljbYYYYYbYQKOVK0200000000000",
"XQAOSaaXXXXkOOROROXRKQUYXXXXgXSAGdK0200000000000",
"aQQQRjeaaaXlA66AA4AK66KlXaaagaQQQdK0200000000000",
"jbUXegeeeeXXUXRUURRUbRUaaeeeakkXjlK0200000000000",
"gkkkkjkjgjebbYjcbicbYicbaeeakO44GlK0200000000000",
"eRURRURUXRabYYYYYXYYYYYbeeeej3353OK0200000000000",
"gKKOKOKKOKQkbcccbbccccceeeakR3553EO0200000000000",
"gkkkkkkjekcccccccccccccceeebk4353QK0200000000000",
"geeeegeeeaecccccbbcccccceegekT97OlK0200000000000",
"gggggggggeecccbWXXWacccceegggkllklK0200000000000",
"jjjjggggggeccbXWXXXXbccceggggeahXlK0200000000000",
"jjjjjgggggccbWXXXXXXXaccfgggggjjelK0200000000000",
"jjjjjjggggibWXWVVVVVXXacfggggjjjelK0200000000000",
"jjjjjjggggfbWWVVTTTVXWWcfhgggjjjelK0200000000000",
"jkkkkkkkkihWVVTTTTTTTVVWhhgjjjjjelK0200000000000",
"jjegfhhhbbXWVTTTTTTTTTVVbhjjkkkkglK0200000000000",
"UUTUTTTUTTTTSSSSSSTTTVVVWZjjkkkkjlK0200000000000",
"UUUUURUUTTRSSSSSSSSSTTTVWZjjjkkkjlK0200000000000",
"UURRRRRRRRRRSSSSSSSSSTTTVZhjjkkkjlK0200000000000",
"RRRRRRRRRRQQQQQQQSSSSSSTTVWiiikkjlK0200000000000",
"URQQRQQRUUTTTSSSSSTVVWWejkklllllklK0200000000000",
"H9B878BEEECC99EEEEEE99C99CEHHEJOMN60200000000000",
"9DVQPOS755555555555555555555557GEGA0200000000000",
"9FPAAPQ7BJIHHHHHHJLJLMMLMIEEBB87KRK0200000000000",
"9BPAPPP5QlddddVddddddddddddddSQKKUA0200000000000",
"7DPPPPO5MQNNNNNNNNOONNNOOOOOOOQOOK60100000000000",
"7CGPRM87MMLLJLLLLLNNJLLLLLMNMMOOjM42100000000000",
"COMO9ENOONMHHHHIJHHJJLJIJLLLLLNNOE42100000000000",
"AAPKKKKK66GLFCCEEDHHFFFFHIIIJJJJNE42000000000000",
"AAPPAAAAAAA7JLHBBCFCBBCEDFHHIJJMOJ42000000000000",
"PPPOGKPKKPA445ELFBCDDDFFEFHIIIJMNI32000000000000",
"APPKA6AGA6KK9545HHBBBDCCFDEFHJJJNL42000000000000",
"9POKKG646KOA9HH54CH8BBBCCDEFIIHEMM42000000000000",
"BVNJJMNC4469H77L74DIBBDDDFIMMJLLMM42000000000000",
"DVNLFFHML8545HE7L74IFCCBDFFDJLJMNN40000000000000",
"IVLFFFDBCHLB547I7L55I888BCCFHHHHMN40000000000000",
"IVMHFDCBDCCILC47F7I4BC788BDFEHIIMN30100000000000",
"MVMHDBBBCBB88HC4F7E55JBBBCDFFHLLMN30200000000000",
"NSHB888888BB87J75M9B4JCBCDCEFHIILN40200000000000",
"NVNLHFFHCECCCBI74KOG4LFDDFHIHILMNQ40200000000000",
"NVNICB8888888EC4C9A65IBDCCEFHLMMNQ40200000000000",
"NQEB888888889H47H7I48JBBBBCCDEFJMQ40200000000000",
"QSLD88BB8888E74L5C55LCBBBBCDEFHIJN40200000000000",
"QSH8B8777777F557355FD8BBBBCDFFFHHN40200000000000",
"QQMIFCCDCDDBL555357FIEEFIIJHFHIIMQ40200000000000",
"QQIDCCDCEBBCJ8475555LJHHEHLHEEJJIQ60200000000000"
};
