/* XPM */
static char * review[] = {
"40 86 40 1",
"0 c #b77b3e",
"1 c #896a4f",
"2 c #89562e",
"3 c #705035",
"4 c #784827",
"5 c #724527",
"6 c #6d4326",
"7 c #683f25",
"8 c #564131",
"9 c #633a20",
"A c #5c3922",
"B c #5b341b",
"C c #523622",
"D c #50321f",
"E c #502f19",
"F c #493222",
"G c #462b1a",
"H c #3e2b1c",
"I c #37291f",
"J c #3e230f",
"K c #372415",
"L c #342315",
"M c #302217",
"N c #2e1d12",
"O c #291d14",
"P c #271b13",
"Q c #251a11",
"R c #241911",
"S c #24150d",
"T c #201710",
"U c #1e150e",
"V c #1c120c",
"W c #17100a",
"X c #140d08",
"Y c #120b06",
"Z c #0f0a06",
"a c #0d0704",
"b c #0c0604",
"c c #0a0603",
"d c #090402",
"TTTTTRRRRRRPQQOOOOOOOOOOOOPQQQRRRRRTTTTT",
"URMMORRRRRQPQOOOOOOOOOOOOOOQQQRRRRTOOMRU",
"TLNNKOTRRPQQPOOOOHFCHGHPOOOPQQQRRTOHHLMT",
"RN83KMTRRPQPOOOSSLNNSSNPSSOOPQQRRTNH18NR",
"TMFCKMTRRPQPOV313181183118ROPQQRRTMK8FMT",
"UONNLRTRQQQPOS331181138313SOPQQQRTPLNMOU",
"UUTRTTRRQQQPOOQSSQOPSPOQSSOOPQQRRRVVUVUU",
"TUUUTTRRQQPPOOOMMMMMMMMMMOOOPQQQQUI13FVT",
"UQTRPRRPRRPOPOOMMMMLLMMMMOOOOPQQTM1381IV",
"VF8888F88F88MOMMMMLLLLMMMMOOOPQPV813818X",
"TTPRRPPOOOMNOOMMLLLLLLLLMMNOOPQQUI1131IW",
"TTUTTTRRRQQPOMMLLLKKKKKLLMMOOPQQRU8118VU",
"TTTTTRRRQQQONMMLLKKKKKKLLLMOOPQQRTVRPVUT",
"UTTTTTRRQQPOMMMLKKKKKKKKLLMMOPQQQRTUUTUT",
"UTTTTTRRQQPOMMLLKKKKHKKKKLMMOPQQRRRTTTTU",
"UUTTTTTRQQOOMMLKKKKHHKKKKLLNOPQQRRTTTTUU",
"UUUTTTTRRQPNMLLKKKHHHHKKKLLMOPQRRRTTTUUU",
"UUUTTTTTTQONMLLKKHHHHHHKKKLMNOQRTTTTTUUU",
"UUUUUUUTRQONMLKKKHHHHHHHKKLLMOPRTTUUUUUU",
"UUUUUTTSRPNNLLKKKHHHHHKHKKLNNOPRSUUUUUUV",
"OOOOOMMMMMLKKKHHHHHHHHKKKKLLNNQRSUUUUVVV",
"OOOOMMMMMMLKKHHHHHHHHHHKKKLLNNPRTUUUUUVV",
"OOOMMMMMMLKKKHHHHHHHHHHHKKLLNNPRTUUUUVVV",
"OOMMMMMMMLKKHHHHHHHHHHHHKKLLNNPRSUUUVVVV",
"OOOMMMMMMLKHHHHHGHHHHHHHKKKLNNNQSSSUUVVV",
"MHHHHHHHKKKKKKKHHKKKKKKKLLLMNNPRRTTSRTUU",
"322200222CCCC6336666666555555667777AFCAA",
"24SJJEJN04767522222222222222222222248A3F",
"25SJJJJJ05AAAA22244444444444442222224AFF",
"24J424490CNKLLJJKKKKLLLLNNNNNLLKJGJB38IN",
"04B2E9240ANKLLKKKKKKKKKKKKKLLNNNPQSNIFFF",
"09BBVN4407HGGGBBBBBBDGEDDDDEEEDEDDGKIMF3",
"2202B9002DGDGF999AAAABB999A99AABB9AFFPH2",
"EEBE229EJGHGFD77797977999999AAAABAAGDGC2",
"ESJBEEJG902EHD666676697777779999999AACC2",
"DPD02G3392005GB765556765556677979A9ACGD2",
"DMN202F83B600049BA77777667777799999AAFG2",
"ELHG208PA9AB71002AGDACCCCCCCCCDDDDCAACD2",
"ENHGG4213BBB8372002DDAAAAAACCCCCCDCC7AD2",
"FMKGHLD2004G817CA100BDACCFGGDDFDDFFD99E2",
"ENGEEEGG700017B838800DFCFD77DFFFGFFGAAE2",
"ENGB7779BE500023838602GFA3833FDCDFFGCDG2",
"GNA77676569B72002837404H83883FCDDFFDAAG4",
"GNB7777666557BB202A6E20DG623CDDDDDFD9AG4",
"JLA77555567666DG204E8802FDFFFCCDDDFEAAG4",
"JNB76655554445ACG2011111C8CDCDDDDDGGAAE5",
"JK754444555556CAF9111181BF8ADDDDDDGD9AE7",
"JLEB9977967666DCF71111I88GF88DDFFFGGBGK9",
"JNE96554444445ADB01I8II3CDCG88DFDFGGBDHA",
"NH754444444445CG20AIII83GCDCDF8CDDGDAAGB",
"NJ965555554545F702B7C21DGCDCCDF88DGD9BEB",
"NKA64444444445G20960005GCDCCC88C88GE99DB",
"NK755544444444G2020000ECCCDDDCFFGFHD7ADE",
"NKEA776777777AH2050002AHFFFFGGGGFGGEACGG",
"NG766656565456F60402000BKHGFCFGGGFFEAADE",
"NE7666766545547E006B94004BGJHGFFFGD99AAB",
"QG9766677667665A602B77A100024BDCCDDDDDDG",
"SG99557997777797B402B3836420002BHFDFGGGH",
"CK797777977677777E200E81BBB972002EHFFHHF",
"13IE6777B977776679D40013BB923B91009GFFFF",
"318HBABBECAAA999B9BGB2000249999B6004GFFI",
"F31352245454454454567A52100029B73810288F",
"K383200000222222222222446752002A810400FH",
"338622200222222222222222224EA20110JJE03I",
"23334222222225AAAAAAACAADA4BGG6110baV09H",
"JNQNJJJJJJJJJE64444545666EJNLLSF802402HH",
"SSUSJJJJJJJJJBEBBBBBBBBBEEJNLLNH3G449KFN",
"SSSSNJJJJJJNJJJEEEEEEEEEENJNNNNLHHMSRHMS",
"VVVVVSSSSSSSSSSSNNNNNNNSSSVSSSQSSSSSUWVV",
"WWWXWWWWXWWWWWWWWWWWWWXXXXXWTZWVVUVVVVXa",
"YYYYYXXXXXXXXXXXXXXWWWXXWXXYYYYYYXXXYZaa",
"cbbbbccaaaZZZZZYZZYYZZZZZZZZYaaabbcccccc",
"cccaaaaaaaZZZZYYYYYYYYYYYZZZZZaaaaaacccc",
"bbccaaaaaaZZZYYYYYYYYYYYYYZZZZaaaaccccbb",
"bbccaaaaaaZZYYYYYYYYYYYYYYYYZaaaaacccbbb",
"aaaccaaaaaZZYYYYYYYYYYYYYYYYZaaaaacccaaa",
"aaaacccaaaaaZZZZYYYYYYYYZZZaaaaaaaccaaaa",
"aaaaaacccaaaaaaZZZZZZZZZZaaaaaacccaaaaaa",
"cccccccccddccbbcbacbacaabbbdcddccccccdcb",
"ccYXXXXXXXXXXZcaaaZaaZabbcaXXXXXXXXXXXZd",
"dYWWWWWWWWWWYIFIIFIIFIHFFFIXWWWWWWWWWWWa",
"cXWWWWWWWWWWXOI8FIIIFIH88FIWWWWWWWWWWWWZ",
"cXWWWWWWWWWWWYX8IYWWXWWXXXZWWWWWWWWWWWWZ",
"dXWWWWWWWWWWWWWYXWWWWWWWWWWWWWWWWWWWWWWZ",
"caYXXXXXXXXXXXXXXXXXXXXXXXXXXXXXXXXXXXZc",
"cddddddddddddddddddddddddddddddddddddddc"
};
