/* XPM */
static char * review[] = {
"40 86 40 1",
"0 c #997f7e",
"1 c #336fc2",
"2 c #714a38",
"3 c #3b4559",
"4 c #463426",
"5 c #402f21",
"6 c #352c29",
"7 c #38291d",
"8 c #3a2716",
"9 c #382517",
"A c #33261e",
"B c #2f2723",
"C c #342317",
"D c #342214",
"E c #30231b",
"F c #302116",
"G c #312012",
"H c #2e231d",
"I c #2e2017",
"J c #2d1f15",
"K c #2b201a",
"L c #2d1e13",
"M c #2b1d14",
"N c #2a1d15",
"O c #2a1c12",
"P c #291c14",
"Q c #291b11",
"R c #281b13",
"S c #271a11",
"T c #251b14",
"U c #251910",
"V c #25180f",
"W c #24170f",
"X c #23160d",
"Y c #211710",
"Z c #21150d",
"a c #1e130c",
"b c #180f0a",
"c c #150c07",
"d c #100b06",
"USSSSSSRQQQPPOOOOOOOOOOOOOOOQQQRSSSSSSSU",
"SQLLLQSRQQQPPOOMLLFFLLLOOOOOOQQRSSQLLLOS",
"QJC9FLQSQQPPOMMOLDCCDDDLMMMOPOQRRRL979JR",
"QD559LRSQQPPOLFCC777997CFFLMOOQQQQJ745FR",
"SF77CLSRQQPPMF544444444445IMOOQQQQJ957FQ",
"SOFFLOSRQOOPMI544442444444FMOORQQSOJCFOS",
"VURSSSSRQOOMMMF7777557775ALMMOPQQRJEEJSV",
"UROPNNMJJJJJJJJFCCCCCCCCCFFFFIJOQI5445IU",
"RE7AAAA77777777755575575577777EJN744447R",
"PA77755557AAA99777777777579AAAEMM522445N",
"REAAA7777FJLJLFDCCCCDCDCCDFJLLMQM742447R",
"UPMMMJJIJMOOLLGFDDDDDDDDFGLLOOQQQI5445IU",
"VVUSSSSQQQOOJGFFDDDDDDDCDGLLOOQQQRJEEMUV",
"VVUUSSSRQQOOLGFCDDDCCDDDDFGLOOQQQSUUSUVV",
"VVUUSSSRQQOLLGDDDDCCCCCDDFGGLOQQQSUUUUVV",
"WVUUUSSSQQOLGFDDDCCCC99DDCFGLOQQSSSUUUVV",
"WVUUUUSSQQOLGGDDD999999CDDDGLOQQSSUUUUVW",
"WWVUUUUSRQOLGDDDC999999CDDDGLOQRSSUUUVWW",
"YWVVUUUSQQOLFDDD99988899CDDGGLOQSSUUVWYY",
"YWVVVVUSQOLGGDDC99888899CDDGGLQQSSVVVWWW",
"XXWVVUSSQOGGGDC9998889999DDGGLOQSSUVVWWX",
"XXWVVUSSQOLGDDD9998888899DDGGLOQSSUVVWXX",
"ZXWVVUSSQOGGGD999888888899DDGGLQSSVVVWXZ",
"ZXWVVUSSQOGGDD998888888899DDGGLQSSUVVWXZ",
"ZXWVVVSSQOGGDD998888888889CDGGLQSSVVVWWZ",
"ZXWWVVUSQLGGDD998888888889DDGGLQSSVVWWXZ",
"ZZXWVVVSQLGGD99888888888899DGGLQSVVVWXXZ",
"ZZXWVVVSQLGGD99888888888899DGGLQSVVWWXXZ",
"ZZXWVVVSQLGGD99998888889999DGGLQSVVWXXXZ",
"ZXXVUQQOOLGGGGDDGDDDDDDDDDGGGLOQSSUUWXXZ",
"ZZXUOJIJJJGFFFFFLJFFFFLLFFIJMMOJJJPRVXXZ",
"ZZWQJAAAEFFCAAEIJFEAAEJJEAAEIMIEAHIPUXZZ",
"ZZWQFABBAFFAABBEFFAABHIJEBBBIJIABBHNUXZZ",
"ZZXQFABBHIFEABBHIIABBHKJEBBBKMIBBBHNVXZZ",
"ZZXQJEBBHJJIHHHKJJEHHHNMKHHHKPJHHHKPVXZZ",
"ZZXSLIKKKJJJIKKNMMIKKKNONKKKNROKKKNSVXZZ",
"ZZXSLJJMMMLJJJMMMOMMMMOOOMMPQQQPPPRSVXZZ",
"ZZXQFCEEEIGFEEEILJFEEILLIEEIJOJIEEIPVXZZ",
"ZZXQFAABAFFEABBELFAABEJJEABHIMIAABHPVXZZ",
"ZZXQFABBBIJEABBHJIABBHJJEBBBKMIABBHPVXZZ",
"ZZWQJABBHIJEABBKJIEBBHJJEBBHKOJHBBHPVXZZ",
"XXWSLIHKKJJIHKKKMJKHKKNOKHKKNROKKKKPVXZZ",
"XXWSOJNPPOOONPPPQOPPPPSSQRRRSSSRRRRSWXXX",
"XXXULIIJJOLD979DOOJJNMQQMMNNQSQNNNPUWZXX",
"ZZXSJEAEHJF54445DIEAAEJOIEEHNSLEHHKRWZXZ",
"ZZXSJABBHJC447449SNKKTUOEEHHKQJHHBKRWZXZ",
"ZZZSJEBHHMC44A54G400224XIHHHKSNHHHKRXZZZ",
"ZZZSJIKKKNG5454850000005TKKKPSRKKKKSXZZa",
"aZZVSRRTTSMD877O20000002bTTYYZWUTTTXZZZa",
"aaaQCCCAA775555720000002A777AEEEEIIIVaaa",
"aaV77777555444442000022244445577CCCEEWaa",
"aaF7777775554444200222224455577ACIIIEJaa",
"aaF7777777554444422222244455577AEIIIIJaa",
"aaF77AA77755544444422444455557AEEIIIIJaa",
"bbE7AAAA7775555544444444555577CEIIIIIJba",
"bbE7CCCCA77755422222422225777AEIJJJJJNbb",
"bbFACCCCCA7CC77545545455577AEEEJJJJJJNbb",
"bbIACCCCCCJ4242555554557A77AAIJJJMMMJPbb",
"bcICCCCCCCL400000000220000002VJJJMMNMRbb",
"bcICCFFFFFFJ22222220042222225QJNNMNNMPbb",
"bcJCFFFIIFFFQOJNPMO55JOSWRUWOMNNNNPPMRcb",
"bcNFFFFIIIIIIIJ77EF9AKIA7MJJNNNNPPPPOScb",
"bcNEIIIIIIIIIJ7A799777C7A7MNNNPPPPPRQScb",
"bcNEIIIIIIIJJJ777CC77CF778ONPPPPPRRRQScb",
"bcNIIIIJPMJJNRD99OO99OR99LUSRRSURSSSSUcb",
"bcPIJJJJ57EEAAFEFEAFA7EEEAEAINEFUSUUSUcb",
"bcPIJJIJ424244444442444424444445YSUUUUcb",
"ccPIJJQQVVVQXVOVVVXXXXSSSUVVUSSWUUUUVUcc",
"ccPJNQB66666666666666BVUSSSUUUUUUUYYWWcc",
"ccTNQ311111111111111113WTVUUUUUUYYYYWYcc",
"ccTQ6111111111111111111BWUUUUUYYYYYYYYcc",
"ccTS6111111101111011111BXYWYYYYYYYYYYZcc",
"cdTS6111111111111111011BYTWYYYYYYYYYZZcc",
"cdTR6111111111111111111BYYYYYYYYYYYYZZdc",
"ddTKT311111111111111113TYYYYYYYYYZYYZZdc",
"ddWTTT666666666666666BKTTUUUUWYYYYaaaadc",
"cdWTTB6666666666666666BBAAAAAAAHHHKaaadc",
"ccYUN666666666BBB666BBBEHHHHHHHHKKHYaadc",
"ccYWPAAAAAAAAAAAK222224NAHHHHHKHHHHYbacc",
"ccYWPAAAAAAAAEAAHA6A66AHHHHHKKKHHHHYbacc",
"ccYWYAAAAAAAAAAAAHHHHHHHHHHHHHHHHHKababc",
"cbYYYYTPTTTTTTTTTTTTTTUYYYYYYYYYYYabbabb",
"ccaUYYYYYYYaaaaaaaaaaabbbbbbbbbbbbbbabbb",
"cbbaYYYYYYYYYYYYYYYYYYYYYYYYYYaaaaaabbbc",
"ccbccccccdccddddccccccccddddccdccccccbbc",
"cccdddddddddddddddddddddddddddddddddddcc"
};
