/* XPM */
static char * review[] = {
"40 86 40 1",
"0 c #b7a26e",
"1 c #856c46",
"2 c #3067b3",
"3 c #5a4733",
"4 c #543b25",
"5 c #443830",
"6 c #402f21",
"7 c #3b2819",
"8 c #36291e",
"9 c #2b2b31",
"A c #382516",
"B c #362518",
"C c #33251d",
"D c #342417",
"E c #342214",
"F c #312216",
"G c #2f241c",
"H c #2f2118",
"I c #2f2015",
"J c #2c221c",
"K c #2e1f13",
"L c #2c1e15",
"M c #2b1d15",
"N c #2a1c12",
"O c #291b13",
"P c #291b10",
"Q c #291a10",
"R c #271b14",
"S c #271a12",
"T c #281a0f",
"U c #261910",
"V c #25180f",
"W c #24170f",
"X c #23160d",
"Y c #22170f",
"Z c #1f1611",
"a c #1e130c",
"b c #180f0a",
"c c #140c07",
"d c #100b06",
"USSSSSSSOOOOONNNNNNNNNNNNNNNOOOOSSSSSSSU",
"TPKLLOSSOOOOONNNNKKKKIKNNNNNOOOOSSPLKLOU",
"TIDBFLPSOOOOMNNNKEDDEEFLNMNNOOOOOOKB8BKP",
"PF66BKOSOONICBDC86778BBDDDDFLNOOOOI756FO",
"SE77DKSSOOM85555333355565556DNOOOSLB67FQ",
"SNIIKNSSOOOC5555533335555535DNOOOSNIFINU",
"VUSSSSSOONNLFC88888888BBC88DKNOOOOMHGLPU",
"VVUUSSSOONNNNNLLIKIIIKKIKLLNNNNOOH6556HU",
"SMIIIIIHHHHFFFFDBBBBBBBBDBDDHHIMM853358O",
"OG8888C88888887866666666888888CLM633336M",
"SMHHHHFFFFFFCBDB77777777BBBDDDIMM853358O",
"VUUTSPSNNNNNLIFFEEEEEEEFFIKKNNNOOH6556HU",
"VUUSSSSOOONNKIFFEEEEEEEDFFKKNNOOOSLGGLUV",
"VVUUSSSOOONNKIFFEEEEEEEEEFIKNNOOOSUUSUVV",
"VVUUSSSOOONKKIFEEEBBBDEEEFIKNNPOOSUUUUVV",
"VVUUUSSOOONKIFFEEBBBBBAEEDFILNPPSSSUUUVV",
"VVUUUUSSOONKKEEEDAAAAAABEEEKKNPPSSUUUUVW",
"WWVUUUSSOONKIFEEAAAAAAABEEEIKNPOSSUUUVWW",
"YWVUUUUSPPNKFEEEAAAAAAAADEFFKKPPSSUUVVYY",
"WWVVVVUSPNKKIEEDAAA7AAAAAEEIKKNPSSVVVWWW",
"WWWVVUSSPNKKKEEAAAAAA7AAAEEEIKNOSSUVVVWW",
"XXWVVUSSPNKKEEEAA7AAAAAAAEEEIKNPTSUVVVXY",
"XXWVVUSSPNKIEEBAA7AAAAAAAAEEFKPPTTUVVVXY",
"XWWVVUTTPNKKEEAAAAAAAAAAAAEEEKPPTTUVVVXY",
"XXVVVUUTPNKKEEAAAAAAAAAAAAEEKKKPTTUVVWXY",
"XXWWVVUTPKKEEEAAAAAAAAAAAAEEEKKPTUVVWWWY",
"XXXWVVUTPKKEEAAAAAAAAAA7AAAEEKKPTTVVWWXY",
"XXXWVVUTPKKEEAA777AAAA77AAAEEKKPTTVVWXXY",
"XXXXVVTTPKKEEAAAAAAAAAAAAAAEEKKPTTVVWXXY",
"XXXVUTPNNKKKEEEEEEEEEEEEEEEKKNPNSTUUWXXX",
"XXWUNLIIIKKIFFFIKIIFFIKKKIIIMNNLLLNSVXXX",
"XXWTICCCGIIDCCGHKICCGHLKHCCGIMIGGGHOUXXX",
"XXXPIC8CGHIC8CCGIHC8CCHICCCCHLHCCCJOUXXX",
"XXXPICCCGHIGCCGJLHGCCGLLGGCGJLHGCCJOUWXX",
"aaWTIGGJJHLHGGJJMLGGJJMLHJJJMOLJJJJOVWXa",
"aXWTLHJJMMLLLJJMNMLMJMONMMMMOONMMMMOVWXa",
"aXWTLIILMMKKKIILNNMLMNONNNOOOOOOOOOSVXXa",
"aaWTIDCHHLI76667EIHHHHMNIHHHLOMHHHLOVWXa",
"aaWPI88CCIA44544AHC8CGLLGCCGHNHCCCJOVWXa",
"aaWPICCCGHA45C647HGCCGLLGCCGJNLGCCJOVWXa",
"XXWTICCGJLA44664AIGCGJLLHGGGMOLGGGJOVWXX",
"XXWTLHJJJLF66666ELJJJJONLJJJMOMHJJLSVWXX",
"XXWTNLMMMLHB777BFHJJJJOPOORRSTNLLLNPUXXX",
"XXXUKA77ABB66446886558DNIA7AENK7767KTVXX",
"XXXUE633467444346645556F64446A743347PXXX",
"XXXVE533346443346665556D633347633336KVXX",
"XaXVF533366443347310003M633347633336KVXX",
"aaXVE655467644464000000674344A633336NVXa",
"aaXVPE777DDA776K10000004X777EPE6666ETXaa",
"aaaQDBBB7886666810000101C6887BBBBDDFTXaa",
"aaV88888666665451000110155566688CHHHGWaa",
"aaF8888886666656300111036666688BDHHHHMaa",
"aaD8888886666655410000145666688CHHHHHLaa",
"aaF7BBB87866666646334464666688CCHHHHHLaa",
"abH8BBBB8876666664666666666888DHHHHHHMba",
"bbHBBBBBB86866433333433336888CHHHHLLLMbb",
"bbHBBBDDBIM88876666666666C8CDHHHLLLLIMbb",
"bbHBDDDBK31676168556668C5165FIGLLLLLMMbb",
"bbIBDDFBX1000000011300101000001XHMMMMObb",
"bbLDDFFDP3533333333311113311115UMMNNMRbb",
"bcLDFFHHHOLOPMIVMHFLULNVSNXXXaSMMOOONRbb",
"bcMFFFHHHHHHHHZ48JR66RM84ZHLLLMOOOOONRbb",
"bcMHHHHHHHHHHN301740047004RMOOOOOOOOOSbb",
"bcMHHHHHHHHHHW301E4016E004ZMOOOOOOOOOSbb",
"bcMHHHHLLLLLLR744OE44KS44AYOSSUUSOSSSUbb",
"bcOHHHL88DCCCHCHJHHJJCHJJLHGHHGGLUSUUUbb",
"bcMHHHM53553355335535533365553538XSUUUbb",
"bcRHLLPTVTVVVVVVXQXXXXXXXXXXVUVWVUVVVWcc",
"bcRLMQ9999999999999999999999RXSUVVVVWWcc",
"ccRMQ222222222222222222222222JWYVVYYWYcc",
"ccRP92222222222222222222222229XZYZYYYYcc",
"ccRQ92202222222222222222222229YZZZZZYYcc",
"cdRS92222222222222222222222229ZZZZZZYYcc",
"cdRR92222222222222222222222229ZZZZZZaadc",
"cdSRR9222222222222222222222229ZZaZZZaadc",
"cdWRRR9999999999999999999999JRZZZYaaaZdc",
"cdYRRC99999999999999999999999CGGGGMaaZdc",
"ccYUM888999999988988C89GGGGGGJJJJJGZaZdc",
"ccYWR8CCCCCCCCGCJ311313JGGGGJJJJJJGZbacc",
"ccYWR8GGGCCGGGGGG88C88GJGJJJJJJJJJGZbacc",
"ccYWYG8888CCCCCCCGGGGJGGGGGGGGGGJGJababc",
"ccYWYYRRRRRRRRRSSSSSSUUYYYZZZZZZZZabbabb",
"ccaWZZZZZZaaaaaaaaaaabbbbbbbbbbbbbbbabbb",
"cbbaZYYYYYYYYYYYYYYYYZZZZZZZZZaZZaaabbbc",
"cccccccccccccccccccccccccccccccccccccbcc",
"cccdddddddddddddddddddddddddddddddddddcc"
};
