/* XPM */
static char * review[] = {
"40 86 40 1",
"0 c #a18a5b",
"1 c #3069b6",
"2 c #5b422a",
"3 c #433934",
"4 c #443020",
"5 c #3c2d20",
"6 c #3b2817",
"7 c #36291e",
"8 c #2b2b31",
"9 c #382516",
"A c #362518",
"B c #33251b",
"C c #342215",
"D c #312215",
"E c #30241c",
"F c #2f2117",
"G c #302014",
"H c #2e211a",
"I c #2b221d",
"J c #2f1f13",
"K c #2d1f14",
"L c #2c1e15",
"M c #2b1d15",
"N c #2a1c12",
"O c #291b13",
"P c #291b10",
"Q c #291a10",
"R c #271b14",
"S c #271a11",
"T c #241a13",
"U c #261910",
"V c #25180f",
"W c #24170f",
"X c #23160d",
"Y c #211712",
"Z c #21160d",
"a c #1e130c",
"b c #180f0a",
"c c #150c07",
"d c #100b06",
"USSSSSSSOOOOONNNNNNNNNNNNNNNOOOOSSSSSSSU",
"SPKKLOSSOOOOONNNNKJJJKKNNNNNOOOOSSPKKLOU",
"QKAADKPSOOONNMNNKDAACDDNNMNNONOOOOKA7AKS",
"SD55AKOSOOOOMF7BDA77AAABFFKNNNOOOOF545DO",
"SD55AKSSOOOOL73344443333347LNNOOOSKA45DQ",
"SNGGKNSSOONOM73333433322337KNNOOOSNKCGNU",
"UUSSSSSOPNNNNKBB7AA777777BFNNNOOOOMEELPU",
"UOMOOMMLKKKFGFDDDAAAAACDDFFKMNOOOF5335FU",
"OH77B7777777757555565555557FMNNOM533337O",
"OB555555577777775556656777BKNNOOL522335M",
"OF7777777BKKKKGDCACCCCCCDDGMNNOOM532335O",
"UONLLLLKFLNNKJJDDCCCCCCDDGJNNNOOOF5335FU",
"VUUSSSSOOONNKGDDCCCCCCCCDDJKNNOOOSLEELUV",
"VVUUSSSOOONNJGDDCCCCCCCCCDGJNNOOOSUUSUVV",
"VVUUSSSOOONKJGDCCCAAACCCCDGJNNPOOSUUUUVV",
"VVUUUSSOOONKGDDCCAAAAA9CCCDGKNPSSSSUUUVV",
"VVUUUUSSOONKJGCCC999999ACCDJKNPSSSUUUUVW",
"WWVUUUSSOONKGDCC9999999ACCDGKNPOSSUUUVWW",
"WWVUUUUSPPNJDCCC99999999CCDDJKPPSSUUVVWW",
"WWVVVVUSPNNJGCCC999669999CCGJJNPSSVVVWWW",
"WWWVVUSSPNJJGCC9996666999CCGGKNOSSUVVVWW",
"XXWVVUSSPNJGCCC99666666999CDGJNPQSUVVVXZ",
"XXWVVUSSPNJGGCA99666669999CCDJPPQSUVVVXZ",
"XWWVVUQQPNJGCC999666666999CCGJPPQPUVVVXZ",
"XXVVVUUQPNJJCC996666666699CCGJNPQQUVVWXZ",
"XXWWVVUQPNJGCC996666666699CCGJNPQUVVWWWZ",
"XXXWVVUQPJJGC99966666666999CGJNPQVVVWWXZ",
"XXXWVVUQPJJGC99666666666999CGJNPQVVVWXXZ",
"XXXXVVUQPJJGC99999999999999CGJJPQUVVWXXZ",
"XXXVUQPNNNJJGCCCCCCCCCCCCCGJJNPNSQUUWXXX",
"XXWUNKKFKKJGDFFGJGFFFKKJJGFFMNNLLLNSVXXX",
"XXWQKBBBEGGBBBEFKFBBEHLKHEEEFMKEEEHOUXXX",
"XXXPFB77EFFB77EEFF77EEFKB77EHLFEEEHOUXZX",
"ZZXPFB7EEHKE7EEHLFEEEILKEEEIILFEEEIOUWZZ",
"ZZWQKEEIIFLFEEIHMLEEIIMLHEIIMOLEIIHOVWZZ",
"ZZWQKFHIMMLLLIIMNMLMHMONMIIMROOMMMRRVXZZ",
"ZZWQKKKLMMJKJFKLNNMLMNONNKKKNQQOOOPUVXZZ",
"ZZWQKBBHHKG64446GGHHHFMJ64446JG6669JVXZZ",
"ZZWPF77EEG9424449FB77EKJ42224A62224CUWZZ",
"ZZWPFB7EEF944B446FE7EELJ422226422226UWZZ",
"ZXWQKBEEIL9445449FEEEIMJ422229422226UWZZ",
"ZXWQKHIIILC44444DLHHIHOJ62224C642226UWXX",
"XXWSNLMMMLFA756ADKOOOOSPG966CNJ9546JVWXX",
"ZZXUJ9669AA44446BFLLMMOPNKLLOUPMLLMUWXXZ",
"ZZXUC422244222246B7BEHLNFEEIMSLHEIHSWZZZ",
"ZZXVC333244222224FTRITYNHEEIMSMEEIHOWZZZ",
"ZZZVF333344222229200002ZHIIIMSMIIIISXZZa",
"aZZVG4332444222420000006TIIIRUOIIIMSXZZa",
"aaZVPC666AC6444G00000002bTTYYZXYYTWXZZaa",
"aaaQBABA7775444700000002E577BEBHHFFLVaaa",
"aaV77775554444342000000043444557BBFBBWaa",
"aaD7777755544444200220024445557BBFFFHLaa",
"aaB7777775554444400000044445577BHFFFFLaa",
"aaD7AAA77555444444222244444557BBHFFFFLaa",
"abF7AABA7755544444444444455577BEFFFFFMba",
"bbFABBBBA75555222222222224577BEFFFLLLMbb",
"bbFABBAABGM777A4444454444B7BBEFFLLLLLMbb",
"bbFAAAABK22474047335455B3243DFELLLLLMMbb",
"bbFBBBDAX0000000000200000000002XFMMMMMbb",
"bcLACFFBP2332222222202002202223UMMNNMObb",
"bcLCDFFFHOLOPMKVMFDLSLNVTNXXZaSMMOOONRbb",
"bcMFFFFFFHHHFEY25HR44RM72YFLLLMOOOOONRbb",
"bcMFFFFFFFFFFN200420026002RMOOOOOOOOOSbb",
"bcMHFFFFFFFFFY200G4004C002YMOOOOOOOOOSbb",
"bcMFFFFLLLLLLR624OD22JS226YOSSUUSOSSSUbb",
"bcOFFFL77BBBBFBHHFHHHBHHHLFHHHEELUSUUUbb",
"bcMFFFM32332233223423322253333327XTTUUbb",
"bcRFLLQVVQVVVVVVXQXXXXXXXXXXVUVWVTVVVWcc",
"bcRLMQ8888888888888888888888RXTTVVVVWWcc",
"ccTMQ311111111111111111111111IWYVVWWWZcc",
"ccTP81111111111111111111111118ZYYYYYYZcc",
"ccTQ81111111111111111111111118ZYYYYYZZcc",
"cdTS81111111111111111111111118YYYYYYZZcc",
"cdTR81111111111111111111111118YYYYYYZZdc",
"ddTRR3111111111111111111111118YYaaYYaZdc",
"ddWRRT8888888888888888888888ITTYYZaaaadc",
"cdZRT788888888888888888888888EEEEEMaaadc",
"ccWTM777888888877877E78IIIIIIIIHHHEYaadc",
"ccYWR777777EEEE7I202202HEEIIIIIIIIIYbacc",
"ccYWR7EEEEEEEEEEE75757EHEHIIIIIIIIIYbacc",
"ccZWWE777777777EEEEEEHEEEEIIIIIIIIIababc",
"ccZWYYRRRRTTTTTTTTTTTTTYYYYYYYYYYYabbabb",
"ccaTYYYYYaaaaaaaaaaaabbbbbbbbbbbbbbbabbb",
"cbbaYYYYYYYYYYYYYYYYYYYYYYYYYYaaaaaabbbc",
"cccccccdccccddccccccccdcddcccccccccccbcc",
"cccdddddddddddddddddddddddddddddddddddcc"
};
