/* XPM */
static char * review[] = {
"32 69 32 1",
"0 c #c38942",
"1 c #ad723f",
"2 c #9a6032",
"3 c #7c5d46",
"4 c #8a522d",
"5 c #864d28",
"6 c #804d2c",
"7 c #6d4f36",
"8 c #7c4827",
"9 c #764526",
"A c #704326",
"B c #693b1c",
"C c #583e2c",
"D c #553119",
"E c #362c28",
"F c #352011",
"G c #2d1c0f",
"H c #271910",
"I c #231811",
"J c #221610",
"K c #22140c",
"L c #20130d",
"M c #1e150e",
"N c #1d140d",
"O c #1e110b",
"P c #1b120b",
"Q c #160e09",
"R c #120c07",
"S c #0f0a06",
"T c #0e0905",
"U c #0c0704",
"V c #0a0603",
"JJIJJJJJJJJJJJLLLLJJJJJJJJJJJIJJ",
"JGGFIJJJJJJIIHFFGFHIIJJJJJMIGGGK",
"IFCFHMJJJJIOQLFFHFKQOIJJJJMHC7FH",
"IECEHNMJJIQ773C77E33ENIJJJNHE7FI",
"MGGGJNMMJIPC73C73CC37PIMMMMJHHGM",
"MNMNNMMMJJJPQQOPROOQPIJMMMNNEGQM",
"MNPPPPPPPNJIIIIIIIIIIJMMMMM333EP",
"ICCCCCCECEOJJJJJJJJJJMMMMPE3C37Q",
"MIHIHHGHGIMLLJJJJJJLLLMMMPI333EQ",
"NPPPPPPPPNMLJJJJJJJLLLMMMMPFCEPN",
"NNNNNMMMMMMLLJJJJJJLLLMMMMMPQQNN",
"NNNNNNNMMMMLJJJIIJJJLLMMMMNMMMNN",
"NNNNNNNMMLLJIIHHHIIIJLMMNNNNNNNN",
"NNNNNNNNMLKJIIHHHHHIJLMMNNNNNNNN",
"NNPPNNNNLLJIIHHHHHHHIKLNNNNNNPNP",
"PPPPPPPOLKJJHHHHHHHHHIKLNNPPPPPP",
"IIIIHHHHHHHGHHHHHHHHHIJKLLPPPPPP",
"HGGGGGGGGGGGGGGGGGHHHJKKLLOOPPPP",
"HGGGGGGGGGGGFFGGGGGGHHJKLLOOPPPP",
"GGGGGGGFFFFFFFFFGGGGGHHHKKLOPPPP",
"HFFFFFFHHHHGGGGGGHHHJMNPQQRRQQRR",
"7454246666644666666446666989CCAC",
"3AGFFGB0101101111111111000114A3C",
"49FBBD52DDBBBBBBDDDDDDDDBB9923EG",
"28BBB528QHHHGHGHHHHHKKKKKOKGFCEE",
"198FG524DBBBBBBBDDBBBDDDDDCDEEC2",
"4848525DDA9A99AAAAA9AAAAABABCFD1",
"5KFB9FF64BA666886999989A99AABBA1",
"3C3EC7C3006A9644684446688999ADC1",
"3CEC2777A101289446546668899AADC1",
"5KD8017C2A71374A44466556689AAAC1",
"4GBAB2018C3EEE1194444446689968B1",
"5GB9AB9101333EE11A5455569BAAAAB1",
"8GB9669B61033EEA01A4545656AAABD1",
"BG9888446A83337290452444588889D2",
"BGA8644664695024420924445668AAD1",
"BG95444444426508250664556689AAD2",
"DF85445444442A11CB04945666899BD2",
"DHDA8664444465033C048666899BBDF2",
"DF64222222249026420944444568AAD2",
"FF844444442620918049444466668AD4",
"FF6442222225111001944444566888B4",
"FFA86464664A110004A6668998889AD8",
"FD864466444A2020102BA9669668A9D8",
"FD546654444480282401259B846689B9",
"OD9646966665940526C110018BAABBDB",
"CF85489886686B204C32664101AB9BD3",
"13FA88AA666668B4013844268005DC77",
"713C9ABBAA99999B910012842C1027CC",
"F33200111111111122421002A30000C7",
"737200000000111111122420100500AD",
"13762222224997669A6A949B410002C9",
"FPQGFFFFFGD955555588DGFGF7659CEG",
"KOOGFFFFFFDDBBBDDBBDDFFFFGFDDGRO",
"QQQQOKKOKKKGFFFFFFFGKKKKKOORUTRO",
"VVVVVUTTTTSSSRRQRRRSSSTTUTUUUVVV",
"VUUUTTTSSSRRQQQQQQQQRRSSTTTUUUVV",
"UUUUTTTSSSRRRRRQRRRRRRRSSTTUUUUV",
"UUUUTTTSSRRRRRRRRRRRRRRSSTTTUUUU",
"UUUUUTTSSRRRRRRRRRRRRRRSSTTUUUUU",
"UUUUUUUTTSSRRRRRRRRRRSSTTUUUUUUU",
"UUUUUUUUTTTSSSSSSSSSSSSTUUUUUUUU",
"UVVVVVVVVUUTSTTTTTTTTUUVVVVVVVVU",
"VURRRRRRRRQRUTTTTTTUSQRRRRRRRRSV",
"VPKLLLLLLJOFCEEEEEEEFLKLLLLLLKMR",
"ULLLLLLLLLOGCEFEEEEEFOLLLLLLLLLQ",
"ULLLLLLLLLLNEIOOLOOPOLLLLLLLLLKQ",
"VRPPPPPPPPPPQPPPPPPPPPPPPPPPPPPT",
"VVVVVVVVVVVVUUUUUUUVVVVVVVVVVVVV"
};
