/* XPM */
static char * review[] = {
"40 86 40 1",
"0 c #a57446",
"1 c #687275",
"2 c #5b4a3c",
"3 c #453223",
"4 c #362e2c",
"5 c #3f2918",
"6 c #382719",
"7 c #312927",
"8 c #2d2729",
"9 c #352315",
"A c #312116",
"B c #2d211a",
"C c #2c1d14",
"D c #291c14",
"E c #291b12",
"F c #231f1f",
"G c #251b13",
"H c #251a12",
"I c #251911",
"J c #221811",
"K c #23170f",
"L c #21160f",
"M c #20160f",
"N c #1e150f",
"O c #1e140d",
"P c #1c120a",
"Q c #1a130e",
"R c #1a110a",
"S c #191009",
"T c #17100a",
"U c #160e08",
"V c #140d08",
"W c #130c06",
"X c #120b06",
"Y c #100b07",
"Z c #0f0a06",
"a c #0e0905",
"b c #0c0805",
"c c #0b0704",
"d c #080402",
"MMNMMJJHHHGGGGGEDDDDDDDDDEGGGHHHHJJLMNMM",
"NHBBCJJHHHGGGGDDDDDDDDDDDEGGGGIHHJJCBBHM",
"M9AC6CLHHGGGEDDDC333635HCCEEGGHHHLC6699M",
"JC226CMIHGGGDKILOKKKEICDPOIHDGGHJMC313CJ",
"JA339CMHHGGK411222221321221DEGGHJMB923AJ",
"OCAC9ILIHGGHB111011112221113LGGHJLG9CACN",
"MNJJMJIGGGGDDOKI6AKEICCEKLLDDDGGIJRQMRON",
"MNSROPONOOOLIEIHIECCACEDDEIKILOKGO4224PM",
"O4334273323233223223322223233224O712217P",
"O633633633336633333353333636634BR312212U",
"Q323322DOOKKHDDCAAAA9AACCCEIIKMJO712214S",
"MOPOMOOHGGEDCAAA99666699AABCDDGHHO3222PM",
"MMJJJJIIHGHDCAA9966666699ABCDGGHJJPGGRNM",
"MMMMJJJIHHHCCAA99666666999ACDEGHJJJNOMNM",
"NMMMMJJJHHECCA996666666699ACCEHHJJLMMMMN",
"NNMMMJJJHHDCAA996666666669AACGGHJJJMMMNN",
"NNNMMLKJIIDCCA996666666699AACDHJJJLMMMNN",
"NNMMMLKKIIDCA99666555566699ACEHKKJLMMNNN",
"NNNMMMLKIHECA99665555556699ACCEIKLMMMNNN",
"NNNNNMLKIECAA96655555556669AACEJKKMOONNN",
"QQPNMMKJIECA9966555555556699ACDHKKMMNOQQ",
"QQOOMLKKIECA9966555555555699ACEIKKMONOQQ",
"QOOOMLKKHECA9665555555555699ACCIKKLMNOQQ",
"QOPNMMKIHCA99665555555555699ACCIIKMMNOPQ",
"QQOOOMKKIECA96555555555555999CCHKLMONOPQ",
"QQPOOOLKIECA96555555555555699CEIKLNOOPPP",
"PPPOOOLKIEC995555555555555699ACIKKOOPPPP",
"RPPOOOLKICA995555555555555599ACIKLMOPPPR",
"PRPPPOOKICA965555555555555569ACEKOOPPPRR",
"RPPPKIIEECCAA9999999999999AAACEHIKKMPPPR",
"RQRKCABCCCCCCCDGHEDDDEHIHHDDHIIHIIHHNRQR",
"RRRHA4444AC74447DA4444CE4444BIB4447ILRRR",
"RRRIA4444BA44447CB4444BE44448EB4488GLRRR",
"SSSIA4788BC74888EB4788BI7788BKB4888GLRSS",
"RSSIA4478BI74878EB4888BK7788BKD4888GLRSS",
"RSSICBFFFDCBFFFFEDFFFFDEFFFFGIGFFFFJMRSS",
"SSSICEEIIDCEIIIIDELLOOIEKPOQLHIQTPOKMRSS",
"SRRIA4777AC6777BEE3333AK63336JE3333DORRS",
"RRRJ94444BE44447IC02003V20000QC00005QPRR",
"RRRIA4488BE74888IA02003S40002P72dK16RPRR",
"RRRIA4888BE74888IC02213P30002PD12216RPRR",
"RPSIA7888BEB888BIC00003R30002QE22229QPPP",
"PPSICGJJJECHJJJJEIDA99EILIEIJKLLPKKLOPPP",
"PPSICBCCDDEDCDDDEDA988GKDDDDHKIGJGGKOPPP",
"RPRJE20003Q30002N501111F7444BOB4447JOPPR",
"PPRJI21103T30000P41111117488BOB4888HOPPR",
"PPRKI21113P4222241111112B888FOD7888JOPPP",
"RPRKE22203T300002201111FB888FOD7888HOPPR",
"RPSJE5333AKA33358B5485KLGFFFJLJFFFFLORPR",
"RRSICKQQQIEKQRROKLVUSYLILLMOOFFFFFFFJRRR",
"SRSIA4477CK6477BLC2222CL7777DF82224FFSRR",
"SSSKA4444BK74447O500206P4487BF411128FPRS",
"SSSJB4888BK74888N502205P7788FF411124FRSS",
"SSSIC7888BKB7888O501005R7788FF411128FSSS",
"TSSIDBFFFGKDFFFFLE2332IPFFFFGF84234FFSTT",
"UUUIHOOLNKILNOONKOVVTVOLORRRQFFFFFFFJUUU",
"UUUIHBBBBEIBBBBCKI9559IKCBDDINFFFFFNOUUU",
"UUUMB4444DK74447P501105T4444BRD4447NQUUU",
"VVVOD4888FO74888T31dd23X7788FSG4888NRUVV",
"VWWOG7888GPB8888U30FF03Y8888FUG8888QSVVV",
"WWWOJ8888GPB888FTC2222AUB888FUJ8888QTVXW",
"WXZRMNNNNNPQQQQQRTYYYYVSQQQQQTQQQQQTTZXW",
"YYZXPOOOOOOOMNNMNNNJOOMNNNOQQRQTTTTTYZYY",
"YYZaaYYYWWUM223222I222323222MUWVXXYaaZYY",
"YYZZZaZZXXXSOMONLMPOMMOJNOJMSWXYZZaZZZYY",
"YYYZZZZXWVVWWWWUUUSSUUUUUUWWWVVWXXZZZYYY",
"ZYYZZZYXWVVUUUSSSRRRPRRRSSUUUUVWWXZZZYYZ",
"ZZZZZYYXWVVUUUSSSRRRPRRRSSUUUUVWXYYZZZZZ",
"aaZZZZYYXVVVUUUUSSRRRRSSSUUUVVWWXYZZZZaa",
"baaZaZYYWWWVUUUUUSSSSSUUUUUVVVWWXYZZZaab",
"bbaaaZZXXXVVVVUUUUUUUUUUUVVVVVXWXZZaaaab",
"bbbaaaZYYXWVVVVVUUUUUUUUVVVVVXXYXaaaabbb",
"ccccbbbaXXWWVVVVUUUUUUVUVVVVWWXZabbbbbcc",
"bccbccbbaZXXXWWWWVVVVVVWWWWXXXZabbbcbbcb",
"bbcbbbbbbaaXXXXXWWWWWWWWWXXXXZaabbbbccbb",
"bbbccbbbbaaZZXXXXWWWWWWXXXYZZZabbbcccbbb",
"bbbbcccbbbaZZZZYXXXXXXXXXZZZZbbbbcccbbbb",
"cbbbbcccccbaaaaaZZZZZZZZZaaabbcccccbbbbc",
"ccdddddccccccccbbbcbbbbbcbbccccccdddddcc",
"ccYVVVUZcaccaabcacZacaacaaccacaacVVVVVZc",
"dYTTTTW43733443343B33743433343473RTTTTTa",
"dVTTTTUG3B43733374742443B33367444QUTTUTZ",
"dVTTTTTVaXaaXaYQQQQQ48WVTVaaXZZXaUTTTUTZ",
"dYTTTTTTTTTTTTTSSSSSWUTTTTTTTTTTTTTTTTTb",
"dcXXXXXXXXXXXXXXXXXXVVXXXXXXXXXXXXXXXXad",
"dddddddddddddddddddddddddddddddddddddddd"
};
