/* XPM */
static char * review[] = {
"40 86 40 1",
"0 c #a7784a",
"1 c #806045",
"2 c #5e4938",
"3 c #453120",
"4 c #362e2d",
"5 c #3d2918",
"6 c #372518",
"7 c #312825",
"8 c #2d2729",
"9 c #322216",
"A c #302014",
"B c #2c2019",
"C c #2c1d14",
"D c #291c14",
"E c #291b12",
"F c #251e1b",
"G c #241b14",
"H c #251a12",
"I c #251911",
"J c #221812",
"K c #23170f",
"L c #22150e",
"M c #20160f",
"N c #1f150f",
"O c #1e150e",
"P c #1d130d",
"Q c #1c120a",
"R c #1a130f",
"S c #1a110a",
"T c #18100a",
"U c #170f09",
"V c #160e08",
"W c #140d07",
"X c #130c07",
"Y c #120b06",
"Z c #100b07",
"a c #0f0a06",
"b c #0e0905",
"c c #0c0805",
"d c #0a0603",
"MNONMJJHHHHHGGGEDDDDDDDDDEDGHHHHHJJMMNNM",
"OHBBCJJHHHHHDDDDDEDDDDDDDEDDHGIHHJJBBBHN",
"M9AC6CMHHGHEEEDDD533533HCCDEGHHHHMC6599M",
"JC226AMIHGHDEIEKHCECLIADLQLDEHHHJMC303AJ",
"JA336AMHHHHDL20101301222122KDEHHJMA623AJ",
"OCAC9IMJHHHDK31101210222102LDGHHJMG9C9CO",
"NOMJNNJHHHHEDHLKIEDEKECCLPKDEDHHIJSPNSON",
"NOONNKJHHHHDDDCBA9A999ABBCDDEEHHHP4114SM",
"OHJJJJJJHDHDEDDCA999999AACDDHHHHMB12217S",
"S3222332322333222222222223222DHGQ412212V",
"NJGGGHDDGDCDB99966666666999BBDHHO711114T",
"NNNNMMKKIHIHDCAA996666999ACDEEHHJP4114PO",
"NNMMJJJIHHHDCA996666666699BCDHHHIJPGGSON",
"NNNMJJJIHHHCCA966666666669ACDEHHJJJOPNON",
"ONNMMJJJHHECAA966665566669ACCEHHJJMMMNNO",
"OONMMJJJHHDCA99665555566699ACDHHIJJMMNOO",
"OOONMMKJIIDCA99665555556699ACDHIIJMMNNON",
"OONNMMKKIIDCA96665555556669ACEHKKJMMNONO",
"OOONNMMKIHEA9966555555556699ACEIKMMNNONO",
"OOOOOMMKIECA9666555555556669ACEIKKMOPOOO",
"RPPONMKJIECA9665555555555669ACDHKKMMOPRR",
"RSPNMMKKIECA9665555555555569AAEIKKMNOPPR",
"RPPOMMKKHECA96555555555555699ACIKKMMOPPR",
"PPPONMKIHCA966555555555555669ACIIKMMOPPP",
"PPPONMKKIEAA66555555555555699ACHKMMNOPPS",
"PPPPPOLKIEAA6655555555555566AAEIKLNPPPPQ",
"QQPPPOLKIEA965555555555555569ACIKLNPPPQQ",
"SQQPPOLKICA965555555555555569ACIKLMPPQQS",
"QSPPPPLKICA965555555555555556ACEKOOQPPSS",
"SQQQKIIEECAA999666666969999AACEHIKKMQPQS",
"SPSKCABCCCCCCCDDHEDDDEHIHHDDHIIHIIHHNSPS",
"SSSH944449C74447D94444BE4444BIB4447IKSSS",
"SSSI644447A44447C64444BE44447EB4488GLSSS",
"TTTI94888BC74888EB4888BI78887KB4888GLSTT",
"TTTI94488BI74888EB4888BK7888BLB4888GLSTT",
"TTTICBFFFDCBFFFFEDFFFFDEFFFFFIGFFFFJMSTT",
"TTTICEEIIDCIOPNKCEKKKKEEKLKLKHKNNLKKNSTT",
"TSSI94777AE53335IC7777CE6777BKD777BINSST",
"SSSK64444BL10211L94444BE44447LB4448HNSSS",
"SSSI94488BQ14dF1KB4888BI74888LB4888HPSSS",
"SSSI94888BP11821KC7888BI78888LB8888HPSSS",
"SQSIA7888BL32223HB4888BEB888FLG8888JPSQQ",
"QQSICHJJJDBJRRRF44288424FFFFFFJNRNNLNQQQ",
"QQSICBCCDFFBBFFGJGDBDRRRNFDDGFGDGDDKNQQQ",
"SQSJE10103G9F20002F321112B88DG84447JPQQS",
"QQSKE20112JBF20001F210122BF8FG44888GPQQS",
"QQSKH42222GBF41112F201211FFFFJ44888JPQQQ",
"SQSKE22212JBF20001R201100FF8FG88888JPQQS",
"SQSIE5333BFJR93335RB33222RRRRGJFFGGMOSQS",
"SSSICKSQPGFFJJRRJFFGRJJRRFFGFFJQQPMMPSSS",
"SSSIA4477BJ31223JB4448FG7488FND7777MPSSS",
"TTUK94444BT10101SB4488DL7488BQB4488JQSTT",
"TTTKB4888BT10101TB4888FL7888FQF4888JQTTT",
"UTUIB7888BT10101TD8888FL7888FQF8888MQTUU",
"TUUIDB8FFGP32423QIFFFFJOFFFFFQJFFFFPQTUU",
"UVVIHOPKOKISZXXTKKPPRRLLPSSTROPTVUUSPUVU",
"VVVIHBBBBEK63336KI999BILE99BHOMEAAERPVVV",
"VVVMB4444BS10011PI10005Z20001WE0110AUVVV",
"WWWOD4888FV20121QM10103a30001YB1U706WVWX",
"XXWOG7888FT22211TJ21113Y40012WF1841BWVXX",
"XXXPJ8888FU31101TK10005c30001aL1111AZXYX",
"XYaSMNRRRRQLEEILTS9556NUK565EUTAAA9SUaYX",
"ZZaYQPOPPOPPPPROMNTTTRPOPTTTTSTWZZZUZaZZ",
"ZZabbZZZYXVP223222H222322222QUXWXXYbbaZZ",
"ZZaaabaaYYXTOMONMMQMJJNJMOMNTYYZaabaaaZZ",
"ZZZaaaaXXWWWXXWVVVSVVVVVVWXYWWWXYYaaaZZZ",
"aZZaaaZXXWWVUVUTSSSSQSSSTUVVVVWXXYaaaZZa",
"aaaaaZZXXWWVVVUSSSSSQSSSUUVVVVWXYZZaaaaa",
"bbaaaaZZYWWVVVVUUSSSSSSUUVVVWWXXYZaaaabb",
"cbbabaZZXXXWVVVVVUUUTUUVVVVWWWXXYZaaabbc",
"ccbbbaaYYYWWWWVVVVVUVVVVVWWWWWYXYaabbbbc",
"cccbbbaZZYXWWWWVVVVVVVVVVWWWWYYZYbbbbccc",
"ddcdcccbYYXXWWWWVVVVVVWVWWWWXXYabccccccd",
"cdccdcccbaYYYXXXXWWWWWWXXXXYYYabccccccdc",
"ccdccccccbbYYYYYXXXXXXXXXYYYYabbccccddcc",
"cccddccccbbaaYYYYXXXXXXYYYZaaabcccdddccc",
"ccccdddcccbaaaaZYYYYXYYYYaaaaccccdddcccc",
"dccccdddddcbbbbbaaaaaaaaabbbccdddddccccd",
"dddddddddddddccccccccccccccddddddddddddd",
"ddZWWWWWVYddbbccZbccacbadbbaddbWWWWWWWad",
"dZTTTTTTY7377333B3336377333743BVTTTTTTTb",
"dWUUTTTTWG34B344B744474B337B437UTTTTTUTa",
"dWUTTTTTTWbaYbZRRRR44XUTWWaXabYTTTTTTUTa",
"dZTTTTTTTTTTTTTTUTTWWTTTTTTTTTTTTTTTTTTc",
"ddYXXXXXXXXXXXXXXXXWWXXXXXXXXXXXXXXXXXbd",
"dddddddddddddddddddddddddddddddddddddddd"
};
