/* XPM */
static char * review[] = {
"40 86 40 1",
"0 c #a1895a",
"1 c #2f69b8",
"2 c #513e2b",
"3 c #3c332e",
"4 c #3a2a1e",
"5 c #392717",
"6 c #332820",
"7 c #2b2a2e",
"8 c #362518",
"9 c #362415",
"A c #31241b",
"B c #322216",
"C c #332113",
"D c #312013",
"E c #2f221a",
"F c #2e2015",
"G c #2d221c",
"H c #2d1f15",
"I c #2a201b",
"J c #2d1e13",
"K c #2b1d14",
"L c #2a1d15",
"M c #2a1c12",
"N c #291b13",
"O c #291b10",
"P c #291a10",
"Q c #281b13",
"R c #271a11",
"S c #271911",
"T c #241a14",
"U c #261910",
"V c #25180f",
"W c #24170f",
"X c #23160d",
"Y c #211711",
"Z c #22150c",
"a c #1e130c",
"b c #180f0a",
"c c #150c07",
"d c #100b06",
"URRRRRRQNNNNNMMMMMMMMMMMMMMMNNNQRRRRRRRU",
"RMJJJORQNNNNNMMKJJFFJJJMMMMMMNNQRROJJJMS",
"OF88BJORNNNNMKKMJC99CBBJKKKMNMNQQNJ848HQ",
"RB448JQRNNNNMJB884448848BFJKMMNNNNH434BQ",
"RD448JRQNNNNKF322222232223EKMMNNNNH544DR",
"UMFBJMRQNMMKKF322222222223EKMMQNNRMFBBMU",
"VUQRRRRQOMMKKKB44444444448JKKMNNNQHAAHPV",
"VQMNLLKHFFFHFFFBB888888BBBFFFFHMNE4334FU",
"QE6666644444444444444444444444AHL422224Q",
"NA444443446888844444444444888AAKK322223L",
"QE6A64446BHJHFFCB89999CBBCFHJJKNK422224Q",
"SNKKKHHFHKMMJJDDCBCCCCCBDDJJMMNNNE3333FU",
"VVURRRRNNNMMHJDBCCC9CCCBBDJJMMNNNQHAAKUV",
"VVUURRRQNNMMJDDBBC9999CCCBDJMMNNNRUUUUVV",
"VVUURRRQNNMJJDCBB999999CCBDJJMONNRUUUUVV",
"WVUUURRRNNMJJDBCC998899CBBDJJMORRRRUUUVV",
"WVUUUURRNNMJDDBC99999599CCCJJMORRRUUUUVW",
"WWVUUUURQNMJDBBC959995599CCDJMOQRRUUUVWW",
"WWVVUUUROOMJDCC9999555959CBDJJMORRUUVWWW",
"WWVVVVUROMJDDC999955559599CDJJOORRVVVWWW",
"XXWVVURROMJJDC999555555999CDDJMORRUVVWWX",
"XXWVVURRNMJDCC995555555999CDDJOOPRUVVWXX",
"ZXWVVURROMJDC9995555555599CCDJJOPRVVVWXZ",
"ZXWVVURPOMJDC99855555555999CDDJOPRUVVWXZ",
"ZXWVVVPPOMDDC99955555555599CDDJOPPVVVWWZ",
"ZXWWVVUPOJDDC99955555555599CDJJOPUVVWWXZ",
"ZZXWVVVPOJDC999555555555599CDDJOPVVVWXZZ",
"ZZXWVVVPOJDD9995555555555999CDJOPVVWWXZZ",
"ZZXWVVUPOJDDC995955555598999CDJOPUVWXXXZ",
"ZXXVUOOMMJJDCCCCCCCCCCCCCCDDJJMMRRUUWXXZ",
"ZZXUMFFFFHJDBBFFJFBBBFJJFFFFKKMHHHKQVXXZ",
"ZZWOFA6AABDA66AEFFA6AEHHEAAAFKFAAAENUXZZ",
"ZZWOF666AEBA666AFE666AFFA666EHE666GLUXZZ",
"ZZXOF666GEFA666GFEA66GHHE666GKF666GLVXZZ",
"ZZXOFA6GGHHEAGGGHHEGGGLKEGGGINHGGGGNVXZZ",
"ZZXPJFIIIHHHEIILKKHIIILMLIIILQMLIILRVXZZ",
"ZZXPJHHKKKJHHHKKKMKKKKMMMKKNNNNNNNNRVXZZ",
"ZZXPFBAEEFDEAAEFJFEEEFJJFEEEHMHEEEHNVXZZ",
"ZZXOF6666EFA666EJF666AHHA666FKFA66GNVXZZ",
"ZZXOF6666FFA666EHE666GHHA666IKF666GNVXZZ",
"ZZWOFA66GFHE66GGHFA66GHHE66GIMHG6GGNVXZZ",
"ZZWPJEGIIHHFEGIIKHGGIILMHGIILQMIIIINVXZZ",
"ZZWPMHLMNMMMLNQNOMKLQQRPNQQQRRRQQQQRWXZZ",
"ZZXUJFFHHMJB588CMMHHLKNOKKLLNRNLLLNUWZZZ",
"ZZXPHAAAGHB42324CFA6AAHMFAAGLRJEGGIQWZZZ",
"ZZXPFA66GHB224328STIITYKEAGGLRHGGGGQWZZZ",
"ZZZUHAGGGKB23A42J200002YEGGGLSLGGGIQXZZZ",
"ZZZUHEGIILD4244520000005TIIIQUNIIIIRXZZa",
"aZZVRQQTTRK9545W00000002bTTYWXWQQQQVXZZa",
"aZaO888A8444444600000002A446AAAAABBFRZaa",
"aaV444444433322300000000323344448AEEAUaa",
"aaB4888444443323200020023334444AAEEEEHaa",
"aaB4888444443332200000022344446AAEEFFFaa",
"aaB4888844444333222222223444446AEFFFFHaa",
"bbE888884444443432332223444446AAEFFFFHaa",
"bbE88888844444222222222223446AAEHHHHHKbb",
"bbE888888BJ84453344344444A4AAAEHHHHHHLbb",
"bbE88888J20443034224344A3232AFAHHKKKHNbb",
"bcF88AB8Z0000000000200000000002XFKKLKQbb",
"bcF8BBBAO2222222222200002202203RKKLLKQbb",
"bcHBBBEEENHNNKHWKFBHSJMVSMXXXaQLLLNNKQcb",
"bcLBBFFEEEEEEAY24IT42TL42YFHHHLLNNNNMRcb",
"bcLEEEEEFFFFFN200520025002QKLLNNNNNQNRcb",
"bcLEEEFFFFFHFY200C2005D002YKNNNNNQQQNRcb",
"bcLEFFFKKHKKJT522RC22DR225YQQRSSRQRRRUcb",
"bcLEHHH64AAAAEAIGFEIIAEIIHEEEEAAHSRURScb",
"bcQFHHL32232233222322222232222224WUUUWcb",
"ccQFHHOVVUVVVVVVVPXXXXXXZXXZXWVWVUVVVWcc",
"ccQHLP7777777777777777777777TXTVVVWWWWcc",
"ccTLP111111111111111111111111IYYWWWWWWcc",
"ccTM71111111111111111111111117ZTYYYYYYcc",
"ccTP71111111111111111111111117YYYYYYYZcc",
"cdTR71111111111111111111111117YYYYYYZZcc",
"cdTQ71111111111111111111111117YYYYYYaZdc",
"ddTIT7111111111111111111111117YYaaYYaZdc",
"ddWTIT7777777777777777777777ITTYYXaaaadc",
"cdWTT7777777777777777777777776GGAAIaaadc",
"ccYTL66666666666676666667666GGGGGG6Yaadc",
"ccYWQ66666666666I202202IAGGGGGGGGGGYbacc",
"ccYWQ666A66AAAAAG64644AGGGGGGGGGGGGYbacc",
"ccXWWA66666666666AEAEEAAAGGGGGGGGGIababc",
"cbXYYYTQTTTTTTTTTTTTTTTYYYYYYYYYYYabbabb",
"ccaTYYYYYYYaaaaaaaaaaabbbbbbbbbbbbbbabbb",
"cbbaYYYYYYYYYYYYYYYYYYYYYYYYYYaaaaaabbbc",
"ccbccccccdccddddccccccccddddccdccccccbbc",
"cccdddddddddddddddddddddddddddddddddddcc"
};
