/* XPM */
static char * review[] = {
"40 86 40 1",
"0 c #9f6f48",
"1 c #656264",
"2 c #584030",
"3 c #40352d",
"4 c #422c19",
"5 c #3f2a18",
"6 c #3a291c",
"7 c #322b2b",
"8 c #2f2727",
"9 c #352416",
"A c #302116",
"B c #2c2221",
"C c #2d1f14",
"D c #2b1c13",
"E c #261f20",
"F c #271c15",
"G c #261b13",
"H c #271a11",
"I c #231913",
"J c #231711",
"K c #24170e",
"L c #201710",
"M c #1f160f",
"N c #1f150e",
"O c #1f140d",
"P c #1d130d",
"Q c #1b140f",
"R c #1b120c",
"S c #1b110a",
"T c #17110c",
"U c #18100a",
"V c #170e09",
"W c #150d07",
"X c #120c07",
"Y c #110b07",
"Z c #100a06",
"a c #0e0905",
"b c #0c0805",
"c c #0b0704",
"d c #080401",
"LMMMLJJIIIGGGGGGFFFFFFFFFGGGGGIIIJJLLNML",
"MIAACJJIIIGGGGFFFFFFFFFFFDGGGGIIIJJCCAIM",
"M9AD9CLIIGGGGGFCC444654GCCGGGGGIILC6699M",
"ID229CLJIGGGGGGOSKKCCDKGOOGGGGGIJLD402CI",
"LA339CLIIGGGHB012121102122CHGGGIJLA923AL",
"OCAC9HLIIGGGHB110101211111DGGGGIJLG9DACN",
"MMLILLJGGGGFDFKKKHHHCKHHHCFDFGGIIJSRMRON",
"MPURPSOOMJNJKHHGDACDDCDFGKHJKIGIGP3113RL",
"R32633632633233336222323323326LGMB11218S",
"Q6336333322323322643363433663AJGS311212V",
"Q32363233226322226CAAACCCHDHKHGGO711113U",
"MMPPMOOMJNJIHDCCA9996999AAACDGGIIO3113PM",
"MMLLIJIGGGGDCAA9999999999AACDGGIJJRIFSNM",
"MMMLLJJHIGGDCAA99996699999ACDGGIIJLNPMNM",
"NMMLLJJIIHGDCA999966669999ACDGIIIJLLLMMN",
"NNMLLJJJIHDCAA999666666999AACGGIJJLLLMNN",
"NNNMLLJIHHDCCA999666666999ACCDHJJJLLMMNM",
"QNMMLLJJJHFCA99966666666999ACDHKJJLLMNMQ",
"QQNMMMLJJHDCA99955555556999ACDHJJLMMMNNQ",
"NQNNNNLKJHDCA99955555556999ACDHJJJMOPNQQ",
"QQPNMNJJHHDC9995545445556999ACDHJJMNNPQQ",
"QRPONLJKHHCA9996554444555699ACDHKJMONPPQ",
"RQPONLKKHDCA9965555555555699ACDHKKLNNPPR",
"RPPNMNKJHDC99955555555555999ACDHJJMNNPPR",
"RRPOONKKHDCA9955555555555599ACDHKLMONPPR",
"RPPPPONKHDCA9955444444445599ACDHKMNPPPPR",
"RRPPPONKHDC995544444444445599CDHKKOPPRRR",
"SRRPPONKHDC995554444444445599CDHKNNPPSRS",
"SSPPPOOKHDA995444444444444559ADHKNOSPPSR",
"RRRSJHHHDCCAA9999999999999AACCDHJKJNRRRS",
"RRUJCAACCCDDCDDGHGFFFGHHHHGGHHHHHHHINSRS",
"RSSHA3377AD63778DA3777CD7377BKA3778JJSSS",
"SSSH93777BC77778C93777AD77778HB7778GNSSS",
"UUUJA7777BD87788DA7788CH8788BKA7788FNSUU",
"UUUHA7777BH87778HC7777EK8787BKF7778INSUU",
"UUUHCBEEEFDCEEEEDDEEEEFHEEEEFHGEEEEJNSUU",
"UUUJCDFIIDDHKHHH8887788BJPOROHJRTRPKMSUU",
"USSKB2223BD6688B8722227E52324JH4224FOSSU",
"SSSI611116F737788301013E20100QD00005TSSS",
"SSSI611117F877787211113E20111O81dJ16SSSS",
"SSSI611117F877787211113E20212KF13219SSSS",
"SSUI821128DB888B8721127E20200PK21209RSSS",
"SSSJAEEIEFDHJJLJ88877788GCECFKMKOKJNOSSS",
"SSSJC96BADHCACCDEB7377BEE778FINRTTQNOSSS",
"SSSJ900105K73778K600006I21112L92222HRSSS",
"SSSM900004N77778J300003E03E20Q40002CSPSS",
"SSSM900104N87788J401103E02220Q40000ASPSS",
"SSSM900104NB7788N601106E21112Q40200ASPSS",
"SSSKD5BB5HHFEEFIJG6776II33323M92222JPSSS",
"SSSKDTVUTKHHKKKKHKTTQUNIIIIQQJRYZbXOPSSS",
"SSSKC22229KB788BKC22229T52224T92222NPSSS",
"UUUL900004P77778O500104Y20000W31200JRSUU",
"UUUL900104P87888O611104Y31112V20120JRUUU",
"VUUL900104PB7888N922104Y20002Y20020HUUVV",
"UVVJH2232CNFEEEENH2222CV40002Y40022OSUVV",
"VVVJJVYUVNHMNPPOKOVVVVPMRTTVTNRVTTURPVVV",
"WVWKG6465DHCAAACJHAACCJKCAFFIPJFFFIRPWWV",
"WWWNA00104O73778OF3777GP7377BSF3778MRWWV",
"WWWP901104U8788BNF7788IR8788EVF7888QUWWW",
"WXWRA01104VB788BOG8888ISB888EVI7888QUWWX",
"XXXRD02329VB888BRI8888ISB888EVI888BQUXYX",
"XYZRPKLQJRPQQQQQRQQQQQTUQQQTTUTQQQTTTZYX",
"XYZYRRTRRPNMMNNMNPOMLOOMLNOMQRRUUUTTYZYX",
"YYZaaYYXWW612222A613223232222CVXYXZaaZYY",
"YYZZZaZZZWQMNPNMPLJPOLLLPRNPLMWZZaaZZZYY",
"YYYZZZZYXXXYXWWWVVVUVVWWWWXXZYXYYYZZZYYZ",
"ZYYZZZYYXWWWVVVVSSSSSSSUUVVVWWWXXYZZZYYZ",
"ZZZZZYYXXWWWVVVVSSSSSSSSUVVVWWWXYYYZZZZZ",
"aaZZZZYYXXXWWVVVVSSSSSSVVVWWWWXXYYZZZZaa",
"baaZZZYYXXXWWWWVVVVVUVVVVWWWWWXXYYZZZaab",
"bbaaaZZYXXXWWWWWWVVVVVVWWWWWWXXXYZZaaaab",
"bbbaaaZYZXXWWWWWWWWWWWWWWWWWWXXYZaaaabbb",
"cccbbbbaYYXXWWWWWWWWWWWWWWWWXXYZabbbbbcc",
"bcbcccbbaZYYYXXXXWWWWWWXXXXYYZZabbbcbbcb",
"bbcbbbbbbaaZZYYYXXXXXXXXXYYYZZabbbbbccbb",
"bbbccbbbbaaZZYYYYXXXXXXYYYZZZaabbbcccbbb",
"bbbbcccbbbaZZZZYYYYYXYYZZZZZZbbbbcccbbbb",
"cbbbbcccccbaaaaaZZZZZZZZZaaabbcccccbbbbc",
"ccdccdddccccbccbbbbbbbcbbcccccccccdccccc",
"ccXWWWWWYcccbaacabbccaZcbZZbcccaWWWWWWac",
"dXUUUUTXA37636636333369336B3333AWUUUUUTa",
"dXVUUUUWI6333633833338833BB33633XUUUUVUZ",
"dXVUUUUUWZZZaZXTQTTTTT73TVXaaZaYUUUUUVUZ",
"dXUUUUUUUTTTTUUUUUUUUUWWUUUTUTUTUUUUUUTb",
"dcYXXXXXXXXXXXXXXXXXXXXXXXXXXXXXXXXXXXad",
"dddddddddddddddddddddddddddddddddddddddd"
};
