/* XPM */
static char * review[] = {
"40 86 40 1",
"0 c #98764f",
"1 c #6a523e",
"2 c #513d2e",
"3 c #422e1d",
"4 c #3c3028",
"5 c #342d2c",
"6 c #3e2919",
"7 c #372619",
"8 c #2f292b",
"9 c #2c272a",
"A c #2f2622",
"B c #322216",
"C c #2f1f14",
"D c #2c1f18",
"E c #2a1c13",
"F c #291a12",
"G c #261b13",
"H c #231b17",
"I c #251911",
"J c #241811",
"K c #24160f",
"L c #211610",
"M c #1f1610",
"N c #1f150f",
"O c #1f140d",
"P c #1d130d",
"Q c #1c130c",
"R c #1b1109",
"S c #18120e",
"T c #1a1009",
"U c #160f0b",
"V c #170d08",
"W c #150c08",
"X c #120c08",
"Y c #130b07",
"Z c #100b07",
"a c #0f0a06",
"b c #0e0905",
"c c #0c0805",
"d c #090603",
"LNONMJJHHGGGFFFFEEEEEEEEEFFFGGIGHJJLMNMM",
"MIBBDJJHGIGGFFFEEFEEGGEEEFFFGGIIGJJDDDIM",
"M7CE7DLHIIGGFFEED332633GDEFFGGGIILD77BBM",
"IC217CMIIGGFFEFKPKFKIFBKRKEFFGGIJLE302CJ",
"LC227CMIIGGFEO111111211212JEFGGIJMC724CL",
"NCCCBILIIGGFEJ200100021101LEFGGIJLG7CBDN",
"MMLJMMJGGGFEEEIDCIIE4EEIBFEEEEGIIJVQPVNN",
"MPUSPPNONOOKKKFFFEECFEEEKIIKKLMIGR2002TM",
"P424427222242262222222212242224IO700004T",
"OA44424224474476444334642474447GV100001Y",
"P42442222ILIIFEDCCCBBCBCEEEJJKKGP400002V",
"MNQNNNNLKFFFECBBB777777BBBCEEEFIIQ2001SM",
"MMLLJHIIGGGEDCBB77777777BBCEEGGIJLTGHUNM",
"MMMMLLLIIIGECCB777777777BBCCEFGIJLJNPMNM",
"NMMMLJJJIIFECCB7777777777BBCEFIIJJLJMMMN",
"NNMMMJLJIIFECBB7776667777BBCDEIIJLLLMMNN",
"NNMMLLLJIIECCBB7776666777BBCEFIJJLLLMMNN",
"PNMMLLLLJIECCB777666666777BBCEIJLLLLMNNP",
"PPNMMOLKJIECBB777666666677BBCEGJKLMMMNNP",
"PPNNNOKKJIECBB776666666677BBCEFJKKMNNNPP",
"PPPOOOLJIFECB77666633666777BCCEIKLOONPPP",
"PQPOOLLKIFCBB77666333366777BBCEIKKOONNQP",
"QPPONLLKIECBB77666666666677BBCEIKKLONNQQ",
"QPPNNKKJIECBB76666666666677BBCEIJKOONPPP",
"QQNOOKKKIECBB76666666666667BBCEIKKLONNPQ",
"QPPOOOKKIECB7766636363366677BCEIKKOOPPPQ",
"QQPPOOKKIECB7666333333336667BCEIKKOOPPQQ",
"QQPPOOKKIECB7666633333366667BCEFKKOOPQQQ",
"SQPQQOOKIECB7663333333333667BCCFKOOQPPQQ",
"QQPQKIIFEECCBBB777777777BBBCCCEFJKKOQQQQ",
"TQTLCCDDCEEEEEEGGGEEGGIIGGFFIIJIIIIIORQQ",
"QTRIB4555DE4455AEB4455DF4455AID455AILRQQ",
"QTRI74555AC45558C75588DE5585AFA5588GORQQ",
"TTTIB5888DEA5889FD5888DFA888AKD5899GOTTT",
"TTTIB5888DFA5889FD5888DKA888AKD8888GOTTT",
"TTTIDDDHHGEDDHHHFEDHHHGFHHHHHIGHHHHJOTTT",
"TTTICEFKIECFIIKIEFKKKKFFKKKKKIKOOKKKOTST",
"UTRJB44AACE74AAAFDAAAAEFAAAADKEAAAAJORRT",
"TTRJB4555DF4555AFB4555DF4555AKD4558IORRT",
"RRRJB5588DFA5889FD5888DI8588AKD5889GORRT",
"RRRJB5888DFA5889FD5888DIA888AKD8889GORRT",
"RRRJC9999DFD999AFD9999HIA999DKG9999JORRR",
"RRTJCILLLGEIJLLJFFLLMMIILMMNLKLNPNNLORRR",
"RRTJCBCDCEFGFCFGFFDDDDIIEEEEGKJEFEEKORRR",
"RRRKB4555DO10101LC4555EJ4455AOD5558JORRR",
"RRRJB5588DR01S20KD5888DK5588AOD5888HORRR",
"RRTJB5898DR04d91KD5899DKA899DOD8999HQRRR",
"RRTJC5888DP10101OD8888DKA898AOH8999JQRRR",
"RRTIEHHHHGILKFKMKJHHHHJKHHHHJKLHHHHMORRR",
"RRTICKQSQIIJHHMLJIIJKKJJOUUVQLOUXYUOQRRR",
"RRTIF22227J22224LIMSSMJP61213QI2112GQRRR",
"TTTJF10002M10101MIZccZLT20001WC01106URTT",
"TTTJJ20112J11811LLUZZULR50001TA1dN0ATRTT",
"UTTJI12213M10111MKSUUSLQ30001UF0111BUTTT",
"UVVJI21216S22213MLSSSSNT30102UK2111ESTUU",
"VVVJIPPKPNINSMSMKLOPOPNLQTQUUORUVVXSPUVV",
"VVVIFDDDDEJC666CKIDDDDJKDDDDIOLHHHHQQVVV",
"WWVMD4555DR10101QE5555HN5555DRD4558NQVWW",
"WWWOE5899DV15d90RG5899HPA899HVH5999NTWWW",
"WWWOF8999HY01H20RH8999HRA899HVH8999PTWWW",
"XXXPJ9999HV21112UL9999HTA999HVL9999SUXZX",
"XZaQNMMSMPQUZXZXTQSSSSSSSSSSSTSSSSSUUaZX",
"XZaZQPPOPPPNNNNLONQQONNNNOPPSTQSUUUUZaZX",
"ZZabbZXXXXVT212111G214122114TVYXZXZbbaZZ",
"ZZaaabaaZZYTOMNNMLPLMPMMPNMNUYaaaabaaaZZ",
"ZZZaaaZYYWWYYYVVVVTVVTVVVVYYWWYYYZaaaZZZ",
"aZZaaaZYYWWVVVTTTRRRRRRTTTVVVVWYYZaaaZZa",
"aaaaaZZXYWWVVVTTRRRRRRRRTTVVVWWXZZZaaaaa",
"bbaaaaZXXWWVVVVVTTRRRRRTTUVVWWYXZZaaaabb",
"cbbaaaZXXXYWVVVVVTTTTTVUUVVWWWYXXZaaabbc",
"ccbbbaaZXXXYWWVVVVVVVVVVVWWWXXXXZZabbbbc",
"cccbbbaZZXXXWWWVVVVVVVVVVWWWXXXZZabbbccc",
"cccccccbZZXXXWWWVVVVVVVVWWXXXXZZaccccccc",
"ccccccccbaZZZXXYYWWWWWWYYYXZZZabcccccccc",
"ccccccccbbbaZZZYYYYYYYYYYYZZaabbcccccccc",
"cccccccccbbaaZZZZXYYYXXZZZZaaabccccccccc",
"ccccccccccbaaaaZZZYYYZZZZaaaaccccccccccc",
"cccccccccccbbbbbaaaaaaaaabbbcccccccccccc",
"cdddcddddddccccccccccccccccccddddcddcddc",
"ddXbdadbbccdcXbcacabbcbccbabddccbdbcdXad",
"dXU44D44A4444G24A2D4447444A44444A4A42LUb",
"dXVD4D4AAA444E44A452444444AA444244A44MWZ",
"dXVYbYbYYYabbWYSSX55UWUWWVYYbbabYbYbbWUa",
"dZUUSUSUUSSSSUSUUUYYUUUUUUUUSSSSUSUSSUUb",
"ddZXZXXXXZZXZXXXXXXXXXXXXXZXZXXXXZXZXXad",
"dddddddddddddddddddddddddddddddddddddddd"
};
