/* XPM */
static char * review[] = {
"40 86 40 1",
"0 c #80613e",
"1 c #503d2d",
"2 c #49301e",
"3 c #3f3024",
"4 c #442c1c",
"5 c #412b1b",
"6 c #412a1b",
"7 c #3e2a1b",
"8 c #3d281a",
"9 c #39291b",
"A c #3b2618",
"B c #372518",
"C c #352518",
"D c #342216",
"E c #332014",
"F c #2f2117",
"G c #2e1f14",
"H c #2c1e13",
"I c #2b1c11",
"J c #281b13",
"K c #261b12",
"L c #281a10",
"M c #261910",
"N c #231911",
"O c #24170d",
"P c #211610",
"Q c #22150c",
"R c #1f1610",
"S c #1e140e",
"T c #1e130c",
"U c #1d120b",
"V c #1a110b",
"W c #190f0a",
"X c #160d08",
"Y c #130d08",
"Z c #110c08",
"a c #100b07",
"b c #0f0906",
"c c #0c0805",
"d c #090603",
"PRSRRNNNNNKKJJJJJJJJJJJJJJJJKKNNNNNPRSRR",
"RNFFGNNNNNKKJJJJJJJJJJJJJJJJKKNNNNNHGFNR",
"RCEIBHPNNKKJJKJHH522727JHHHJKKKNNPH99ECR",
"NH10BGRNNKKJJHFQUFFIQOHKQUUJJKKNNPH501GN",
"NE31BGRNNKKJP00011001010001KJKKNNRFB13EP",
"SHGHDMPNNKKHT10001000010000JJJKNNPJCIDHR",
"RRNNRRNKKKJJHJJOMHJLLMGMMQPHJKKNNOWWRWSR",
"RSVVVSSTPSOKOOMJIHIGHIIHKKMOMJKNKV1001WP",
"S3113313311911111113111113119NKKU100001X",
"SC13131331331131111331333933FNKJY000000b",
"T311111311113131113GDGGGHHJMKJKKU100001Y",
"RSURSRSNPPPNJIGGGECBBCCCDFFHJKKMMV0000VR",
"RRRPNNNNKJJHHFFDCBBBBBCCCFGHJKKMNNWJFXRR",
"RRRRPNNNNMKHGGFCCBBAABBCCDFHHJKMNONSTRRR",
"RRRRPNNNNMJHGGDCBB999ABBCDFGHJMNNNPPRRRR",
"RRRRRNPNNMJHGDCCB99999ABCCFFGJMNNNPPRRRR",
"RRRRPPPNNMIHGDCCB98888ABCDDGHJMNNNPPRRRR",
"SRRRPPPNNMIGGDCBA988888ABCDEHILNNNPPRRRS",
"SSRRRQOOMLIGDDCBA8777788ACCEGHKMOPRRRRRS",
"SSRSSQOOMLHGEDBAA877778AABCEGHJMOORSSSSS",
"SSSSQQOMMJHGECB877555778ABDDGHIMONQQSSSS",
"SVSSQPPOMIGEDBA875555578AABDEGIMOOQTSSUS",
"VSSSRPOOLIGEDBA8755555578ABDEGIMOOOQSSUV",
"VSSRRQOMLIGEDBA8555555758ABDEGIMMOQQRSSS",
"VUSSSQOOLHGEDA87566666557AADEGILOOPTSSSV",
"VSSSTQOMLIGECA855444444557ABEEILMOQTSSUV",
"VUSSTQOOLHEDA85444444444458ADEHLMOQTSSUV",
"VSSSTQOMLHEBA74444444444458ADEHLMOQTSSSV",
"SSSTTQQOLGEBA64444444444458ABEGIOQQTSSSU",
"UUSUTQQMIEDAA644444444444458AEEIMQQTUTTV",
"UUUTTMHFDBA87555555555555688BCDEHJOTUUUV",
"VUUTM99779AAA88888AAAAA9BBBCCCDDFDFNTUUU",
"VUUTC23422222222222222222222225879BGTTUV",
"VUTSA279222244455556677888876657CJGGQTUV",
"VUTTA2449BBBBCCCCCCCDDDDDDDDDDDC911FQTUV",
"VUQQA22AC96456666676888888AAA9CF0F90UQUV",
"VTQQA22A974445554466677788888ABM0131UQTV",
"UQQQ822A742444444445676677788AA1C11FQQTV",
"UQOQ622A744444422444245677888D10IDEGOQQU",
"UQOO622B544444422452227437787G01H48DOOQU",
"UQOO522B54444443327333753378B50AD7ADOOQU",
"UQOO522C6444555544754787538AH00JB7AEMOQU",
"UOOM424D64444445672121777889D02GD8AEOOQU",
"UQOL424C5544444446211185687D20GBE8AEOOQU",
"UQQI226D65444544424000BB8A8H01IBD8ADOOQU",
"UQQE126D654555554A00J10222A60ADCFAACLOQU",
"UOQD146D86565664D1088G2000K10MBDGAAALQQU",
"UQTA14394634545B202B57F200601FDDGAB8IQQU",
"UQU512795733333D01F58878E10031BDFBB6IQQU",
"UQW21439973335901G5988AA8J41119FGBD4ETQU",
"UQW11A9DB9356D00H798ABBCCCIA24DFIDE2ETQU",
"UQX107CD7877300B8878ABBBB33DGFEC33E2DUQU",
"VQX107DD87G1007D8AAABBBD3113FCG331C2AVQU",
"VQX01C7DDD00129BAABBBCCCC9CCDDFFFCJ7BVTV",
"VTX01F39200BIDDDBCCCDDDDDECFEDGFFJN9BVUV",
"WUX01HDC11DA9CBAAABBBCCCCCCCCCFFFFN44XUW",
"WUb021098522444457577777AC99CCFFFJV22YUW",
"WUa113138224578ABCBBCCCDCDDFDDFHJHHAEWWW",
"XWXE8KFJJGEGGHHGDDDEEEEGLLLMMMNPPNPMQWWX",
"XUXIAMLLIHIHIIIHGGHHHIHILMMMMOOQRRSOUWWX",
"XWWWMLMLLMLMMMMMMMLMMNNNPPPPRSSSSSSTWXXX",
"XXXWVOKJJJJJIIIILLILLLLJMMMMNPPPPSSVWXXX",
"YYXXWWTQOOOOLIIIEEEEEEEEGIILOOOQQTVWXXXY",
"ZZYXXWWUUTQQOLLIIIIGGGIIIIOOQQQTUVWXXXYZ",
"ZZZXXWWVUTQQOOLIIIIIIIIIILOOOQTUVVWXXYZZ",
"ZaZZYXWWVUUQQOOMLIIIIIILLOQQQTUVWWXXYZZZ",
"aZaaaYXXWVUTTQQOOLLLLLLOOQQTUUVWXXYYZaaa",
"aaZaZaYXXXWVVUUTQQOOOOQQQUUUVWWXXYZaaZZa",
"bbZZZZYYXXXWWVVUUQQQQQQTUUVWWXXXYYZZZZbb",
"bbbaaaZYXXXWWWWVUUUTTUUVVWWWWWXYYZaaabbb",
"cbbbbaaYYYYXXXWWWWWWWWWWWWXXXXYYZZabbbbc",
"cccbbbaZZYYYXXXXWWWWWWWXXXXXXYYZZabbbbbc",
"cccbbbbbZZYYYXXXXXXXXXXXXXYYYYZZabbbbccc",
"ccccccbbbaZZZYYXXXXXXXXXXXYZZZabbbcccccc",
"cccccccbbbbaZZZXXXXXXXXXXYZZaabbbccccccc",
"cccccccccbbbaaZZZZYXXZZZZaaabbbccccccccc",
"cccccccccccbbbbaaaaaZaaaabbbbccccccccccc",
"ccccccccccccbbbbbbbbbbbbbbbbcccccccccccc",
"ccddcdddddddccccccccccccccccdddddcddcddc",
"ddZbdbccbdbcbbcbZccbaaccbbacccbbcccbdabd",
"dYX31933C393C333F13CHC9339C3339F933F3KYb",
"dYXJ3C33F393311111111111111133FC939C3RYa",
"dYWXbabbYbabX33933F3333F133RcbaYabbabXWb",
"dZWWVWVVWVWVWbZ13XVXWXXVXXbYVVVWVVVWVWWb",
"ddaZZZZZZZZZZYYaZYYYYYYZYYYZZZZZZZZZZZbd",
"dddddddddddddddddddddddddddddddddddddddd"
};
