/* XPM */
static char * review[] = {
"40 86 40 1",
"0 c #a3784d",
"1 c #8c5d34",
"2 c #645548",
"3 c #4f3927",
"4 c #372e2b",
"5 c #402a19",
"6 c #392718",
"7 c #322825",
"8 c #2c282a",
"9 c #352416",
"A c #322115",
"B c #2d211a",
"C c #2d1f16",
"D c #2c1e14",
"E c #2a1c12",
"F c #261e1b",
"G c #261b13",
"H c #261a12",
"I c #251911",
"J c #221811",
"K c #23170f",
"L c #211610",
"M c #1f1610",
"N c #1f150f",
"O c #1f140d",
"P c #1e120c",
"Q c #1b120d",
"R c #1a110a",
"S c #1a100a",
"T c #180f0a",
"U c #15100b",
"V c #180e0a",
"W c #160d09",
"X c #150c08",
"Y c #110c08",
"Z c #100b07",
"a c #100a06",
"b c #0e0905",
"c c #0c0804",
"d c #080502",
"LNONMJJGGHGHGGGGEEEEEEEEEGGGGGIHGJJLMNMM",
"MICACJJGHIGHGGGEGGEEGGGEEGGGGGIIHJJDCBIM",
"M9AE6CLGIHGGHEDDD533655EDDDDGGGIILD66A9M",
"ID329CMIIGHECKPPOEDKICCSPPPPGGGIJLD503DI",
"JA339CMIIGHI2222220232322222CHGIJMC923AJ",
"NDAD9ILIIGEO2202220032202002IGGIJLG9DADN",
"MMMJMMJIIGHEHKKKIEIKEDDKKOOKGGGIIKRQNQNN",
"MNNMMJJIGIHGDDDCCCCAAACBCDDDGGGIGO4224QM",
"MHJLLJJJIEHDGEDCCA99AAACCDEEHHGGOB02207R",
"Q3232432423333232332332233323DIGP302223W",
"MJHGGGEDGEDDCA99666666669ABBCEHGO722224S",
"MMMMLLKKIIIHEDCAA999999AACDDGGHIIO3223QN",
"MMMLJJJIIHHEDCA9969666999ACDEHHIJKQGGQNM",
"MMMMJKKIIIHDDAA9966666999ACDDGHIJKJNNMNM",
"NMMMLJJJIIGDCA996666666699ACDGIIJKLLMMMN",
"NNMMMJJKIIEDCA996666666699ACCEIIJKJLMMNN",
"NNMMLLJKIIEDCA996666666699ACDEIJJKLLMMNN",
"NNMMLLJKIHEDA99966666666699ADEHKKKLLMNNN",
"NNNMMOKKIHEDA99666555566699ACDGIKLMMMNNN",
"NNNNNOKKIHDCA96666555566669ACDGIKKMNNNNN",
"QQQOOOKIIGDCA96655555556669AADEIKKOONNQQ",
"QQNOOLKKIEDAA96655555555669AADEIKKOONNQQ",
"QONONLKKHEDA9666555555556699ADEIKKKONNQQ",
"QQPNNKKIHEDA9665555555555699ADEIIKOONNQQ",
"QQNOOKKKIECA9665555555555669ADEHKKLONNQQ",
"QPPOOOKKIEDA9665555555555569ADEIKKOOOPQQ",
"QQPPOOKKIEAA9655555555555566AAEHKKOOPQQQ",
"QQPPOOKKIEA96655555555555566AAEHKKOOPQQQ",
"QQPPPOOKIEA965555555555555569ADEKOOPPPQQ",
"QQQRKIIHEDDAA9999999999999AACDEHIKKOPQQQ",
"SQSKDCCCDDEILKLJGGGGGGHIHHHHHIIHIHIIORQQ",
"QRRHA4444BI31213HA4444CE4444BIB4447ILRQQ",
"QRRI94448BK12821EB4488BE44847HB4488GORQQ",
"SSSIB4888BO14dF1EC4888CH7888BKB4888GORSS",
"SSSIA4888BP10211KD4888FK7888BKC8888GORSS",
"SSSHCBFFFGD9555ADEFFFFGHFFFFFIGFFFFJORSS",
"SSSICHJNOB4744777BKKKKHEKPPQOHJQSPQKORSS",
"TSRID33334533333677777DK63335KC3333KORRS",
"SSRIE10003511111544444BQ31201R50010HORRR",
"RRRKI22223511221544888CR31201Q50210EPRRS",
"RRRKH32223512001547888CQ31222N50210EQRRS",
"RRRIE11113612101677888GP30112O91221JORRR",
"RRRIDGDEEB76555667KLMMIIHA99DKOQTQPOORRR",
"RRRICACEDB7443447BDCCDHIEGGIIKKGGGGKORRR",
"RRRKA4444BK20211OC4444EI4444BOB4447IORRR",
"RRRIA4488BQ10201QB4888FK7488BOB4888GORRR",
"RRRIA4888BP10201QC4888FK7888FOF8888GPRRR",
"RRRKC4888BP10211QC8888FK7888BOG8888JPRRR",
"RRRIDFFFFGIA5B6AKHFFFFIKGFFFJKIFFFFKORRR",
"RRRIEEKKKHEOUSQQIIQSSQKIOVVWRIIKKKKILRRR",
"RRRIC4777CO31123KH3333BQ53333KA31129KPRR",
"SSSKB4448BR10021KH10003Y30001O500003MORS",
"SSSKC4888BP21221OJ22223X42222E500203KOSS",
"TTTKD7888BP31201RH11105Y31101K502223KPST",
"TTWIGF8FFGP51113QK11119W51113N610215MQTT",
"VVWKHOOKNKIQUWWQKOSQQTOKQTUUQIHEEAIJOSVW",
"WWWIHBBBBEICBBBDIHBBCCIKDBCCIOIBBBGOPXWV",
"WWWMC4444CK74447OD4448GO7444BSD4487NSVWW",
"XXXOE4888FP74888OG4888GP7888FTG4888QSWXX",
"XXXOH7888FPB8888OI7888JRB888FTG8888QVXXX",
"YYYPJ8888FPF888FQJ8888JSF888FWJ8888QUYZY",
"YZaQMMMMQQPQMQQQQQQQUQTSQQQUUVTQQQQUUaZY",
"YZaZQOOOPNLNNNNOONPNLOOOOQNNNMQTTUUUZaZY",
"ZZabbZYYW7233227422432322332327WYZZbbaZZ",
"ZZaaabbbZQNNPNMOOJJOOMNLLJONOQQYbabaaaZZ",
"ZZZaaaaaZZaaXXXWTXXSTTWXXXXXaZZZZZaaaZZZ",
"aZaaaaaaYYXXVVTTSRRRRRRSSVVWWXYYZZaaaZZa",
"aaaaaZZZYXXXVVTTSRRRRRRSSVVVWXXYZZZaaaaa",
"bbaaaaZYYYXXWVVVTSRRRRSTTVWWXXYYYZaaaabb",
"cbbaaaZZYYXXXWWVVVTTTTVVVWWXXYYYZZaaabbb",
"cbbbbaaZYYYXXXWWWWWWWWWWWXXXYYYYZZabbbbc",
"cccbbbaZZYYYXXXWWWWWWWWWWXXXYYYZZabbbccc",
"cccbbccbZZYYYXXXWWXWWXWWXXYYYYZZacbbbccc",
"ccccccbbbaZZZYYXXXXXXXXXXXYZZZabcbcccccc",
"cccccbcbcbbaZZZXXXXXXXXXXaZZaabccccccccc",
"ccccccccbbbaaaZZZYXXXYYZZZaaabbccccccccc",
"cccccccccbbbaaaZZZaaYZZZZaaabbcccccccccc",
"cccccccccccbbbbbaaaaaaaaabbbcccccccccccc",
"ccdddddddddddcccbccccccccccddddddddddddc",
"dcYUYYYYYXYYWWWUbcccaccbWWWWXYYYYYYYXYbd",
"dYSVVVVVVVVVTSSX44347744QTSTVVVVVVVVVVUb",
"dYVVVVVVVVVVVTTM4444B744NTTTVVVVVVVVVWUa",
"dYVTTTTTTTTTTVQ28aUWSWWWQNTTTTTTTTTTTVTa",
"dYUUUUUUUUUUUUUaXUUUUUUUUUUUUUUUUUUUUUTb",
"ddZYYYYYYYYYYYYYYYYYYYYYYYYYYYYYYYYYYYbd",
"dddddddddddddddddddddddddddddddddddddddd"
};
