/* XPM */
static char * review[] = {
"40 86 40 1",
"0 c #a58b59",
"1 c #316dbd",
"2 c #5f4634",
"3 c #40434c",
"4 c #483424",
"5 c #3e2e22",
"6 c #392b20",
"7 c #2c2b31",
"8 c #3a2716",
"9 c #37271b",
"A c #372516",
"B c #34261e",
"C c #342317",
"D c #342214",
"E c #31261f",
"F c #31231a",
"G c #312216",
"H c #2f221b",
"I c #2c231f",
"J c #301f13",
"K c #2e1f15",
"L c #2c1f17",
"M c #2d1e13",
"N c #2b1d13",
"O c #2a1c12",
"P c #291c14",
"Q c #291b12",
"R c #291b10",
"S c #281a10",
"T c #271a12",
"U c #241b15",
"V c #26190f",
"W c #251810",
"X c #24170d",
"Y c #23170f",
"Z c #201711",
"a c #21150c",
"b c #1b110c",
"c c #160d08",
"d c #110b06",
"VTTTSTTQQQQPPOOOONNNNNOOOOOOQQQQTTSSSSTV",
"SOMMNRTQQQQPPOONNMJJMMMNNOOOOQQQTTRMMMOT",
"RJCAGMRTQQPONNNNKDAADDGMNNNOPOQQQQMA69MQ",
"RG659MQTQQPPNG99F9966569FGMNOOQQQQL645GQ",
"TG96CMTTQQPPN6424444222245FNOOQQQQL956GR",
"VNGGMOSTQOOOLB4222222222249NPOQQQTOKCGNV",
"VVTTSTTQROONNKF99966966669KNOOPQQQLFFLSW",
"VQPPNNNLKKKGGGGKGCCCCCCGGGGKKMOQPL5446LV",
"QFBBBBBB696666666965565666996FNRN622246Q",
"PB566555555555545696696666999GNRL522225N",
"QF6696666669655559ADDCDCGDKMMNOQN622226Q",
"TNLLMLLKKKKKGCCCACDDDDDGGGMMNOQQQH5445LW",
"WWVTTTTQQQONMJGGDDDDDDDCGJMMNOQQQQLFFLTW",
"WWVVTTTQQQOOMJGGDDDAADDDDGJMNNQQQTVVVVWW",
"WWVVTTTQQQONMJDDDDAAAACDDGJJMORQQTVVVVWW",
"XWVVVTTTQQOMJJDDDAAAAAADDCJJMORRTTTVVVWX",
"XWVVVVTTQQNMJJDDDAAAAAAADDDJMORRTTVVVVWY",
"XXWVVVVTQQNMJDDDAAAAAAAADDDJMORQTTVVVWXY",
"YYWWVVVTRROMJDDDAAA888AACDGJJMORSTVVWWYY",
"YWXWWWVTROMJJDDCAA8888AAADDJJMORSTWWWWYY",
"YYXWWVTTROJJJDCAA888888AAADJJMORSTVWWXYX",
"YYXWWVSSQOMJDDDA8888888AAADJJMRRSTVWWXXY",
"aYXWWVSSROJJDDAA88888888AADDJJMRSTWWWXXa",
"aXXWWVSSROJJDDAA88888888AADDJJMRSSVWWXXa",
"aXXWWVSSROJJDDAA888888888ACDJJMRSSVWWXXa",
"aXXXWVVSRMJJDAAA888888888AADJJMRSVWWXXXa",
"aaXXWWVSRMJJDAA8888888888AADJJMRSVVWXXaa",
"aaXXWVVSRMJJDAA8888888888AADDJMRSVVYXXaa",
"aaXYWVVSRMJJDAAAA888888AAAADDJMRSVVXXXXa",
"aYXVVRROOMJJDDDDDDDDDDDDDDJJJNOOSSVVXXXa",
"aaXVNKKKKMJJGGKGKKGGGKMMKKKKNNNLLLPQWXXa",
"aaXRKBBEHGJFBBEFJGFBEHLMFEEHKNKFEHHPVXaa",
"aaXRGBEEEGGBBEEFKGBEEEKKFBEEHLGBEEINVXaa",
"aaXRGEEEEGKFEEEHLGEEEILLFEEEHNKEEEIPWXaa",
"aaXRKFEEILKGEIIHLLHIIILNHIIILOLHEIHPWXaa",
"aaYSMLILLNLLLLLLLLIIIILNLLLLPPNLLLLOVXaa",
"aaYRMFEIHLMKLLNLHEEEEEILKLKKMNMGCCGNSXaa",
"aaXOF5335BGFFFFHE54244EE95548D844448RVaa",
"aaXP633335GBBBEEE422225B422248522224JVXa",
"aaXP531137HFBEEEE4333256422225422224JVYa",
"aaXP631137HHEEEIE4333256422248523324JVYa",
"aaXQB3333EKLHHIII53334EE444448642225MVYa",
"aaXTLEEEELOOPPPPHE657EIHC966AJD8558DRXYa",
"aaXVJ9668GNNLLLPLE5455EHB666FNJD88DMVXaa",
"aaXS842248JLEEHLL522225B44445G84445JXXaa",
"aaXS822224JHEEELK622225644444952224AWaaa",
"aaaS822224JHIIILW200002F444449522228Xaaa",
"aaaV842448NLIIIZ4000000454344C842228Xaaa",
"aaaWMA9ADRVWUUUc20000002P666FOM9445Jaaaa",
"aaaRC99B999B665H20000002E556BBF99CCKWaaa",
"aaV66666555444442000000044445569FFGGFXba",
"abG6999665554444200220024445566BFGGLFLba",
"abF9999966554444400000044455569BFGGKKLbb",
"bbF999999655544444222244455566BFFKKKKLbb",
"bbF999999965554544444444555669FFGKKKKLbb",
"ccF9CCC9966656422222222224669BFGLLLLKLcb",
"ccG9CCCCCGM96994455454445F9FFFGLLLLLKNcc",
"ccK9CCCCM22565249445456F4242FKFLLNNNLPcc",
"ccKCCCG9X0000000000200002000002aLNNNNPcc",
"ccKCCGGFR2422222222202022222224TNNNNNPcc",
"ccLCGGGGFQLPQLLWNKGKTNOWTOXYaaQNNPPPNTcc",
"ccLFGGGGGFGGGFZ46LT44UL94ZLLLLNNPPPPOTcc",
"ccLHGGGGKKKKGQ200840048002TNPPPPPPPQQTcc",
"ccPFGGKKKKKLGZ200J4004G002ZNPPPPPQQQQTcc",
"ccPLKKKNNLNNMU844SD44JT448WQTTWWTQTTSWcc",
"ccPGLLLB9FFFFGFLHGFLLBGLLLLHHHFFLWTTTWcc",
"ccPKLLN42442244224422222254242426YTWWWcc",
"ccPKLLRVXVVVXVVXXSXXXXXXaXXaXWWYYWYYWWcc",
"ccPLNR7777777777777777777777UXWYYYYYYYcc",
"ccULS311111111111111111111111IYZYYYYYYcc",
"cdUO71111111111111111111111113aZZZZZYYcc",
"cdUS71111111111111111111111113ZZZZZZYadc",
"cdUT71111111111111111111111113ZZZZZZaadc",
"ddUT71111111111111111111111113ZZZZZZaadc",
"ddUUU3111111111111111111111137ZZZZZZaadc",
"ddYUUU7777777777777777777777IUUZZYaZbZdc",
"ddYUUE77777777777777777777777EEHHELbbZdd",
"cdYWP6EEEEEEEEEEE7E6EEEEEIIIIIIHHHEZbZdd",
"cdZYPEEEEEEEEEEEH222222LEIIIIIIIIIIZbbdd",
"ccZYPBEEEEEEEEEEHB6E66FHHHIIIIIIIIIZbbcc",
"ccYYYEBEBBEEEEEEEHHHHHHHHHIIIIIIIILbbbcc",
"ccYYZZUPUUUUUUUUUUUUUUWZZZZZZZZZZZbbbbcc",
"ccbWZZZZZZZbbbbbbbbbbbbbbbbbbbbbbbbbbbcc",
"cccbZZZZZZZZZZZZZZZZZZZZZZZZZZZZbZbbbccc",
"dccccccccdddddddddddddddddddccdccccccccc",
"ddddddddddddddddddddddddddddddddddddddcd"
};
