/* XPM */
static char * review[] = {
"42 61 40 1",
"0 c #c48c46",
"1 c #b07542",
"2 c #a86835",
"3 c #886143",
"4 c #8f562f",
"5 c #87512e",
"6 c #824e2b",
"7 c #6f4f38",
"8 c #7b4828",
"9 c #6e452b",
"A c #6f4020",
"B c #5b3820",
"C c #483121",
"D c #322926",
"E c #331f11",
"F c #291d15",
"G c #29180d",
"H c #251710",
"I c #231911",
"J c #231610",
"K c #23160e",
"L c #23150d",
"M c #21160f",
"N c #21140d",
"O c #20170f",
"P c #1e150e",
"Q c #1c150f",
"R c #1d140d",
"S c #1f130c",
"T c #1f110a",
"U c #1c110b",
"V c #191009",
"W c #130d09",
"X c #120c08",
"Y c #130b07",
"Z c #0f0a06",
"a c #0e0905",
"b c #0c0804",
"c c #0b0704",
"d c #090603",
"JMHMJJJJJJJJJJJJJHHMNMNHHJJJJJJJJJJJJJMJJJ",
"MEEFNJJJJJJJJJJJNUSECEEVNJJJJJJJJJJJJMEEEM",
"MC9EOOMMMMMOMJJNFCDCDDFCFJJJMMMMMMMMOMD7DO",
"PEDEPOOOOOOOOMIUD33373733DTIOOOOOOOOOWHCEP",
"RRPRRPRPPPPOOOJJHJFHIFINFIJJMOOPPPPPVCCVPP",
"PPOMOOOPOPPOOOJJJJNMMNMJNJJJMOOPPPOX7009WO",
"PRCCCCBCCFRPPOMMMJJJJJJJJJMMOPPPPPOW0001XM",
"PPRPPPPOOPPPPPNNNMJJJJJJJNNNNPPPPPOW700BWO",
"RRRRRRRPPPPPPNNNNMJJJJJJJNNNNPPPPPPPVCDWPR",
"RRRRRRRRPPPPPNNNNMKKJJKKKNNNPPPPPPPRPWVPRR",
"RRRRRRRRRPPPPNNMJKHHHHHHKKMNNPPPPRRRRPPRRR",
"RRRRUUURRRRRRSNLKHHHHHHHHKKNNPRRRRRRRRRRRR",
"RRUUOIFFFFFFHHFFGIHHHHHHHHKLSSSSSSRRUUURRR",
"UURIFFFFFFFFFFFFFFFFGGGGHHHHLNSSSTTUUUUUUU",
"VQFFFFFFFFFEFEEFFFFFFGGGGGHHHKNSSSTUUVUUUU",
"UIHFFFFFFFFFFEEEEEEFFFFGGGGHJKLSSSUVVUVVVU",
"PHFFIFDBBBBBCEEEEEEEEFEEFFFFHHKMJHNKNVUVVU",
"OIFI9738A88A422222224222222222445B877CWUVV",
"IIFF273ED7DE21222222222222221112257DD8VVVV",
"HHIE3B4B33DC2EEEEEEEEEEEGGEEEEECA3CFCBUVVV",
"IIIE372CDDDC2CEEECECCEEEEEEEEEEEEDC77CUVVV",
"OIJE2446CDB44B9AAAAAAABAAAAAABAABDF428VVVV",
"OIOD319CC96BBBB98888888AAA8AAAAABBC224UVVV",
"OIF7377D777C702AA65556866668888999B224KVUV",
"PPD7DD77337D761048A64565566688889BC212GVUV",
"RPDDDCBDC77773871018845666666889A9B212GVUV",
"RPQC737D77303697361048444455668986B422EVTU",
"RKWB11BE99B81057546602A4456689A998B422EVTU",
"TLY901BEA86AA510264480485556668999B422CVTU",
"TNY901CC688548A6104646084445568888B512CVST",
"TNY801CC88655658A80446118444566889B512CVNT",
"TNY501EC65444444456064508555668899B412BWNT",
"TTY301EC6545555554912BA06856668889C612BYST",
"TTY201EEA8655444456037706666688AAAC812AYTT",
"TTV201EB4444444448126421A455556889B801AYTU",
"UTU101EB64444444540A26068444566888B8028YTU",
"UUN101GB54422242522100284555566888A9128YTU",
"VVK101EC98556665A210004A8668A98889BB126WTV",
"VWG002EA5555654464022202AA96866689AA124WVV",
"VYE002GA566665554A1284810148A86888AA124VVV",
"VaE002TB8458888668802677321016B9AABB245VWV",
"WdC1717C96688855659802C34566201AA9C777BSXW",
"WdC17313C99AB988888AA102565458108B77CBBSZW",
"VdC23C9135245554444488410015637001777D8LZW",
"Wd91CFB3310000000001112444201702202CDV4GcW",
"WdC02413310000012454454452461102005B648VZX",
"XbTAA8BCEBBBBBCBA6656688ABCCE732267CBBEYZZ",
"ZbVBEGTVTEEEEEECAAAAAAAAACEEEECA8BHVTGGZZZ",
"aabEGTTTTLGGGGGGEEECECCCEGGGGGTTLYYTTETbZZ",
"aaacZZZaaaZZZZYYYXXWVWWXXXXYZYZabaaaYabaaa",
"baabcaaaZZZZZZXXWWYYYYYYWXXZZZZZZaabbbaaab",
"bbabbaaaZZZZZXXXXWWWWWWWWXXXXZZZaaaaabbabb",
"bbbbbaaaZZZZZXXXXWWWWWWWWXXXXZZZaaaaabbbbb",
"bbbbbbbaaZZZZZXXYYYYYYYYYYXXZZZZaabbbbbbbb",
"ccccbbbbbbbaaaZZZZZYYYYZZZZZaZabbbcbbbbccc",
"bcddddddddccbbbbbbaaaaaabbbbbbccddddddddcb",
"acaWWWWWWWWWWWWXZYYYYYYYYZYWWWWWWWWWWWWZca",
"cbSNNNNNNNNNNMTDCCCCCCCCCCETMNNNNNNNNNNRbc",
"caNSSSSSSSSSSSTKKDDGFFFFFFHSSSSSSSSSSSSSbc",
"ccVSSSSSSSSSSSSSURRSSSSUUUSSSSSSSSSSSSSVcc",
"cdcaaaaaaaaaaaaaaaaaaaaaaaaaaaaaaaaaaaacdc"
};
