/* XPM */
static char * review[] = {
"32 69 32 1",
"0 c #c1803c",
"1 c #9a6c40",
"2 c #905830",
"3 c #795639",
"4 c #824d2b",
"5 c #794625",
"6 c #6c4226",
"7 c #4e3f36",
"8 c #472d1a",
"9 c #352519",
"A c #2f1c0f",
"B c #271a11",
"C c #231913",
"D c #22160f",
"E c #20150e",
"F c #21130c",
"G c #1f120b",
"H c #1d130d",
"I c #1c120b",
"J c #1b120c",
"K c #18110c",
"L c #170d08",
"M c #120c08",
"N c #100b07",
"O c #110a07",
"P c #0f0a06",
"Q c #0e0a06",
"R c #100907",
"S c #0e0906",
"T c #0e0905",
"U c #0d0906",
"V c #0b0704",
"DECDDDDDDDDDDDHHEHDDDDDDDDDDDCDD",
"DAAADEDDDDDCCB99A9BCCDDDDDEBAAAD",
"D979BHDDDDCGLF99B9FLICDDDDEB739B",
"D979BHDDDCI3337739337ECDDEHB839C",
"EBBADHEEDCH7717737733GCDDEEEGFAE",
"EHEHHEEDCDDILLILLIILLCDDEEKB37LE",
"EHJIIJKJJEDCBCCCCCCCCDDEEI90003M",
"D777777879FCDDDDDDDDDDEEDO30100K",
"ECCCBCBBABEDDDDDDDDDDEEEEL80001M",
"HIJIJIJIIHEDDDDDDDDDDEEEEEL712CJ",
"HHHHHEEEEEEEDDDDDDDDDEEEEEEMKMJE",
"HHHHHHHEEEEDDDDBBDDDDEEEEEHEEEEH",
"HHHHHHHEEEDDDBBBBBBDDDEEEHHHHHHH",
"HHHHHHHEEEDDBBBBBBBBDDFEEHHHHHHH",
"HHHHHHHHEEDDBBBBBBBBBDDEHHHHHIHJ",
"JJJHHHHHEEDBBBBBBBBBDDDEHHHHHJJJ",
"KJJJHHHHFDDBBBBBBBBBBDDGHHHIJJKK",
"KJJJIIIHEDBBBBAAABBBBBDDHIIIJJKK",
"KJJJKIIGFDBBBBAAAAABBBBEFIJJJJKK",
"KKJECBBBAAAAAAAAAAABBBDDFHIIJJKK",
"KJCBA999999999AAAAAABBBDDFFIJIKK",
"LDBBBBBBB99AAAAAAAABBDDGIILLKKKK",
"ICBB886668888888888888999A99IKLK",
"EBE63486820000011000000013378MLL",
"ECD36577928888888888888663997LLL",
"ECC3227C728888889988999999737LLL",
"HCE21677566655556656666669616OLL",
"IE933773761464445544555566404MLL",
"JH777737732012544444445558604LLL",
"JJ977777334610144244444556502LLL",
"IM911876311334202424445656602ILL",
"LO901A65562002440444444666602FML",
"LR901A54424540142042224556601DML",
"KS802A52222224024124244456601BMK",
"KV802A54444424217125445556801AOK",
"LV802A642222240231244445668109UL",
"LV602A422222211410522244456109VL",
"LV602A422222411004424444556108VL",
"LV5029544442511001665554568108VL",
"LV4049444422240521012554556208VL",
"LV303A424544452047311026668328VM",
"MV3313855654546213244211577779UM",
"MP3371342444422520111431037788VM",
"PU1383100000000012210010006886VN",
"NV522362222244444445661002754AVN",
"NV98ALGAAAAA65555568AA9658DFAGUP",
"TVGDLIIFAAAAAAAAA8AAAAFGFLLGFLUT",
"TTVUPPNNMLIIIJHGGIJIILLLRNPPUUTT",
"TTTPPNMMLLIGFFFFFFFGGILLMMNPPPTT",
"TTTPNMMMLLIGGFFFFFFGIKLLMMMNPPTT",
"SSSTPNMLLLLIGFFFFFFGIKLLMMMPTTSS",
"SSSTTNMMLLKIGGFFFFGIJKLMMMNTTSSS",
"SSSSPTNMMLLLIIGGGGIIKLLMMPTPTSSS",
"PSSSTPPPNMLLLIIIIIILLLMNNPPPTSSS",
"PPPPPPPMMMMLLKKKKKKLLMMMNPPPSPPP",
"SSSSPPPNMMMMMLLLLLLMMMMMNPPPSSSS",
"SSSSSPPPNMMMMMMMMMMMMMMPPPPSSSSS",
"SSSSSPPPPNMMMMMMMMMMMMMPPPPSSSSS",
"SSSSSSPPPPNMMMMMMMMMMPPPPPSSSSSS",
"SSSSSSSPPPPPPNMMMNNPPPPPPPSSSSSS",
"SSSSSSSSSPPPPPPPPPPPPPPPSSSSSSSS",
"SSSSSSSSSOPPPPPPPPPPPPPPSSSSSSSU",
"UVVVVVVVVUQUUUQQQQUUQQUVVVVVVVVU",
"VTMMMMMMMRVPTTPTTPTTTVTMMMMMMMNV",
"VJDEEEEDG98999988989889HDEEEEDEM",
"THFFFFFFGB8977989988889IFFFFFFHL",
"THEEEEEEEGLI9CIIIGIIILIEEEEEEEFL",
"VMJJJJJJJJHJLIJJJJJJJHIJJJJJJJJT",
"VVVVVVVVVVVVVVVVVVVVVVVVVVVVVVVV"
};
