/* XPM */
static char * review[] = {
"40 86 40 1",
"0 c #7d7874",
"1 c #61534a",
"2 c #47392d",
"3 c #353234",
"4 c #412b18",
"5 c #392a1f",
"6 c #312b2a",
"7 c #2c292c",
"8 c #372516",
"9 c #342316",
"A c #2c2524",
"B c #302216",
"C c #2f1f15",
"D c #2b1f16",
"E c #2b1c13",
"F c #252020",
"G c #271c15",
"H c #261b14",
"I c #261a11",
"J c #231913",
"K c #241710",
"L c #221710",
"M c #201710",
"N c #1f160f",
"O c #1f150e",
"P c #1f140d",
"Q c #1b140f",
"R c #1b120c",
"S c #1a110a",
"T c #19100a",
"U c #170e08",
"V c #140d08",
"W c #130c07",
"X c #120c07",
"Y c #110b06",
"Z c #100a06",
"a c #0e0905",
"b c #0c0805",
"c c #0b0704",
"d c #080401",
"MNNNMJJJJJIIHHHHGGGGGGGGGHHHIIJJJJJMMONM",
"NJBBDKKJJJIIHHGGGGGGGGEGGEHHIHJJJJLDDCJN",
"N9CE8DMJJHIHHHDDD422544IDDEEHIIJJMD5599N",
"JE218CMJJHHIIDSPPKKEPKCDPRSRHIIJJME402CJ",
"MC228CMJJIID1211111110100111EIIJJMC812CM",
"PCCC9IMJJIIG1100000000110100IJIJJMH9EBDO",
"NNMJMMJHHHGHKEPKKKKEIKEEKPGDIGHHJJSRNRPO",
"NRTRQROPNMOLHIIIECDEEEDHEIKKLKOOIP3112RM",
"R2252252222252221221222122122222IA01106S",
"Q5225255555595522522225255552555R201102U",
"R525222MNLKKIEEECBBCBBBECEIIKKNMP601106T",
"NPRQOOOIIIIEECB9988888899BCDEHHIIP2112RN",
"NMMMJJJIIIIEDCB9888888889BCDEIIIKLRJHSON",
"NNNMMLLIIIHEDBB98888888899CDEIIIJLMOPNON",
"ONNMMLLJIIHECB998885888899BCEIIIJJMMMNNO",
"OONMMLKJIIEDCB988885588889BCDHIIKLMMMNOO",
"OOONMMLJIIEECB988885588889BCEEIKKLMMNNON",
"QONNMMLLKIGCC99888444488889BCEIKLLMMNONQ",
"QQONNNMLKIECB98884444448889BCEIKLMNNNOOQ",
"QQOOOOMKKEECB98844444448889BCEIKLLNPPOQQ",
"QQRONOLLIEEC9888444444448889CEEILLNOOQQQ",
"QRPPOMLKIEEB9888444444448889BCEIKLNPOPRQ",
"RQPPOMLKIEEB9888444444444889BCEIKLMOOPRR",
"RRRONOLKIEC99884444444444889BCEIKLNOOPRR",
"RRPPPOLKIECB88844444444448899CEIKMNPOPRR",
"RQRPPPOKIECB88444444444444889CEIKNOPPRRR",
"RRRPPPOKIEC988444444444444889CEIKKPPRRRR",
"SRRPPPOKIEC984444444444444889CEIKOOPRRRS",
"SSRRRPPKIEC984444444444444488CEIKOPRRRSR",
"RRRSLIIIEECCB9988888988999BBCEEIKKLORRRS",
"RRSLCCCDCEEEDEEHHIJGGJIIIIHHIKIIIIIIOSRS",
"RSSI92366BE53665I811119I5366AIB3666JLSSS",
"SSSI93666AC53666G400004I6366AIB3667HOSSS",
"TTTKB6667AE5667AI400004O6677AKD6777HOTTT",
"TTTIB6666DIA676AK411114P6677AKD6667JOTTT",
"TTTICFFFFGEDFFFGEE49C4EIGFFFHKHFFFFLOTTT",
"TTTJCEEKKECEHHIHDHTQQTHGJKKKJIKPPKKKNSTT",
"TSSKB5555CD6666AGA2222BG6666AJD5AAAKPSST",
"SSSK93366DD33336F200105J33337HB3666HPSSS",
"SSSKB3667DD633731100105J33777HD6677HPSSS",
"SSSKB6667DD633331010002F63377HD6777JPSSS",
"SRTKCAAAADD777777100001377777GGAAAAJPSSS",
"SRTJBFFFFDAFFFFFA3001113FFFFFGLNQQNLPSSS",
"SSUF7333377AAAAAA7100013AAAAFGKGHGGKPSSS",
"SSSF600117733333F300000133337GD3666JPRSS",
"SSSF300013733333A310000133337FD3677JPRSS",
"SSSF300013733333F310000033337GG677AJPSSS",
"SSUF3101137333333310000033337GG6777JPRSS",
"SSUF7A777A7A7AF31300000077AFFGLFJJJMPSSS",
"SSTGAA77AFAFJMJFA61100007QJQJGPUYVTPRSSS",
"SSSKC56A5EH21112GA31000121112JK2112GRSSS",
"TTTKB3666DM10101JA31000320001QE01108TSTT",
"TTTKD6677DP17dF1IF33111330011QA1dO05USTT",
"UTUKD6776DQ10311MF37333F21111QI01119TTUU",
"TUUKGFFFFJM52225MGAFFAJQ21111QK2111ETTUU",
"UUUKIOPLOKIQVVVQHJMMMMJJQQQQQNRTUUVRPUUU",
"VUUKHDDDDEKCBBBDKIBDDDIKDDDDIPLGGGJRRUUU",
"VVVMC3366DK5366APG3366HP6366FSD3666NRVVV",
"VVVOE6777GPA677AOG6777JRA677FUG677AQSVVV",
"VWWPH6777GPA777APH6777JSA777FUJ77AAQTVVV",
"WWWPJA7A7JRF777FRJ7A7AJTF7A7FUJ7AAAQTWYW",
"WYZROQQQQQRQQQQQRQQQQQTTQQQQTTTQQQQTTZYW",
"XYZYRQOPPROMOOONPROOMOPNOQQQQQTTTTTVYZYX",
"YYZaaYXYWUD122115512215111111DVWYXYaaZYY",
"YYZZZaZZZWRNNPOOOOJPPMOMMNOOMRWZZaaZZZYY",
"YYYZZZZXWWXYXWWVUUUUUUUUUWWWYYWXYYZZZYYY",
"ZYYZZZYWWVVVUUUUTSSSSSSTTUUUVVVWWYZZZYYZ",
"ZZZZZYYWWVVUUUUUSSSSSSSTTUUUVVVWYYYZZZZZ",
"aaZZZZYYXWVWUUUUUTSSSSTUUUUUVVWXXYZZZZaa",
"baaZZZYXWWWVVUUUUUUUTUUUUUUVVVWXYYZZZaab",
"bbaaaZZYYYWVVVUUUUUUUUUUUVVVVWYXYYZaaaab",
"bbbaaaZYYYWVVVVVUUUUUUUUVVVVVXYYYaaaabbb",
"cccbbbbaYYWWVVVVVVVVUVVVVVVVWWYYabbbbbcc",
"bcbcccbbaZYYYWWWWVVVVVVWWWWYYYZabbbcbbcb",
"bbcbbbbbbaaZYYYYWWWWWWWWWYYYZZabbbbbccbb",
"bbbccbbbbaaZZYYYYWWWWWWYYYZZZaabbbcccbbb",
"bbbbcccbbbaZZZZZYYYYXYYYZZZZZbbbbcccbbbb",
"cbbbbcccccbaaaaaZZZZZZZZZaaabbcccccbbbbc",
"ccdcccccccccbcccbbbcbbbbcbbcccccccccdccc",
"ccXVVccaccccbZZbccaYaZacZccZacacbadaVVac",
"dXTUN25B55522555225B2B52522522525B25VTTa",
"dXUVS55B55555B5252121225A22552A55A25VUTZ",
"dXUTTYZXZZaaaYYZaV2222DdWaaYYaYZZYaYTUTZ",
"dXTTTTTTTTTTTTQJJJQQF17RNNSTTTTTTTSTTTTb",
"dcYXXXXXXXXXXXXXXXVVXXXXXXXXXXXXXXXXXXad",
"dddddddddddddddddddddddddddddddddddddddd"
};
