/* XPM */
static char * review[] = {
"40 86 40 1",
"0 c #a87c4b",
"1 c #8b6441",
"2 c #664f3c",
"3 c #4c3727",
"4 c #372e2b",
"5 c #412a19",
"6 c #3d2818",
"7 c #382618",
"8 c #312a29",
"9 c #2d292a",
"A c #2f2521",
"B c #332215",
"C c #2f2116",
"D c #2d2018",
"E c #2c1d14",
"F c #291d14",
"G c #291b12",
"H c #251c18",
"I c #251a12",
"J c #251911",
"K c #221811",
"L c #23160f",
"M c #211610",
"N c #20150f",
"O c #1f1510",
"P c #1e140e",
"Q c #1e120d",
"R c #1b120d",
"S c #1b1109",
"T c #19110b",
"U c #1a1009",
"V c #170f0a",
"W c #170d09",
"X c #150b08",
"Y c #120c08",
"Z c #100b07",
"a c #0f0a06",
"b c #0e0805",
"c c #0c0805",
"d c #090603",
"MNPNNKKIIIIIGGGGFFFFFFFFFGGGIIIIIKKMNNOM",
"MICCEKKIIIIIGGGFFGFFGGGFFGGGIIIIIKKFDDJO",
"MBBE7DMIIIIGIIEEE533655JFEFFIIIIIME77BBM",
"IE227COJIIIFDEQQSJCLELJDFQQSJGIIKME503EJ",
"KB337CMJIIJD1122232022321222AJIIKMC723BK",
"PECEBIMJIIGJ22011231202410214NIIKMGBEBEO",
"OOMKOOKIIIIFIJLLLGGLGECEJLLLJGIIIKUSPVOO",
"OOOOOKKJIIIGFFEDCCCCCCCDDEFFGGIIIS3113TM",
"OIKMKKKKIFIFGFFCCCBBCCCCCEFFGIIINA01104T",
"R3232332323333222232322223223FIFU201202X",
"OKIIFIFEGFEFDCB777777777BCCCDFIIQ401103W",
"OOOOMMLLJJJIFECBBB7B77BBCCEEGGIIJR3112TO",
"OOOMKKKJJIIFECCB77777777BCCEFIIIKKUHHVOO",
"OOOMKKKIIIIEECB777777777BBCEFGIIKKKOPMOO",
"OOOMMKKKIIGEECBB777777777BCEEGJIKKMKMOOO",
"OOOMMKKKIIGECBB7776667777BCCEFJIKKKMMOOO",
"OOOMMMKKJJFECBB7776666777BBCEGJKKKMMOOOO",
"POOOMMKKJJFECBB77666666777BBEGILKKMMOOOP",
"PPOOONLLJIFEBB777666666677BBCEGJLMMOOOOP",
"PPOPNNLLJIECBB776666666677BBCEGJLLNPPOPP",
"RRRPNNLJJGECB7766555556677BBCEFJLKNNPPRR",
"RRPPNMLLJGEBB77665555556777BBEGJLLNPPPRR",
"RPPPNMLLIGEBB77665555556677BBEEJLLLNPPRR",
"RRQONLLJJGEBB76655555555677BBEEJJLNNOPRR",
"RRPPPLLLJGCBB76555555555567BBEEILLNPPPRR",
"RPQPQNLLJGEBB765555555555677BEGJLLNQPQRR",
"RRQQQNLLJGEB7655555555555567BCGJLLNQQRRR",
"TRQQQNLLJEBB7655555555555567BBEGLLNQQRRT",
"RRQQSQNLJEBB7655555555555567BBEGLNPSQQRR",
"RRRSLJJGGEECBBBB77BBBBBBBBBBCEGGJLLNSRRT",
"RRRLECDDEEEEEEFFIIFFGGIJIIGGIJJIJJJJNSRT",
"TTSIB4444DE4444AGC4444DG4444AJD4488JMSTT",
"TTSJ74488AE44488EA4488DE4488AGA4898HNSTT",
"TTUJC4899AEA4999GD4999DG8899AJD4999INUTT",
"TUUJC4889DGA8999GD8999HLA899ALF8999INUTT",
"TUUJDDHHHHEDHHHHGFHHHHIGHHHHHJIHHHHKNUTT",
"TUUJEGGJJGEGLLQLFGLPPQGGLRRRNIJRTRPLNUTT",
"TUUJC44AACG73335GG3333DL73336KG3333FPSSU",
"RUSJB4444DP31101GE10003V30001TE01106TSST",
"SSSJB4899DP31201GI20013U31112S82dM17USSU",
"SSSJC4899DQ30222DI20013T31112QD13317TSSU",
"SSSJC8999DL30112IG11115T30002RG2121BRSSS",
"SSUJEJKMKGGGCB7BGJJGIKJJMJJJMKLLQLJNPSSS",
"SSUJCBCECEGEECEGGFDFFFIJEFFGILJGJIGLPSSS",
"SSSLC4444DN20212PC4444FJ4444AQD4448JQSSS",
"SSSJC4899DQ10201RD4899HL8499AND4999IQSSS",
"SSUJC4899DQ10201RD8999HLA999ANF8999IQSSS",
"SSULC8999DQ20211RD8999HLA999ANH9999KQSSS",
"SSUJEHHHHIJC6A7BLIHHHHKLHHHHKLKHHHHMQSSS",
"SSUJEGLLLGGPVTRRJJKHHKKLQVVVRLQVYXVNQSSS",
"SSSJC4888DN31223P41122HQ52223TC2223LQSSS",
"UUULC4488DT10021R301106V30001c30220BTSUU",
"UUULD4999DQ21221R322226V42212Z22dd17VSUU",
"VUULE8999DQ32201V31111AV31102a30320BVUUV",
"VVWJGAAAAHQ52223RA3333HT51112YE3333PTTVV",
"WWWLJPPLOLJRVWWSLMVYYVONRTVVTPUccccTRVWW",
"WWWJIDDDDGJDCDDELI6577JLEDDFIQNHHHIRRWWW",
"WWWND4448DL8444AQ70110BR4484DSH4488OTWWW",
"XXXPF4999HQA8999R710216V8899HWH8999OTXXX",
"XXXNI8999HQA999AT712216WA999HWH9999RVXXX",
"YYYPJ9999HQA999AVE1442EWA999HWK9999RVYZY",
"YZaRNOOORRQRORRRRULRRNVTRRRRTVTRRRRVVaZY",
"YZaYRPPPQOMNNNNPPNRQPRPPPRPPPOPTVVVVZaZY",
"ZZabbZYYWA23322A42232232233232AXYYZbbaZZ",
"ZZaaababZROOPOOPPKIPPMOMMKPNPRRYaabaaaZZ",
"ZZZaaaZZZZZYXXXWWWWUUWWWXXXYYYZZZZaaaZZZ",
"aZaaaaZXYYXXWWVUUSSSSSSUUVWWWXYYZZaaaZZa",
"aaaaaZZZYXXXWWVUUSSSSSSUUWWWWXXYZZZaaaaa",
"bbaaaaZYYYXXWWWWUUSSSSUUVVWWXXYYYZaaaabb",
"bbbaaaZZYYXXXWWWWVUUUUWVVWWXXYYYZZaaabbb",
"cbbbbaaZYYYXXXWWWWWWWWWWWXXXYYYYZZabbbbc",
"cccbbbaZZYYYXXXWWWWWWWWWWXXXYYYZZabbbbcc",
"cccbbbbbZZYYYXXXWWWWWWWWXXYYYYZZabbbbccc",
"ccccccbbbaZZZYYXXXXXXXXXXXYZZZabbbcccccc",
"cccccbcbbbbaZZZXXXXXXXXXXXZZaabbbccccccc",
"ccccccccbbbaaaZZZYXXXYYZZZaaabbccccccccc",
"cccccccccbbaaaaZZZYYYZZZZaaaabcccccccccc",
"cccccccccccbbbbbaaaaaaaaabbbcccccccccccc",
"cdddddddddddccdcbbbbcbbbbcccddddddddcddc",
"ddZcbbdbbbcbcbYacaababbbbbadccadbbcbdbad",
"daK38A44A44D44D44AA4A44434A334D4A44A3AVb",
"dYT8843AAA4D43AD4232322444A444A4A84D4AVZ",
"dYWaaabaYYaYbbXXbH34444VbaZbbaXbZabXbbVa",
"dYVVTTTVVVTVTVRHO92OWVUPNPVTTTVTVTTVTVVb",
"ddZYZYYYYYYYYYYYYYZXXYYZZZYYYYYYYYYYYYad",
"dddddddddddddddddddddddddddddddddddddddd"
};
