/* XPM */
static char * review[] = {
"40 86 40 1",
"0 c #8e8a77",
"1 c #56504e",
"2 c #553f2b",
"3 c #503621",
"4 c #433428",
"5 c #3e2c1e",
"6 c #3a2717",
"7 c #352920",
"8 c #36261b",
"9 c #2e2828",
"A c #372516",
"B c #352418",
"C c #32241a",
"D c #342214",
"E c #312115",
"F c #322013",
"G c #2e241d",
"H c #2f221a",
"I c #2e2118",
"J c #2f2015",
"K c #2c1f17",
"L c #2e1e13",
"M c #2c1d14",
"N c #2b1d14",
"O c #2a1c14",
"P c #2a1b12",
"Q c #291b12",
"R c #291a12",
"S c #271c13",
"T c #281a11",
"U c #241b13",
"V c #251911",
"W c #26180f",
"X c #231710",
"Y c #221710",
"Z c #20170f",
"a c #20140c",
"b c #19110a",
"c c #140d06",
"d c #110a04",
"WTTTTTTTQQQQOOOOOOPPOOOOOOOOQQQQTTTTTTTT",
"TQLLMQTTQQQOOOONNLJJJLLNONOOQQQQTTQMLLPT",
"TJBBEMQQQQOONONOLEAADDEMNOOOOOQQQQLB58JP",
"TE55ALPTQQOJ88CBB856A88CCCEEMOQQQQJ545EQ",
"SE55ALPTQQOC4224422244444224COQQQTJ855EQ",
"TMEEJNTQQQOC4222222244422224COQQQTOIDENW",
"WWTRPTTQQOOMC77888558888777CKOOQQQKCCKSW",
"WWVVTTTQQOOONNMLJFEJEEFLLNNNOOOQQI5447KV",
"TMIIIIIIICEEJEBBBAAAAA88BBBBIMOQN722227S",
"OC777777777888555555555555557KOQM411224S",
"TMIHHHHCHCCCEB86666666668B8BHMOQN521227S",
"WTVTTTTQOQONMJEEDDDDDDDEEFFLNOQQQI4445IV",
"WVVTTTTQQQONKJEEDDDDDDDDEEFLNOQQQQKCCKUW",
"WWWVVTTQQQOMLFEEDDDDDDDDDEFLNNQQQTVVVVXW",
"WWWVVTTQQQOLLEEDDDAAAADDDEFLNNQQQTVVVVXW",
"XVTVVTTQQQOLFEEDDAABAAADDDEFLPQQTTTVWWWX",
"XVWVVWTTQQPLLFDDAAAAAAAADDEFLNQQTTVVWVXX",
"YXWVVWTTQPPLFFFDAAAAAAAADDEFLMQQTTVVWWYY",
"YYXVWWWTQPLLEFDDAAA66AAAADFFLLQQTTWWWWYY",
"YYXWWWWTQPLLFFDDAA6666AAADFFLLPQTTWWWXYY",
"YYYVWWTTQPLLFDDAA666666AAADFFLPQTTWWVYYY",
"ZZYWWWTTPPLFFDDAA666666AAADFFLPQTTWWVXYZ",
"ZZYWWWTTPPLFFDAA6666666AAADFELPQTTWWVXZZ",
"ZYYVWWTTPLLFFDAA66666666AADFFLPQTTWWVXZZ",
"ZZYWWWWTPLLFFDA666666666AADDFLLQTTWWXXXY",
"ZZYXWWWTPLLFDDA6666666666ADDFLLQTWWWYXXY",
"ZYXWWWWTPLLFDAA6666666666AADFLLPTWWWWXZZ",
"ZYWWWWWTPLFFDA66666666666AADFLLPTWWWWXZZ",
"ZYXXWWWTPLFFDAA66A666666AAADFLLPTTWWWXZZ",
"ZYXWWTQOPLLFFFFDDDDDDDDDDFFFLLPPTTTWWXZZ",
"ZYWTNKIIJLFDAAADLJJIJJLLJJJJLPOMMNOTWXZZ",
"ZYWRJ87GGJD53435DICCGHKJHGGGKNJGGGIOWXZZ",
"ZYXPE777GI6335436H779GIJC77GHMIG7GGOWXZZ",
"ZaXPIG7GGI634C536JGGGGKKHGGGIMIGGGGSWXZZ",
"aaYQJCGGGJD33443AKGGGHMMIGGGKPMHGGGSWXaa",
"aaYTLKKKKME55556EKKKKONPNKKKQRQOKKOVWXaa",
"aaWTLEEJJIB65556CEMNOOQPMMMMNPNKLKNRWXaa",
"aaWTE533355333356CHHHINLB5536FA5335FWXaa",
"aaWTA211233222235777GGMF522226522226WXaa",
"aaWRB211133222225777GGKF322226322226WXaa",
"aZWRB4112332222257GGGGKD322236322226WXaa",
"aZWTF543345322235CGIIKOL52225D63333DWXXZ",
"XXWRLDA66A855555BIOOSRTPD666DPPFJEEQWXXZ",
"aaXTMJJKJKC54455CIKKMNRPMKKKQTTOOOSWWXaa",
"aaXWKCCGHKD32223BICGGHMOIGGHMTMHGGKSXaaa",
"aaXWKCGGGMD32223AVUUKUXNHGGGKTMGGGISXaaa",
"aaaWKGGGGND32223P300003ZIGGGKVNGGGKUWaaa",
"aaaWNIGGKSL3222530000006UKKKSVRKKKKVXaaa",
"aaaWTSUUUXWFABAa20000003bVYYYXWVSSSXaaaa",
"aaaQ8CCC8887555G20000002G5778C8CCCHITaaa",
"aaW757855544442420000002444445578CCCCWaa",
"abH57787555444442002200244455588CIIIHKaa",
"abC7788755554444300000234445558CCIIIEJaa",
"bbC8888885555444432222434555578CHIIIJJbb",
"bbH888888555554443444444455577CCIIIIIKbb",
"bbI888888755552222222222247578CIIIKKKNbb",
"bbJ888CC8JM85884455454445C78CCIIKKKKJObb",
"bbJ8CCC8L21484148425455B4142CJCMKKKKMObb",
"bcJ8CCC8W0000000000100001000001XIMNNMObb",
"bcKCCCCCQ1221111112201111111114VMNOOMRcb",
"bcKCHHHHHQMPPMJVMJHKWLPWTPXXaaRNNOOOORcb",
"bcMCHHIIIHHHICY25KU43SK83YIKKKNOOOOOORcb",
"bcNHIIIIIIIIIP200520035002RNOOOOOORRPScb",
"bcOHIIIIIIIIIX200F3003D002YMOOOORRRSRUcc",
"ccOIIIIMMMMMMS633TE33LT336XRTTWWTRTUUUcb",
"ccOIIIK77CC8CICIHIIKICHIKKIHHHCCKVVVVUbc",
"ccOIIKM42242244224422222244222227ZVVVVbc",
"ccSKMKRWWWWWWWWWWKTTRTTTVUVXXXXYXUXXXYcc",
"bcSKOT99999999999WRRSSSSSUUUVVVVXXXXXYcc",
"ccSKT1010011111111UUUUUVVVVVXVXXXXYYYYcc",
"ccUP900000000011119XUUVVUVXXXXXYYYYYYZcc",
"cdUR900000000100119XUVVVVXXXXYYYYYYYYZcc",
"cdUT900000000000019YUXXXXXXYYYYYYYZZZZcc",
"cdUS910001001111119XUYYYXYYYYYZZZZZZaZcc",
"cdVSU1111111111111UUYYYYYYYYZZZaaaaaaZcc",
"ccYSUU99999999999GUUVUUUVVVVYYYYYZaaaacc",
"ccYUU99999999999999G77777GGGGGGGGGKbaZcc",
"ccYVS799999999999977GG7GGGGGGGGGHGGZbZcc",
"ccYXS777777777G7H111112KGGGGGGGGGGGZbZcc",
"ccYXS7GGGGGGGGGGG75777GGGGGGGGGGGGGZbZcc",
"ccYXYG777777777GGGGGGGGGGGGGGGGGGGKbbabc",
"ccYXYYSSSSUUUUUUUUUUUYYUUYYYYYZZZZbbbbbc",
"ccbXYYZZZaaaaabbbbbbbbbbbbbbbbbbbbbbbbbb",
"ccbbYYYYYZZYYYYYYYYYYYZZZZZZZZZaZZaabbbc",
"cccccccccccccccccccccccccccccccccccccccc",
"cccccdddddddddddddddddddddddddddddddcccc"
};
