/* XPM */
static char * review[] = {
"40 86 40 1",
"0 c #928d75",
"1 c #565456",
"2 c #55412e",
"3 c #52371f",
"4 c #433429",
"5 c #402d1d",
"6 c #3a2b1f",
"7 c #3a2716",
"8 c #36271c",
"9 c #2f2927",
"A c #372516",
"B c #352417",
"C c #31241e",
"D c #322318",
"E c #332114",
"F c #302115",
"G c #2e231d",
"H c #2e2118",
"I c #2e2016",
"J c #2d1f15",
"K c #2d1e13",
"L c #2b1d13",
"M c #2a1c14",
"N c #2a1c11",
"O c #291b11",
"P c #281b13",
"Q c #271a11",
"R c #281a10",
"S c #241b14",
"T c #261910",
"U c #231911",
"V c #25180f",
"W c #24170f",
"X c #23160e",
"Y c #211712",
"Z c #22170f",
"a c #20140c",
"b c #1b110b",
"c c #150d08",
"d c #110b06",
"TQQQQQQQOOOPMMMMNNNNNNNNNMMMOOOPQQQQQQQT",
"ROKKLOQQOOOMMMMMLKFKKJKLNMMMOOOPQQOKJKOT",
"RJBBEKRPOOMMLLLLKEBBEEEKLLMMMMOPPOKB68JO",
"OE65AKOQOOMI868DDB6688B88DDHKNOOOOI645FO",
"QE66BKQQOOL842244442244422448LOOOQJ855FO",
"QLFFJLQPOOMD42222442224422248LPOOQNJEFNT",
"VQQQQQQPOMMJD8888BB8868D8888HLPOOPLDCJRT",
"VVTTQQQPOMMLLLKJJKKIKIFIJKLLMMMOOH6446IT",
"QLIIIIIHHHHFFDBBBBAABAA8BDDDIKMOL622226O",
"MD868888888888655555555566668JMOJ422224M",
"QLHHHHFDFDDDDB88887778888BDDFKMOL622226P",
"VTTRQOQNNNNLKFFFEEEEEEEEFFFKLNPOOH6446IT",
"VTTQQQQPOONLJFFFEEEEEEEDEFFKLNOOOPJCCJTV",
"VVTTQQQPOONNKFFDEEBBBBEEEFFKLLOOOQTTQTVV",
"VVTTQQQPOONKKFFEEBAAABBEEFFKLLOOOQTTTTVV",
"VVTTTQQPOONKFFEEBAABBAAEEDFFKNOOQQQTTTVV",
"VVTTTTQQOONKKEEEBAAAAAAAEEEFKNOOQQTTTTVW",
"WWVTTTQQOONKFEEEAAAAAAAABEEFKNOPQQTTTVWW",
"ZWVTTTTQRONKFEEBAAA77AAABEEFKKOOQQTTVVZZ",
"WWVVVVTQRNKKFEEBAA7777AAAEEFKKNOQQVVVWWW",
"WWWVVTQQONKFEEBAA777777AAAEEFKNOQQTVVVWW",
"XXWVVTQQONKEEEBAA777777AAAEEFKNORQTVVVXZ",
"XXWVVTQQONKFEBAA7777777AAAEEFKNRRRTVVVXZ",
"XWWVVTRRRNKEEAAA77777777AABEEKNORRTVVVXZ",
"XXVVVTTRRNKEEAA777777777AABEEKKRRRTVVWXZ",
"XXWWVVTRRKKEEAA7777777777ABEEKKORTVVWWWZ",
"XXXWVVTRRKKEAAA7777777777AAEEKKORVVVWWXZ",
"XXXWVVTRNKKEEA77777777777AAAEKKORVVVWXXZ",
"XXXXVVTRNKKEEAAA77777777AAAEEKKORTVVWXXZ",
"XXXVTRONNKKFEEEEEEEEEEEEEEEFKNNOQRTTWXXX",
"XXWTLJIIJKKFFFFFJFIFFIJKJIIILNLJJJMQVXXX",
"XXWRIC8CGFFDCCCHJICCCHJJDCCCILICCCHMTXXX",
"XXXOI869CHFD8CCGIHCCCCIICC9CHJICCCGMTXaX",
"aaXOIC9CGHIDC9CGJHC99GIJGCCCHLICCCGMTWaa",
"aaWRJGCGGIJHCCGHLJGCGGLKHGGGJMJGCGHMTWaa",
"aaXRKIHHJLJJHHHMLLJHHMMNMHHMPOLIHHMNTWaa",
"aaWRKIIJLJKIJJJKKKKIIJLNKKJKLNKEBBFLTXaa",
"aaWRIDCHHJFA5535EE5335AK75337EA53337NVaa",
"aaWOI89CCIF532237732225E522237522225KTXa",
"aaWOICC9CIE322227A22225E522235421114FTXa",
"aXXRICCCGJF322228A32225E522237421114FTXX",
"aXWRKHGGHLK53234BA33237F53333A521125KTXX",
"XXWRLLMMMMKE757AKKA777KOE777EKE7555ERVXX",
"aaXTLJJJJMKB657AKNJJJLOOLJKKMOLFFEFNVXXa",
"aaXTJCCCGJE32233EICCCHLMIGGGMQJDCGHPWaaa",
"aaXTJCCCGLE32223AQYSSSYLHCCGMQLGGGHPWaaa",
"aaaTJCCGGME32223N300003aHGGGMQMGGGHQXaaa",
"aaaTLHGGHME5223530000007SHHHPTPHGGMQXaaa",
"aaaVRPSSUWVFABAa20000003bUYYXXXYYYUXaaaa",
"aaaRDDDC8886666C20000002C6888DDHHHIJVaaa",
"abV666665544442420000002444455688DDDCWba",
"abD6888666554444200220024445568BDHHHHJba",
"abD8888666654444400000234445668DHHHHHJba",
"bbD8888886655444432223444446688CHHIIIJbb",
"bbH888B88665554443443444556668DDHIIIILbb",
"bbH8BBBB8666663222222222246688DHIIJJJLbb",
"bcH8BBDDBFK86684455454445D8DDDHIJJJJIMbb",
"bcH8DDDBK21564146446466C4142DIDJJJJJLMbb",
"ccIBDDD8X0000000000100001000001XILMMLMcc",
"bcJBDDDDO1421211112211112111114TLMMMLPcb",
"bcJDDFHHHOJMOMIVMHDJQLOVQNXXaaQMMMMMMPcc",
"bcMDFFHHHHHHHDY36HS54SM83YHJJJMMMMMMMPcc",
"bcMDHHHHHHIIHO200530035002PMMMMMMMPPPQcc",
"bcMHHHHIIIIIFY200E3003E003YLMMMMPPPPPQcc",
"ccMHIIIJJJJJJS733OE33KQ337YPQQTTQPQQQTcc",
"ccMHIII68DC8DHDHGHHHHCHHHJHHHHGDJTQTTTcc",
"ccMHIIM42242244224422222254222226XQUTTcc",
"ccPIJJNVVRVVVVVVVJQQQQQQTQQTVTVZUUUUVUcc",
"ccPJMR99999999999TQPPPPPQQQQTTTUUUUUWWcc",
"ccSJR1111111111111SSQQQTTTTUUUUUUUZZWZcc",
"cdSO910000000011119XUUUUUUUUUUUZZYYYZZcc",
"cdSR911000000110119XSUUUUUUUUZZZUYYYZZcc",
"cdSQ911001000000119ZSUUUUUUZYYYYYYYYZZcc",
"cdSS911111111111119USUZZUYYYYYYYYYYYaadc",
"ddSSS1111111111111SYYZZZZYYYYYYaaaYYaadc",
"ddWPSS99999999999SSSUQSUUUUUUZZZZZaaaadc",
"cdZSS99999999999999CCCCCCCCCCCCCCCHbaadd",
"cdZUM999999999999CC8GCCGGGGGGGGGHHGYbadd",
"cdYUPCCCCCCCCCCCH111112HCGGGGGHGGGGYbadc",
"ccYUP8CCCCCCCCGCG86C66CGGGGGHHHGGGGYbbcc",
"ccZWZC8CCCCCCCCCCGGGGGGCGGGGGGGGGGHbbabc",
"ccZUZUSPPPSSSSSSSSSSSUUUUYYYYYYYYYbbbbbc",
"ccbUYYYYYaaaaabbbbbbbbbbbbbbbbbbbbbbbbbb",
"cccbYUUZUZZZZZZUUUUUUYYYYYYYYYaaaaabbbbc",
"cccccccddddddddddcccccdcddcccccccccccccc",
"cccdddddddddddddddddddddddddddddddddddcc"
};
