/* XPM */
static char * review[] = {
"40 86 40 1",
"0 c #916d62",
"1 c #3266ad",
"2 c #573e2b",
"3 c #45362a",
"4 c #3f2c1e",
"5 c #3a291a",
"6 c #36281d",
"7 c #2d2a2d",
"8 c #382516",
"9 c #362518",
"A c #33251d",
"B c #342517",
"C c #342315",
"D c #332113",
"E c #312216",
"F c #30241b",
"G c #2f2116",
"H c #2e2118",
"I c #2c221c",
"J c #2d1f15",
"K c #2e1e12",
"L c #2a1e16",
"M c #2b1d12",
"N c #2a1c12",
"O c #291c14",
"P c #291b11",
"Q c #271b13",
"R c #271a11",
"S c #281a10",
"T c #251a13",
"U c #261910",
"V c #231911",
"W c #25180f",
"X c #24170e",
"Y c #23160e",
"Z c #211710",
"a c #20140c",
"b c #1b110b",
"c c #160d08",
"d c #110b06",
"URRRRRRRPPPQONNNNNNNNNNNNNNNPPPQRRRRRRRU",
"SPKJMPRRPPPOONNNMKKKKJKMNNNNPPPQRRPMJJPU",
"SJB9EMSQPPONMMMMKDBCCCEKMMNNOOPQQPK959JP",
"PE449KPRPPNH669BB95459996BEHJNPPPPG534EP",
"RD54BKRRPPMA32233332233323336MPPPRJ944EP",
"RMGGJNRQPPOF32222332223332236MQPPRNJEEMU",
"WRRRRRRQPNNJE6666BB9656B6669GNOPPQLFFJSU",
"WWUURRRQPNNMMMMJJKJJKGGJJMMMOMNPPH4334HU",
"RLGGGGGGGHHEEEEB9999999999BBHHGOO622236P",
"OF6666666666655544444444445666AJL322224O",
"RLHHGGGEEEEEA9B955555555999BFFGOO622226Q",
"WUUSRPRNNNNMMKEECCCCCCCEEKKKMNNPPH4334HU",
"WUURRRRQPPNMJKEECCCCCCCCEEKMMNPPPQJFFJUW",
"WWUURRRQPPNMKKEECCCCCCCCDEKKMMPPPRUURUWW",
"WWUURRRQPPNMKGECCC999CCCDEKKMMPPPRUUUUWW",
"WWUUURRQPPNKKEECC999998CCCEKMNPPRRRUUUWW",
"WWUUUURRPPNKKDDCC8888889CCDKMMPPRRUUUUWW",
"XXWUUURRPPNKKEDCC8888889CDDKKMPQRRUUUWXX",
"ZXWUUUURSPMKEDCC88888888CCEEKKPPRRUUWWZZ",
"XXWWWWURSNMKDDCC88888888CCDDKKNPRRWWWWXX",
"XXXWWURRPNKKDCC8888888888CDDKKNPRRUWWWXX",
"YYXWWURRPNKDDCC8888888888CCDKKMPSRUWWWXY",
"YYXWWURRPNKDDC988588888888CDEKMSSSUWWWXY",
"YXXWWUSSSMKDDC888888888888CDDKMPSSUWWWXY",
"YYWWWUUSSMKDDC888888888888CDDKKSSSUWWXXY",
"YYXXWWUSSKKDCC888888888888CCDKKPSUWWXXXY",
"YYYXWWUSSKKDC88888888888888DDKKPSWWWXXYY",
"YYXXWWUSPKKDC88888888888888CDKKPSWWWXYYY",
"YYYYWWUSPKKDC88888888888888CDKKPSUWWXYYY",
"YYYWSSPNMKKDDDDDDCDDDDDDDDDKKKNPRRUUXYYY",
"YYXUMJGGJJKGGEGJGGGGGGJKJGGGLNMJJJOQWYYY",
"YYXSGAAAFGGFAAAHJGAAAFJJFAAFHMHFFFHOUYaY",
"YYYPEA6AAHGA66AFJF6AAFGGAAAAHJHAAAIOUYaY",
"aaYPGAAAIHGFAAAIJHAAAIJJFAAIIMHAAAIOUXaa",
"aaYSJFAIIHJHFFIIJJFAIILMHFIIJOJIIIIOWXaa",
"aaYSJHHILMJJJLLLMMLILLONLLLLOQNLLLLQWXaa",
"aaYSJJJJMMKJJJJKKKKJJJMNKJJJMPPMJJLPWYaa",
"aaXSGFFFHJK84444DC43348K84345KE4444DUXaa",
"aaXPE66AAHD422225822224C42222C532225SXaa",
"aaXPGA6AAHE422225622024C422229634324SXaa",
"aaXSGAAAIJE422225922224E42222C633335UXaa",
"aYXSJHIIIJK42223BC42225K42224DE4334BUXYY",
"YYXSMJOOOOKD5448KK8888DND858DPNDCCDMWXYY",
"aaYUMHJJJNK8445CKMJHJJPPNJJJQSPOLLOUXYYa",
"aaYUJFAAILD42224DGAAAFLNHFFILROIFILQXYaa",
"aaYSJAAAILC222228TLILTVNHFAILRLFAIIQXYaa",
"aaYUJFAIILC22222K300003YHIIILRLIIIIRYaaa",
"aaaUJHIIHOD4222440000004TIIIQUQLIILRYaaa",
"aaaWRQTTTWUD898S20000002bTVZZZYVTTVYYaaa",
"aaaS9AFAA6664446200000026566AFFFHHHJWaaa",
"abW555544443333300000002333344469EEFFXba",
"abE56666544433332000000233344469FHHHHJba",
"abB6666654443333220000233344466AFHHHHJba",
"bbE699965444433333222233344446AFHHHHHJbb",
"bbH699996654443433333333444466FFHHHHGLbb",
"bbH99999965444222222222224666AFHHHJJJLbb",
"bcH999BBB9699654334343444666AFHHJJJJJObb",
"bcH9BBBBE9J22324444434466466AGHJJJJJLObb",
"ccJ9BBEEEEM300000000000000002UHJJLOOMOcc",
"ccJ9EEEEEEEJ22222000020002224PJOOONNMQcb",
"ccJBEEHHHHHGPPJLOMN44JNRWRWXOOOOOOOONQcc",
"ccLEEEGHHHHHHHG46HE99HHA5LLJOOOOOOOONQcc",
"ccLEHHHHHHHHHJ56696665B5A5LOOOOOOOQQQTcc",
"ccLHHHHHHHHHHJ665EB569G465NOOOOOQQQQQTcc",
"ccLHHOJJJJMMJME88NM88KR98KRQRRURRUURRUcc",
"ccOHH46B9A6AFFFAGHHJHHFHAAHFHFFHLHFURUcc",
"ccOHH223222233322233322332333232323WUVcc",
"ccOHJOSMSWWXXXWXSPXXXXWXRWUUUWXQQYZVWVcc",
"ccQJOS77777777777777777IXUUTUUUVXVVVWWcc",
"ccTLS11111111111111111117VVVVVVVVVZZXYcc",
"cdTP7111111111111111111117YVVVVZZVZZZZdc",
"cdTS7111111111111111111117YZZZZZVVVZZZdc",
"cdTR7111111111111111111117YZZVZVZZZZYZdc",
"ddTQ7111111111111111111117ZZZVZZZZZZaadc",
"ddTLT71111111111111111117VVaZZZaaaZZaadc",
"ddXQLT777777777777777777TTTZZZZZZZaaaZdc",
"ddYTT77777777777777777777AAAAFFFFFLbaZdd",
"cdZVL677777777777777777AAIFFFFIIIHFZbadd",
"cdZVOAAAAAAAAAAAI200202LFIIFFIIIIIIZbadd",
"dcZVQ6FFFAAFFFFFF64A66FIIIIIIIIIIIIZbbcd",
"ccYWVF6AAAAAAAAAAFFFFIFFFIIIIIIIIILbbabc",
"ccYVZVQOOOTTTTTTTTTTTVVVVZZVVVZZZZbbbbbc",
"ccbVZZZZZaaaaabbbbbbbbbbbbbbbbbbbbbbbbbc",
"dccbZVVZVZZZZZZVVVVVVZZZZZZZZZaaaaabbbbc",
"dccdcccddddddddddcccccddddcccccccccccccc",
"dddddddddddddddddddddddddddddddddddddddd"
};
