/* XPM */
static char * review[] = {
"40 86 40 1",
"0 c #b78545",
"1 c #8c6543",
"2 c #6a503b",
"3 c #4b3828",
"4 c #372f2d",
"5 c #402a19",
"6 c #392719",
"7 c #312a2b",
"8 c #33261e",
"9 c #2d282a",
"A c #342316",
"B c #312014",
"C c #2d211a",
"D c #2d1f15",
"E c #2c1e14",
"F c #2a1b13",
"G c #261e1c",
"H c #271b13",
"I c #261a12",
"J c #251911",
"K c #221811",
"L c #23160f",
"M c #211610",
"N c #1f1610",
"O c #1f150f",
"P c #1e140d",
"Q c #1e120d",
"R c #1b120c",
"S c #1a110a",
"T c #1a100a",
"U c #170f0a",
"V c #170d09",
"W c #140c08",
"X c #140b08",
"Y c #110c08",
"Z c #100b07",
"a c #0f0a06",
"b c #0e0905",
"c c #0c0805",
"d c #090603",
"MOPONKKIIIIIHHHHFFFFFFFFFHHHIIJIIKKMNONN",
"NJDCDKKIIJIIHHFFFFFFHHHFFHHHIIJJIKKEDCJN",
"NABE6DMIJIIHHHFEF533555IEEFHHIIJJME66BAN",
"JE22ADNJJIIHHJHLIEIELJDELTOFHIIJKME513BJ",
"KB33ADNJJIIEP21111312323123LFHIJKNDA23BK",
"OEBEAJMJJIIFL31111310222112MFHIJKMHAEAEO",
"NNNKNNKJJIIHFHLLLIFILHEELQKFHHIJJKVROUOO",
"NOONNKKJIJIHFFEDDBDCABDDDEEHHHIJIT3002UK",
"NIKMKKKKJHIEHFEDDAAABBADDEFFHIIIP400003U",
"R3232332323333222232322223223EJHW200001a",
"NMIHHIHEFFEEDBAA66666666ABCCDFIHR300003W",
"NNNNMMLLJJJIFDDBAAAAAAAABDDFHHIJJR2002RN",
"NNNMKKKJJIIFEDAAA666666AABDEFIIJKLUGGVOO",
"NNNNKKKJJJIEDBBAA666666AAABEEHIJKLJQQNON",
"ONNNMKKKJJHEDBAA66666666AABDEHJJKKKMNONO",
"OONNNKKKJJFEDAAA66666666AABDDFJJKKKMNNOO",
"OONNMMKKJJFEDAAA66666666AAABEFJKKKMMNNOO",
"PONNMMKKJIFDBAA6666666666AABEFILKKMMNOOP",
"PPONNOLLJIFDAAA6665555666AABDEHJLMNNNOOP",
"PPOOOOLLJIEBBA666655556666ABBEHJLLNOOOPP",
"RRRPOOLJJHEBAA665555555666AABEFJLKOPOQRR",
"RRPPOMLLJFEBAA665555555566AABDFJLLLPOQRR",
"RPPPOMLLIFBBA66655555555666ABDEJLLLOOQRR",
"RRQOOLLJIFBAA6655555555556AABDEJJLLOOQRR",
"RRQPPLLLJFBBA66555555555566ABBFILLMPOQRR",
"RQQPPPLLJFEBA66555555555556ABBFJLLPPQQRR",
"RRQQPPLLJFBAA655555555555566ABFILLPPQRRR",
"RRQQPPLLJEBA6655555555555566ABEILLOPQRRR",
"RRQQRPPLJEBA6555555555555556ABEFLPPRQQRR",
"RRRRLJJIFEDBBAAAAAAAAAAAAABBDEFIJLLORRRR",
"RRRLDDDDDEEEEEFHIIHHHHIJIIHHIJJIJIJJPSRR",
"RSSIA4444CF84448FA4444DF4444CJC4477JMSRR",
"RSSJ844778B44777D84777CE44779F84779HLSRR",
"TTTJC4779CF87799FC7799CI7799CLC7999HLSTT",
"TTTJC4777CI87779JD7799GL9799CLE7999HLSTT",
"TTTIDGGGGHFCGGGGFFGGGGHIGGGGHJHGGGGLOSTT",
"TTTJDFFJJFEJPQQLFFLLLLIILLLLLILPPLLLOSTT",
"TTSJB5888BF53335ID8888FI8888CLE8888JOSST",
"RTSJA4474CP10211LC4477CJ44778LC4477IPSSS",
"SSSJA4799CQ17dG1LC4799CJ7799CLC4799IPSST",
"SSSJC4779CQ11921LE7779EJ9799CLC7999IPSST",
"SSSJD9999CL32223IC7999CHC999GLH9999KPSSS",
"SSSJDHKNKHFOWUWR4449G434MNNOOLLOPOOLPSSS",
"SSSJDDDEEHHJJKKMKLEDFJMORTUSQLLEHFFLPSSS",
"SSSJF21113U31112R51101IU31223RC4477JPSSS",
"SSSJH20112W30101Q32220FU10223V44999IPSSS",
"SSSLK32422V42212Q30121EU12212X44999IPSSS",
"SSSKF22312Y30001U30021EU12102Y49999KPSSS",
"SSSJF5353EME3335QE3345MS53225RLGGGKNPSSS",
"SSSJELRRQJFOYWYUJLTTSSLLRSUWSLOQQQOLRSSS",
"SSSJD4477DP32223PE4778IL8777CQH7998LQSSS",
"TTTLC4777CS20101RD4777HL7477GRC4779KQTTT",
"TTTLD4999CU20201TD7999GL9799GQG7999KRTTT",
"UTVLE7997CU20201TE7999HP9799GRH7999NRTTU",
"UUVJHG9GGHQ52433QIGGGGKPGGGGGRNGGGGQRTUU",
"VVVLIPPLOLJSYWWTLLRRRROLQRRURPPUUUURQUVV",
"VVVJICCCCFJ6534ALJCAACJLFACCIPPFBDHRRVVV",
"VVVND4447CR20022QJ10005Y30002YJ1111BUVVV",
"XXWPE4799GV20121RM21113a30002a82V818WVXX",
"XXXQH7999GT32211TN22115X41012WG1942CXVXX",
"YYYQJ9999GV31102UL10005c30001aL1111BYWZY",
"YZaRONNNNPRMFHJMTRA55AOUL666FUTBBBASUaZY",
"YZaZRPPPPPRRRRRPOOSUURQORUUUUSTYYYYUZaZY",
"ZZabbZYYWWVQ323223H332423322RVWWYYZbbaZZ",
"ZZaaabaaZZXTPNPOMMQMKMOMMPOOTZaaaabaaaZZ",
"ZZZaaaZXXXWWWWWVVVTVVVVVWWWXWWWXXZaaaZZZ",
"aZZaaaZXXXWVVVUTTSSSSSSTTTVVVVWXXZaaaZZa",
"aaaaaZZYXXWVVVUTSSSSSSSSTUVVVVXYZZZaaaaa",
"bbaaaaZZYWWVVVVVTTSSSSTTUUVVWWXYZZaaaabb",
"cbbaaaZYYYXWVVVVVUTVTTVUUVVWWXXYYZaaabbc",
"ccbbbaaZYYYWWWVVVVVVVVVVVWWWWYYYZZabbbbc",
"cccbbbaZZYYWWWWVVVVVVVVVVWWWYYYZZabbbccc",
"cccccccbZZYYYWWWVVVVVVVVWWYYYYZZaccccccc",
"ccccccccbaZZZYWXXWXWWWWXXXYZZZabcccccccc",
"cccccccccbbaZZZXXXXXXXXXXXZZaabbcccccccc",
"cccccccccbbaaZZZZYXXXYYZZZZaaabccccccccc",
"ccccccccccbaaaaZZZZZXZZZZaaaaccccccccccc",
"cccccccccccbbbbbaaaaaaaaabbbcccccccccccc",
"cdddddddddddccccccccccccccccddddddcddddc",
"ddYWWbcdbcdbcbaabbcbYbbcaZccaccdcbdZWWad",
"dYTUV434833C48884438H3838C448443883HVUUb",
"dWVUVC44884C4323223233223223C4444C4HWUUZ",
"dWVUUXabXabXb84448843C48833RZbaaaXbWUVUa",
"dYUUUUUUUUUUUZYRRNR44VUUSWbUUUUUUUUUUUUb",
"ddZYYYYYYYYYYYYWWWYYYWYYYYYYYYYYYYYYYYad",
"dddddddddddddddddddddddddddddddddddddddd"
};
