/* XPM */
static char * review[] = {
"40 86 40 1",
"0 c #a77a49",
"1 c #865e3f",
"2 c #6e4e36",
"3 c #534539",
"4 c #4a3321",
"5 c #3e2e21",
"6 c #352d2b",
"7 c #3e2919",
"8 c #372618",
"9 c #322722",
"A c #2c2729",
"B c #332215",
"C c #2f2016",
"D c #2c2018",
"E c #2b1e16",
"F c #2a1c13",
"G c #291a12",
"H c #251c18",
"I c #251a12",
"J c #241912",
"K c #231811",
"L c #23160f",
"M c #201610",
"N c #1e150f",
"O c #1e140d",
"P c #1e130d",
"Q c #1b130f",
"R c #1b120b",
"S c #1a110a",
"T c #1a1009",
"U c #170f0b",
"V c #160e09",
"W c #150b08",
"X c #120c08",
"Y c #100b07",
"Z c #0f0a06",
"a c #0f0905",
"b c #0d0805",
"c c #0c0805",
"d c #090603",
"KMOMMJJJJJIIGGGGFFFFFFFFGGGIIIIJJJKMMMMM",
"MICCEKJJJJIIGGGGFGFFGFFFFGGGIIIJJJKEEDIM",
"M8BF8EMJIIIIGIIEF544745FEEFGIIIIIME78BBM",
"JF328EMIIIIGGEELPLG8LLLRPPKFIIIIIKF503CJ",
"MB448CMIIIIFK50233333222225LFIIIIMC834CM",
"NECCBIKIIIIGGD2111331110113LFIIIILIBFBEN",
"ONMKMMKIIIIGGFILLGGCLLILLLIFGIIIIJTROVON",
"NNMMMKJIIIIIFFFDCCCCBCCCDEEIGIIIIR3003TM",
"MIKMKKKKIEIFGFECCB88CCBCCEFFIIIIO900005U",
"P3333543533434333332332334333EIIV300102X",
"MKIIIIFEFFEFDC88888888888CBCEFIIR500003V",
"MMNMMKLKKIIIFECBBB8888BBBCEFIGIIIR3002QM",
"NMMKKKKIIIIFECBB88888888BCCEFIIIJKSIHUNN",
"NMMMKKKIIIGFECCB88888888BBCEFIIIIKJNQMNN",
"NNMMKKKIIIIFCCB8888888888BCEFGIIIKKMMNNN",
"NNMMKKKKIIGECB8B88777778BBBCEGIIKKKMMMNN",
"NNNMMKKKKJFFCB88877777788BBCEGIKKKKMMNNN",
"NNNMMKKKKIFFCB88877777788BBBEFIKKKKMMNNN",
"NNNMMOLKKIFCBB887777777788BBEFGKLLMMNNNN",
"NNNOOOLLIGFCBB8877777777888BCFGKKKMNNNNN",
"QQQOOMLKIGFCB8877777777778BBCFGIKKMOPQQQ",
"QRNOOMKLIGCBB88777777777788BBCFILLLONPQQ",
"RQQNOMLLIFCBB88777777777788BBCFILLLOPPQR",
"RQPNNLLLIFCBB87777777777788BBCFIKLLONPQQ",
"RRPOOLLLIFCBB87777777777778BBCFILLLOPPQR",
"RQPOOOLLIFCB8877777777777788BCFILLOOPPQR",
"RRPPOOLLIFCB8777777777777778BCFGLLOOPQRR",
"RRPPOOOLIFBB8777777777777778BCFGLLOOPRRR",
"RRPPRROLIFBB8777777777777778BBFGLOORPPRR",
"RRRRLKJGFFCCBBBB88BBBBBBBBBCCFFGKLLLRRRR",
"RRRKCCEEEFFFFFFFIIFFGIIIIGGGIIKIIIIKOSRR",
"RRTGB6666CF56669FB6666EG66669ID6669JLSRR",
"RSTI866669C6666AE96666DF66669G966AAILRRR",
"STTKC66AADF96AAAGD6AAADG96AA9JD6AAAJLSSR",
"STTIC66A6DG96AAAGE6AAAEL9AAA9LD6AAAJOSSS",
"STTIDDHHHHFDHHHHGFHHHHIGHHHHHJIHHHHKLSSS",
"STTJCFGLIFFINPOLFGLLLLGGLPRRMILRRPOLOSRS",
"SRTKC5599CG74447GE9999FK84447MGB878LOSSS",
"RSTKB6666DO10311LC6666DQ20001U40011ERTTS",
"STTKB66AADP1AdH1LD6AAADP51112U40332CRSTT",
"TTTKC66AADP11A21LE6AAADP41112U41200BRRTR",
"TRTKCAAAAEL42224LFAAAAEO40002U41100ERRRT",
"RRTKCIJMKIGQYXYUGILMMMJGLJJKLLIB578LORRR",
"RRTKECEEFFG54559IFEEEEGIFEFGILKJLJJLORRR",
"RRTKG21114H21014JD6666EK6666DOD6666KORRR",
"RRTKG20114J22204JD66AAEL66AA9OD6AAAJORRR",
"RRTKJ33334H10214ME6AAAHL9AAADOE6AAAJORRR",
"TRTKG22314M10114ME6AAAHL9AAA9LHAAAAJORRR",
"TRTKG7444CI9558EJIHHHHJKHHHHMLKHHHHMORRT",
"TTTKFLQQPJGMQQMMIJPRSSLLMHKKMMORRPOLORTT",
"TTTKC5699EO41234LI4222EK34436RI69A9LPRTS",
"TTTLC6666DS10021MI10004M10113QD66AAKPSTT",
"TTTKD6AAADP21231OM30015M11312QH6AAAKRTTT",
"STTKE6AAADP31201SG20005Q11002UHAAAAMRTTT",
"UUVKGAAAHHP42224OL21118Q42115QKAAHHPRSUU",
"VVVKIOOMNLIQUVVRLLQQRUOLQQQUQOPUVUURQVVU",
"VVVJIDDDDFIECCCEKGCDDDIM8555EPOFBCIQQVVV",
"WWVLD6666EL66669LE6666HV10012XG1110BVVVV",
"WWWOF6AAAHP96AAAOF6AAAHW10122d91U908XVWW",
"WWWPGAAAAHP9AAAARIAAAAJV32311dD1A61DWVWW",
"XYXPJAAAAHPDAAAARKAAAAJW21102ZL1111BXXYX",
"XYZRMMQQQQPQQQQQRRQQQQUUOGJLQXUFBBBUUZYX",
"YYZYQOOOPMMOOMMONMPOMOOOPURRQMQWXYYUYZYX",
"YYZabYXXW9233339533533333343339VXXYaaZYY",
"YYZZZaZaXRNNPNNOOKJOOMNLMKONOQQXaZaZZZYY",
"YYZZZZYYYYaXWWWVVVVVTVVVVWWXXYYYYYZZZYYY",
"ZZYZZZYWXXWWVUTTTTTRRTTTTUVVWWXXYYZZZZYZ",
"ZZZZZYYYXWWVVUTTTTTRRTTTTUUVVWWXYYZZZZZZ",
"aaZZZZZYYXWWVVVVTTTTTTTTTUVVWWXXYYZZZZaa",
"baaZZZZYXXWWWVVVUUTTTTTUVVVWWXXYYYZZZaab",
"cbaaaZZYXXXXWWWVVVVVVVVVVWWWXXXYYZZaaaac",
"ccbaaaZYYXXXXWWWVVVVVVVVWWWXYXYYYZaaaabc",
"cccbaabaYYXXXWWWWWWWWWWWWWXXXXYYZaaabbcc",
"cccccbbaaZYYYXXWWWWWWWWWWWXYYYZaabbccccc",
"cccccbbbaaaZYYYWWWWWWWWWWWYYZZaabbcccccc",
"ccccccccbaaZZZYYYYWWWXYYYYZZZaaccccccccc",
"ccccccccbbbZZZZYYYXXXYYYYZZZZabccccccccc",
"cccccccccccaabaZZZZZZZZZZababccccccccccc",
"ccddddcccddcccccbbbbabbbbccccddcccdddddc",
"ccXVVVccZbbcZZcZcbZXbaZcdZabbbbZbbYVVVZd",
"dXSUUN35D5559959559945954995555945EVSUUb",
"dXVUUU65D5559959369H55955955555995EVUUUY",
"dXVUUUaaWaaaXXaH3AWQVVUVVUaaaaaXaaWUUUUZ",
"dXUUUUUUUUUUUUUVaVUUUUUUUUUUUUUUUUUUUUUb",
"ddYXYXXXXXXXXXYXXXXXXXXXXXXXXXXXXXXXXXZd",
"dddddddddddddddddddddddddddddddddddddddd"
};
