/* XPM */
static char * review[] = {
"40 86 40 1",
"0 c #9e6e47",
"1 c #635f5e",
"2 c #573f30",
"3 c #40342c",
"4 c #412b18",
"5 c #3b291b",
"6 c #332b2b",
"7 c #312724",
"8 c #372416",
"9 c #332316",
"A c #2d231f",
"B c #2d1f15",
"C c #2a1c13",
"D c #261e1b",
"E c #261b13",
"F c #251a12",
"G c #251911",
"H c #221811",
"I c #23170f",
"J c #21160f",
"K c #20160f",
"L c #1f150e",
"M c #1e150e",
"N c #1d130d",
"O c #1c120b",
"P c #1b130c",
"Q c #1a110a",
"R c #18120d",
"S c #191009",
"T c #160f0a",
"U c #160d08",
"V c #140d07",
"W c #130c07",
"X c #120b06",
"Y c #100b07",
"Z c #0f0a06",
"a c #0e0905",
"b c #0c0805",
"c c #0b0704",
"d c #090502",
"KKMKKHHFFFFFEEEECCCCCCCCCEEEFFFFFHHJKLKK",
"MFBABHHFFFFEEECCCCCCCCCCCCEEFEGFFHHBBBFK",
"K99C8BJFFEFEEECBB443554EBBEEEFFFFJB5599K",
"HC228BKGFEFEEEELOIGBBCIELLEEEEFFHKC402BH",
"H9328BKFFFFEGA012121101122BEEEFFHKB8239H",
"MBBB9GJGFFEEGA110101211101CEEEFFHJE9C9BM",
"LMHHKHHEEEECCCIIIGGCBGGGEBCCCEFFGHQPKQML",
"KPSOPOLLKHLIIGGECBBCCBCCEJGIJGFFFN3113OK",
"P32532732533233335222323323323JEK711217O",
"M73353333223233225533533335539HEO311112U",
"R32373233225322225BB99BBCCCGIGFFL611113S",
"KKNPKMLKIKIGFCBBB988588999BBCEFFFM3112PK",
"KKHHHHGFFEECBB998888888899BBCEFFHHPFEQMK",
"KKKKHHHGFFECBB998885588889BBCEFFHHHMNKMK",
"MKKKKHHHFFECBB988855558889BBCEFFHHJKKKKM",
"MMKKKHHHFFCBB99885555558899BBEFFHHHKKKMM",
"MMMKKJIHGGCBB99885555558899BBCFHHHJKKKMM",
"MMLKKJIIGGCBB988555555558899BCEIIHJKKMMM",
"MMMKKKJIGECB9988554445558899BCEGIJKKKMMM",
"MMMMMLJIGCCB9888554444558889BCEHIIKMNMMM",
"PPPMKLIHGCCB9885444444455889BBCFIIKKMNPP",
"PPNLKJIIGCB998854444444455899BCGIIKLMNNP",
"PNNMKJIIFCB998554444444455899BCGIIJKMNNP",
"PNPMKLIGFCB988544444444448889BCGGIKKMNPP",
"PPNMLLIIGCB988544444444445889BCFIJKLMNPP",
"PNPNNLJIGCB988444444444444889BCGIJLNNPPP",
"OOPNNLJIGCB988444444444444889BCGIILNOOOO",
"QOONNLJIGCB984444444444444589BCGIJLNOOOQ",
"OQPOONLIGC98844444444444444889CEILLOOOQQ",
"QOOOIGGECCBB9998888888888999BBCEGIILOOPQ",
"QPQIBBBBBBCCBCCEFECCCEFGEEEEFGGEGGFFLQPQ",
"QQQE933669C53667C93666BC6366AGA3667GJQQQ",
"QQQG93666AB66667BA3666AC66667GA6666EJQQQ",
"SSSG96666AC76677CB6666BG7666AIB6677EJQSS",
"QSSG96666AG76667GB6666DI7666AID6666EJQSS",
"QSSGBADDDECDDDDDCBADDDDCDDDDDGEDDDDHKQSS",
"SSSGBCEGHCBCGGGG76766A7AJNLOLFGPRONIKQSS",
"SQQIA2223AC8577A7622216A42324IE4224EMQQS",
"QQQH711115E636676200003D20100NC00008ROQQ",
"QQQE511116C766666311113D20111N71dI05QOQQ",
"QQQE511116E766676311113D20212JC13218QOQQ",
"QOSF721127CA777A6621126D20200NG21208ROOO",
"OOSGBDDDDDCGHHHG66666667GCECEIJILIGLLOOQ",
"OOSGB95AACCBBBBBDA6666ADIEEINIJPRRPLLOOQ",
"QOQJ900105I63667I800008O21112Q82222COOOQ",
"OOQK800004J66667I401104S11111X40002BQOOQ",
"OOQK800104L76667J401104S21112W400009QOOO",
"QOQK900104J76667J502208O24422U402009QOOQ",
"QOSIC4AA5FGEDDDDGG4AA8GJ44334Q92222GNQOQ",
"QQSGCRUSTICGIIIIGITTQSJGOTRTTIPYZbYMNQQQ",
"SQSIB22229I7677AJB20228Q42223R82222JPQQQ",
"SSSJ800004N66667L500104Y20000V31200IPQSS",
"SSSJ900104N76677L801104W31111T20120IOSSS",
"SSSJ900104O76667L922004Y20002Y20010GQSSS",
"SSSHC2232BJDADDDJC2222BT40002Y40022JQSSS",
"TUUGGTWSTLGJMNPLILTWWTNJORTTRMOTTRTRNSUT",
"UUUIE5455CGB9BBBGEABBBHIBABBFNIDDEHNPUUU",
"UUUK900104L63667LC3666EN6366AQD3666MPUUU",
"VVUN901104T7666ALE6677EO7666DSE6677MQUVV",
"VWVP901104TA667ANE6677FQA676DUE6777NSVVW",
"WWWPC02328TA677ANH7777HQA777DUH677ARTWXW",
"WXZPNIKMIRPNMMRRPPRRRRRQRRRRRSRRRRRRTZXW",
"YYZXQRRPQNLLKLLKMOLKKMMKKLMKNPRTTSTTYZYY",
"YYZaaYYYVU712222A313223232222BTWXWYaaZYY",
"YYZZZaZZZVNKLNLKNKHNMJKHNPLNHMVZZZaZZZYY",
"YYYZZZZXWWXXWVVVSUUSSSUUUVWWXXWWXXZZZYYY",
"ZYYZZZYXWVVUTUSSSQQQOQQSSSTUUVVWWXZZZYYZ",
"ZZZZZYXXWVVUUUSSSQQQOQQSSUUUUUVWXYYZZZZZ",
"aaZZZZYXXWWVUUUUSSQQQQSSSUUUVVWWYYZZZZaa",
"baaZZZYYWWWVVUUUUSSSSSTUUUUVVVWYYYZZZaab",
"bbaaaZZYXXWVVVUUUUUUUUUUUVVVVWXYYZZaaaab",
"bbbaaaZYYXWVVVVUUUUUUUUUUVVVVXXYYaaaabbb",
"cccbbbbaXXWWVVVVUUUUUUVUVVVVWWXZabbbbbcc",
"bcbcccbbaZXXXWWWWVVVVVVWWWWXXXZabbbcbbcb",
"bbcbbbbbbaaXXXXXWWWWWWWWWXXXXZabbbbbccbb",
"bbbccbbbbaaZZXXXXWWWWWWXXXZZZaabbbcccbbb",
"bbbbcccbbbaZZZZYXXXXWXXXXZZZZbbbbcccbbbb",
"cbbbbcccccbaaaaaZZZZZZZZZaaabbcccccbbbbc",
"ccdddcddddcccbcbbbbcbbcbbcccccdcccccdddc",
"dcYVXcaaccbaZcacaacZccZcbaZaccaccccbVVZd",
"dYQWA2A333667333333A3373357735A33336TTRa",
"dWTVK3773557A3533736366335AA33A33636TTTZ",
"dWTTUaXXaZZXXaYRRRRRRT63RVXXaZXaaZaXTTTZ",
"dYSTTRSRRRRRSQSSSSSSSSUXTSSSRRSRRRQRTTTb",
"ddXWWWWWWWWWWWWWWWWWWWWWWWWWWWWWWWWWWWad",
"dddddddddddddddddddddddddddddddddddddddd"
};
