/* XPM */
static char * review[] = {
"40 86 40 1",
"0 c #9e7547",
"1 c #5f4a39",
"2 c #473425",
"3 c #372e2b",
"4 c #412a19",
"5 c #3d2818",
"6 c #382719",
"7 c #322826",
"8 c #2c282a",
"9 c #342316",
"A c #312015",
"B c #2d2019",
"C c #2c1e14",
"D c #2a1b12",
"E c #261e1c",
"F c #271b13",
"G c #251a12",
"H c #261910",
"I c #241811",
"J c #221811",
"K c #23160e",
"L c #21160f",
"M c #20160f",
"N c #1f1510",
"O c #1e140e",
"P c #1e120d",
"Q c #1b1310",
"R c #1b120b",
"S c #1a110a",
"T c #1a1009",
"U c #170f0a",
"V c #170d08",
"W c #140c08",
"X c #140b07",
"Y c #110c08",
"Z c #100b07",
"a c #0f0a06",
"b c #0e0805",
"c c #0c0805",
"d c #090603",
"JNOMMJJGGGGGFFFFDDDDDDDDDFFFGGGGGJJLMONJ",
"MGBACJIGGGGGFFFDFFFFFFDDDFFFGGGGGJJCCBIN",
"M9AD6CJGGGGFFDCCC422545GCCFFGGGGGJC66A9M",
"GC116CMIGGFFDKHLPKKKDHCFPOIHDFGGJJC402AI",
"JA229CMGGGFK300111110210110DFFGGJNB912AJ",
"NCAC9GLIGGFHB100000001110003KFGGJLF9C9CN",
"NNJJNJIGGFFDDKKH7AKHHDCHKKKCDFFGGJWRQUON",
"NNSRQQOOOOLKIFHFHDCCACDDFFHIILOLGS1001UJ",
"R3233132222122112112212112122123T200002U",
"P6226226323366224222542226236339X100000a",
"P213212COMKIGDDCAAAA9AACCCFHHKKGR200001W",
"NOQOMOOHGFFDCCA9996666999ABCCFFGGR1001QN",
"NJJJIJGGHFFDCBA9966666699ACCDFFGJKUEEUNN",
"NNNNJJJGGGFCCAA96666666999ACCFFGJKIOOMNN",
"NNNNJJJJGGFCCA996666666699ACCFHGJJJJJNNN",
"NNNJJJJJGGDCA9996666666699ABCDHGJJJJJNNN",
"NNNNJJJJIHDCCA996655556699AACDHJJJJJNNNN",
"ONNNJJJJIHDCA99666555556699ACDHJJJJJNNNO",
"OONNNMKKHHDCA99665555555699ACCFHKLMNNNNO",
"OONOOMKKHHCAA96655555555669AACFHKKMOONOO",
"QQQOMMKHHFCA9965544444556699ACDHKJMMOOQQ",
"QROOMLLKHDCA9965544444456699ACDHKKLOOORQ",
"ROOOMLKKHDCA9665544444455669ACDHKKKMOORR",
"RQPNNKKHHDC99655444444445699ACDHHKLMNOQQ",
"RPOOOKKKHDAA9654444444444569ACDHKKLOOOQR",
"ROPOPKKKHDCA9654444444444569AADHKKOPOPQR",
"RRPPPKKKHDA995444444444444569ADHKKOPPPRR",
"RRPPPKKKHDA965444444444444569ADHKKMPPPRR",
"RRPRRPOKHDA965444444444444569ACDKKORPPRR",
"RPPRKIHFDCCAA9999999999999AAACDFHKKLRRPR",
"RPRLCBBCCCDDCCCFGFFFFFHHFFFFHHHHHGHHOSPR",
"RSTH93333BD33337DA3333BD3333BHB3337ILRRR",
"RSTH93338BA33337C93388BD33887DB3388FLRRR",
"SSTHA3888BD73888DB3888BH7888EHB3888FLSSS",
"STTHA3888BH73888HC3888EK7888EKB8888FLSSS",
"STTGCEEEEFDBEEEEDDEEEEFHEEEEEHFEEEEIMSSS",
"STTHCDDHHDCDHHHHDDKKOPHDKRPPLHIPUROKMSSS",
"USTIA3777AD6777BFD2222AI62225JF2222FOTST",
"RSTI93333BD33337HA01002U10000SC00005RSTS",
"STTI93388BD73887HA01002T30001P71dI06TRTT",
"TTTIA3888BD73888HC01112T20001PB02116SSTT",
"TRTIB7888BDB888EHD00004R20001QH11119RSTS",
"RRTICFJNJFCGJJJIDHDA99DHLIFIJILKKKKLORRR",
"RRTICCCCCFDCCFDFFDA9BCHHCCFFGKHFIFFKORRR",
"TRTID10002P20001Q400104O3333BKB3337IPRRT",
"RRTIF10002U20000P200112P7388EKB3888GPRRT",
"RRTHJ11112R31111H611117K7888EKC8888GPRRR",
"TRTJD11102U20000R401104P7888EKF8888JPRRT",
"TRTID4242AKA2224LD47E5HKGEEEJKJENNJMPTTR",
"TTTHCKRPPHDIQRROHKYVTYLHKKKPKLNV33TLRTTT",
"TTTIA3377CH6377BKC1111CL7777BPE2113JPSTS",
"TTTKB3388BK73337O600006P3388ER70001JPSTT",
"TTTIB3888BK73888O600106P7888EQ70121EQTTT",
"UTTIC7888EK78888O600106R7888ER71111EPTTU",
"UUVIFE8EEGKEEEEELD1221HREEEEGREEEBEQPSUU",
"VVVIHOOKNKHKOOONKOWYWYPKPRRSROQQQQQRPUVV",
"VVVIFBBBBDHBBBBCKH9559HKCBCBGOJEEGJRRVVV",
"VVVMC3333BK73337R500104U3333ETE3387NSVVV",
"WXWOC3888EP73888U40dd12Y7888EVF3888NSVWW",
"WXXPF7888EP78888W40EE02Y7888EVG8888QUWXX",
"YYYOI8888GPE888EUC1111AWE888EVJ8888QUYZY",
"YZaQNNQQQQPQQQQQRUZZZaWUQQQQQTSQQQQUUaZY",
"YZaZROOOOOQOMNNMOOOMMOLOOOPQRRRUUUUUZaZY",
"ZZabbZYYYYVL112112I111212111NVXYZYZbbaZZ",
"ZZaaabaaZZXSOMONNMRPMMPJNOJNSXaZaabaaaZZ",
"ZZZaaaZXXWWXXXWVVVTTVVVVVVXXXWWXXZaaaZZZ",
"aZZaaaZXXXWVVVUTTTTTRTTTTTVVVVWXXZaaaZZa",
"aaaaaZZYXXWVVVUTTTTTRTTTTUVVVVWYZZZaaaaa",
"bbaaaaZZYWWWVVVVTTTTTTTTUUVVWWXYZZaaaabb",
"bbbaaaZYYYXWVVVVVUTTTTVUUVVWWXXYYZaaabbb",
"cbbbbaaZYYYWWWVVVVVVVVVVVWWWWYYYZZabbbbc",
"ccbbbbaZZYYWWWWVVVVVVVVVVWWWYYYZZabbbbcc",
"cccbbbbbZZYYYXWWVVVVVVVVWWYYYYZZabbbbccc",
"ccccccbbbaZZZYWXXWXWWWWXXXYZZZabbbcccccc",
"cccccbbbbbbaZZZXXXXXXXXXXXZZaabbbbcccccc",
"ccccccccbbbaaZZZZYXXXYYZZZZaaabccccccccc",
"cccccccccbbaaaaZZZXXXZZZZaaaabcccccccccc",
"cccccccccccbbbbbaaaaaaaaabbbcccccccccccc",
"cdddddddddcdcccbccbbcbbbbcccddddcddcdddc",
"ddYWbcbdcbdbbbbcaaabYbbbcacbbbdbcbcdbWad",
"dYUR23B2332372326B33F3732B22372727223WUb",
"dWVU73B23B267233711122123B33772637726XUZ",
"dWVUXbXbbXbXXbXbU332332FdXbbXabXbXabXVUa",
"dYUUUUUUUUUUUUQEJQQQ18XOMOUUUUUUUUUUUUUb",
"ddZYYYYYYYYYYYYYYWWWXYYYZZYYYYYYYYYYYYad",
"dddddddddddddddddddddddddddddddddddddddd"
};
