/* XPM */
static char * review[] = {
"40 86 40 1",
"0 c #8f6f48",
"1 c #554436",
"2 c #3e3128",
"3 c #323034",
"4 c #422b19",
"5 c #3d2919",
"6 c #38281b",
"7 c #302a2b",
"8 c #312723",
"9 c #2b282a",
"A c #352416",
"B c #322115",
"C c #2d221c",
"D c #2d1e14",
"E c #2a1e15",
"F c #2a1c13",
"G c #25201f",
"H c #261b14",
"I c #261a11",
"J c #231913",
"K c #25180f",
"L c #231710",
"M c #201610",
"N c #20150f",
"O c #1f140d",
"P c #1b1410",
"Q c #1b120c",
"R c #1b1109",
"S c #18110b",
"T c #1a1009",
"U c #170f0a",
"V c #170d09",
"W c #140c08",
"X c #140b07",
"Y c #110c08",
"Z c #100b07",
"a c #0f0a06",
"b c #0e0805",
"c c #0c0805",
"d c #090603",
"MNONMJJJJJIIHHHHFFFFFFFFFHHHIIIJJJJMMNMM",
"MIBBDJJJJJIIHHHFHHFFHHFFFHHHIIIJJJJEDCJM",
"MABD6EMJJIIHHHDED442544IEEEEHIIIIME66BAM",
"JD11ADMJIIHIHDROOKKFOKBDOQROHIIIJMD401DJ",
"MB21ADMIIIIE0111111010100111EIIIJMDA12BL",
"NDDDAIMKIIIE1100000000100000IJIILMFADBEN",
"MMJJMMJIIHFHLENLKKKFKKEFKOFDHHHIILVSPUNN",
"MPSQPQMOMMNLHIIIFDDEDEDIFILLLLOOIQ1001UM",
"Q2122161221161111211112121111211M200002U",
"O6122222662266222422225222262622V100000a",
"Q212211LMLLLIFFEDBBBBBBDDFIILKNLQ200001W",
"MOQONNNIIIHFEDBAAAAA6AAABBDDEFHIIQ1000QM",
"MMJJJJJIIIIFDDBAA6A66AAAABDDFIIILLUEEVNN",
"MMMMLLLIIIIFDBBAA66666AAABBDEIIILLLOOMNM",
"NMMMMLLLIIIFDBAAA6666666AABDEIIILLLMMNMN",
"NNMMMJLLIIFDDBAA66655666AABDDFIILLLMMMNN",
"NNMMMMLLKIFDDBAAA6555566AABDDFKLLLMMMMNN",
"PNMMMMLLKIFDBAAA665555566AABDFILLLMMMNNP",
"PPNMMNLLKIFDBAA6555555556AABDFIKLMMMMNNP",
"PPNONNLKKIEDBAA6555555556AABDDIKKLMNONPP",
"PPPONNLKIIEDBA655544455556ABBDFIKLNOOPPP",
"PQPONMLKIFDBBA655444445556ABBDFIKKNONOQP",
"QOPONMLKIFDBAA655444444556AABDFIKKLNNOQQ",
"QPQNNNKKIFDBAA554444444455AABDFIKKNNNPPP",
"QQOOONLKIFDBAA554444444455AABDFIKLNONOPQ",
"QOQOOONKKFDBAA5544444444455ABDFIKLOOOQPQ",
"QQQOOOLLKFDBA54444444444455ABBFIKLOOQQQQ",
"QQQOOONKIFBAA54444444444455ABBFIKNOOQQQQ",
"QQQQQOOKIFBA554444444444445AABDFKOOQQQQQ",
"QQQQLKKIFDDBBBAAAAAAAAAAAABBDDFIKLLNRQQQ",
"QQQLDDDDDDFFDEFHIIJHHLIIIIIIIKKIIIIIORQQ",
"QQRIB2277CF22278I60010AK2277CKC2778JMRQQ",
"QQRIA2777CD23777F400004I23778IC3777HNRQQ",
"SSTIB7777CF87779I500104N8777CKC7799HNTSS",
"STTIB7777CI87779L502205O8777CLE7777HNTSS",
"STTIDGGGGHFEGGGGIF4CC4IIGGGGJIHGGGGLNTSS",
"STTIDFFKKFDFIIIHEHSQQSIFKLLLIIKOOLLLNTSS",
"STRLB2888DE87778EC1111CE87778HE888CKORRT",
"QTRKA2377CE33337H600006J33339HC2777JORRT",
"RRRKB2777CE33337H500005H33339HC3777JORRT",
"RRRKB7777CE73337H200002H73339HE7779JORRT",
"RRRKB89G9EE93799G801108H97999HH9999LORRR",
"RRTLDIHGMICGGGGGGGJJGJGGGGGGGGNNPNNLORRR",
"RRRLBD11CEC88888GC8888GG888GGGKFIFFLORRR",
"RRRL81001CC33333G733338G33337HD2777KORRR",
"RRRL801116G33333G733339G33333GD3777JORRR",
"RRRL801118G33333G933339G33333GH7999JORRR",
"RRTKC11419C33333G933339G33333HH7999JORRR",
"RRTIEGJJGHC9999GGG99GGGGG99GGHNGJGJMORRR",
"RRTIFFJJIKGGJJJGGGGGGGGGGPPPGGNUYWUOQRRR",
"RRTKD2788EH21112GC3333GJ21112JK1111HQRRR",
"TTTLC2777CP00100J83333CP10000PD01005SQTT",
"TTTKD7797CO03dG0KC3333GM30001P81dP08TRTT",
"UTTKE7797EP00300MG3333GP20001PI0110AUTTU",
"UUVKHGGGGJJ61114PH99GGHP40001PK1111FSSUU",
"VVVKIOOLNLKPSUUPHJMMMPJJPPPPPMRUVVWSOUVV",
"VVVKICCCCFKDCCCELICCCCILECEEHOMEHHJQQVVV",
"VVVMD2337EK82778OE3377HO7377CRE2377NQVVV",
"WXWOE7799HO87999OF7799HQ8799GVH7999PSVWW",
"WXXOH7999HOC7999OH7999JR8999GVJ7999PUWXX",
"YYYOJ9999JQC999GQJ9999JTG999GVJ9999QUYZY",
"YZaQNMPPPPQPPPPPQQPPPPSSPPPPSUSPPPPSUaZY",
"YZaZQOOOOPNNNNNNOOONMNONOOOOOPSUSSUUZaZY",
"ZZabbZYYXWC111112C11212111111CWYZYZbbaZZ",
"ZZaaabaaaYQMNONMOOLOOMNNMMNNMQXaaabaaaZZ",
"ZZZaaaaXXXXXXWWXVVVTTVVVWWXXaXXYZZaaaZZZ",
"aZZaaaZXXXWVVUUTTRRRRRRTTUVVVXWYYZaaaZZa",
"aaaaaZZYXXWVVVUTRRRRRRRTTVVVVVWYZZZaaaaa",
"bbaaaaZZYXXXVVVVTTRRRRTTUUVVWWYYYZaaaabb",
"bbbaaaZYYYXWWVVVVUTTTTVUUVVWWWYYZZaaabbb",
"cbbbbaaZYYZWWWVVVVVVVVVVVWWWWYYYZZabbbbc",
"ccbbbbaZZYYWWWWVVVVVVVVVVWWWYYYZZabbbbcc",
"cccbbbbbZZYYYXWWVVVVVVVVWWYYYYZZabbbbccc",
"ccccccbbbaZZZYWXXWXWWWWXXXYZZZabbbcccccc",
"cccccbbbbbbaZZZXXXXXXXXXXXZZaabbbbcccccc",
"ccccccccbbbaaZZZZYXXXYYZZZaaabbccccccccc",
"cccccccccbbaaaaZZZXXXZZZZaaaabcccccccccc",
"cccccccccccbbbbbaaaaaaaaabbbcccccccccccc",
"cddddddddddcccccbcbbbbbbccccddddccdddddc",
"ddYWYcbbcbbdcXbbaaaaaacbYbbcbbdbdcdbWWad",
"dYTWE18222C22C268C888822E28182282222QUSb",
"dWVVO288288222111211111121128C2C2222QWUZ",
"dWVUVaaXbaXbd822882822C2822XaXbXbbbbUVUa",
"dYUUUSSUSSSSSZYPPPPPG39XSUaSSUSUSSSSUUUb",
"ddZYYYYYYYYYYYWWWWWYYYYYYYYYYYYYYYYYYYad",
"dddddddddddddddddddddddddddddddddddddddd"
};
