/* XPM */
static char * review[] = {
"40 86 40 1",
"0 c #958387",
"1 c #804e38",
"2 c #385d93",
"3 c #4e3928",
"4 c #3c3028",
"5 c #3f291a",
"6 c #3a2818",
"7 c #39281b",
"8 c #36271c",
"9 c #2f2927",
"A c #382417",
"B c #352316",
"C c #342215",
"D c #31241c",
"E c #312217",
"F c #312014",
"G c #2f241d",
"H c #2f2118",
"I c #2e2015",
"J c #2d2118",
"K c #2b211b",
"L c #2d1e13",
"M c #2b1d13",
"N c #2a1d15",
"O c #2a1c13",
"P c #291b11",
"Q c #291a10",
"R c #281b13",
"S c #271a11",
"T c #241b14",
"U c #261910",
"V c #231911",
"W c #25180f",
"X c #24170f",
"Y c #23170e",
"Z c #211710",
"a c #20140c",
"b c #1a100a",
"c c #160d08",
"d c #110b06",
"USSSSSSSPPPROOOOOPPPPPPPOOOOPPPRSSSSSSSU",
"SPLLMPSSPPPOOOOOMLIIIILMMOOOPPPRSSPLLLPU",
"QIBBCLPSPPOOMMMMLCBBCCFLMMOOOOPRRPLA78IP",
"PF55ALPSPPOOME8DB877788BEELMOOPPPPI735EP",
"SF77BLSSPPOOL83333333333348LOOPPPSI855FQ",
"SMIIIMSRPROON84333333333337IOORPPSOIEEMU",
"UUSSSSSRPOOMOIE88887777788EMOORPPRIEDIPW",
"URNOONNIILIIIEEEEBBBCBCEEEILMOOPPH4334JU",
"RH8888887887777755575557778IMOOPM833338R",
"OD4444444788887775576577778IMOPPL433334N",
"RH8788888ELLLIICCBBBBBCCCCIMMORPN433337R",
"URMLILLIILPPLLIFCCCCCCCCFFLMMORPPH4334HU",
"WUUSSSSRPPPMLFFFCCCCCCCCCFILMOPPPRIDDLSW",
"WWUUSSSRPPPMLFFECCBBBBCCCFFLMMPPPSUUUUWW",
"WWUUSSSRPPPLLFFCCBBBBBBCCEFLMMPPPSUUUUWW",
"WWUUUSSRPPOLFFCCCBBBBBBCCCFFLPPPSSSUUUWW",
"WWUUUUSSPPPLFFCCBBAAAABBCCFILMPPSSUUUUWX",
"XXWUUUSSPPPLFFCCBAAAAAABBCCFLMPRSSUUUWXY",
"ZYWUUUUSPPMLFCCBAAAAAAABBCCFLLPPSSUUWWZZ",
"YYWWWWUSPPLLFCCBAAA66AAABCCFFLPPSSWWWXYY",
"XXXWWUSSPPLFFCBBAA66666AABCFFLOPSSUWWWXX",
"YYXWWUSSPPLFCCBAA666666AABCFFLMPQSUWWWYY",
"YYXWWUSSPMLFFBBAA66666AAABCCFLPQQSUWWWYY",
"YXXWWUQQQMLFCBAAA666666AAABCFLPPQQUWWWYY",
"YYWWWUUQQMFFCBAA66666666AABCFFLQQQUWWXYY",
"YYXXWWUQQLFFCBAA66666666AABCFFLPQUWWXXXY",
"YYYXWWUQQLLFCAAA66666666AABCFFLPQWWWXXYY",
"YYYXWWUQPLFFCAA666666666AAABFFLPQWWWXYYY",
"YYYYWWUQQLFFCAAAAAAA6AAAAABCFFLPQUWWXYYY",
"YYYWUQPPMLFFFCCCCCCCCCCCCCFFLLMPSSUUXYYY",
"YYXUMIIIIILIEEIIIFIEEILLIIIINOMLLLNRWYYY",
"YYXQID8DDIFD8DDHIEDDDHILEDDDHMHDDGJOUYaY",
"YYYPE899GEE889GDIE889GIID89GHLHDG9GNUYaY",
"aaYPID99GHID999GIHG99GJIHG9GKMHGG9GOUXaa",
"aaYQIDGGGJIHDGGKMIGGGKNMHGGGJOLGGGKOWXaa",
"aaYPLHJKKMLJJKKNMMJKKNOMNKKKORONNNNRWXaa",
"aaYQLIILMMLLIILMLLMMMMOPLIILMPQPPOPSWYaa",
"aaXQIDDDHIFA555AFIHDHHML65335FC555ALWYaa",
"aaXPE889DFB53535CHD8GDIL53113A53333BWYaa",
"aaXPID99GHB55555AHG99GII431136533336UXaa",
"aaXQID99GJC55555CIGGGGNL53113A533135SXaa",
"aYXQLHKKKNF6555ALMKKKKNL53333C533136UXYY",
"YYXSLINNNOMIFFILPPNNRRSPF656CPLA556LWYYY",
"aaYULA66AFI7555EPOLIJNPPMIILRUPNIINUXYYa",
"aaYUC33335A33335IHDDDDNOHDGKNSMGGGKRXYaa",
"aaYUC33134733335FSNKKTVMHGGGNSNGGGKRXYaa",
"aaaWE33335531335Q311113YJGGGNSOGGGKSYaaa",
"aaaWF43335A3333A50000005TGGKNSRKKKNSYaaa",
"aaaWQB666LOB67BY30001111ZHJJNSXVVTVYaaaa",
"aaaPB8888887744810100111744788DHHJJJWaaa",
"aaW777775444333311100111333445778EEEDXaa",
"abE78887774444331111111333445788EHHHHLba",
"abE7888777544433311111133444578DHHHHHIba",
"bbE7888877744443333333334444788DHHHHHNbb",
"bbH888888775444433333334444778EEHHHHHNbb",
"bbH88888887747313111313114778DEHHHIIINbb",
"bbH888BBB888B774444444444788DEHHIIIIINbb",
"bbH8BBBBE8I31334554444478488DHHIIIIINNbb",
"bcI8EEEEEEL300000000110000003UHLLNNNMOcb",
"bcIBEEEEEEEI33331110131113314PINNNOOMRcb",
"bcIEEEEEHHHHPPNNOMO44IPSXSWXONNNNOOOORcb",
"bcNEEEHHHHHHHHI78HEB8HHD7NNINNOOOOOOORcb",
"bcNEHHHHHHHHHI78787777B787NOOOOOOORRRScb",
"bcNHHHHHHHHHHL787EB778I786OOOOOORRRRRScc",
"ccNHHHHMLILMMME6AMLA6MSAALURSUSUSRSSSUcc",
"ccNHHHH47HD88EHE8EHDI88DIDEHD8NDHUSUUUcc",
"ccNHHII33433333333334333334343334XUVUUcc",
"ccRHLNQWWQQWWWMWYYWYWWSUSUUUUXSUVVVVWVcc",
"ccRNNQ9999999999999999WTSSSSUUVVVVVVXXcc",
"ccTNQ222222222222222229XTUUVVVVVVVZZXZcc",
"cdTP92200022022020222229YVVVVVVZZVZZZZdc",
"cdTQ92220022000000020229YVVVVZZZVVVZZZdc",
"cdTS92222222222222220229ZTVZVVZVZZZZZZdc",
"ddTT92222222222222222229VVZZVVZZZZZZaadc",
"ddTNT222222222222222229TTZZZZZZaaaZZaadc",
"ddYRTT9999999999999999KTTZVVVZZZZZaaaZdc",
"ddYTT9999999999999999999GGDDDGGGGGKaaZdd",
"cdZVN999999999999999999GGGGGGGGGKJGZbadd",
"cdZVR8DDDDDGGGGDK111113NGGGGGGKKKKGZbadd",
"dcZVR8GGGDDGGGGDG84D48DGGGKKKKKKGKGZbacd",
"ccYXVG8888DDDDDDDGGGGKGDGGGGGGGGGGKbbabc",
"ccYVZVTRRRTTTTTTTTTTTVVVVZZVVVZZZZbbbabc",
"ccaVZZZZZaaaaaaabbbbbbbbbbbbbbbbbbbbbbbb",
"dcbbZVVZVZZZZZVVVVVVVZZZZZZZZZaaaaaabbbc",
"dccdcccddddddddddddcccddddcccccccccccccc",
"dddddddddddddddddddddddddddddddddddddddd"
};
